;Generated with Cura_SteamEngine Realio_170823_USB_32
M190 S50.000000
M140 S60.000000
M109 T0 S210.000000
T0
;Sliced at: Tue 11-02-2025 11:27:24
;Basic settings: Layer height: 0.2 Walls: 0.8 Fill: 20
;Print time: 48 minutes
;Filament used: 2.37m 7g
;Filament cost:  Unknown
;M190 S60 ;Uncomment to add your own bed temperature line
;M109 S210 ;Uncomment to add your own temperature line
G21        ;metric values
G90        ;absolute positioning
M82        ;set extruder to absolute mode
M107       ;start with the fan off
G28 X0 Y0  ;move X/Y to min endstops
G28 Z0     ;move Z to min endstops
G1 Z1.5 F3600 ;move the platform down 1.5mm
G92 E0                  ;zero the extruded length
G1 F200 E8              ;extrude 8mm of feed stock
G92 E0                  ;zero the extruded length again
G1 F3600
;Put printing message on LCD screen
M117 Printing...

M305 S1 $57 	;check Command 
;Layer count: 125
;LAYER:0
M106 S255 $59 
G0 F3600 X20.234 Y20.623 Z0.300 E2.88281 $2 
G92 E0 $25 
G92 E0.5 $2 
G92 E0 $25 
;TYPE:SKIRT
G1 F1200 X21.753 Y19.143 E0.10581 $88 
G1 X22.979 Y19.475 E0.16918 $50 
G1 X22.998 Y18.400 E0.22282 $49 
G1 X24.443 Y17.336 E0.31234 $62 
G1 X24.650 Y17.210 E0.32443 $62 
G1 X24.722 Y17.169 E0.32857 $62 
G1 X24.775 Y17.137 E0.33165 $62 
G1 X24.982 Y17.017 E0.34359 $49 
G1 X25.057 Y16.975 E0.34788 $53 
G1 X25.106 Y16.946 E0.35072 $51 
G1 X25.193 Y16.898 E0.35568 $51 
G1 X25.240 Y16.872 E0.35836 $60 
G1 X26.894 Y15.959 E0.45261 $56 
G1 X27.967 Y16.582 E0.51451 $61 
G1 X28.276 Y15.391 E0.57590 $52 
G1 X30.095 Y14.860 E0.67044 $57 
G1 X30.259 Y14.813 E0.67895 $59 
G1 X30.351 Y14.788 E0.68371 $49 
G1 X30.387 Y14.778 E0.68557 $55 
G1 X30.472 Y14.755 E0.68996 $52 
G1 X30.565 Y14.730 E0.69477 $51 
G1 X30.627 Y14.715 E0.69795 $62 
G1 X30.686 Y14.699 E0.70100 $50 
G1 X32.670 Y14.203 E0.80303 $48 
G1 X33.560 Y15.097 E0.86596 $49 
G1 X34.228 Y13.983 E0.93077 $57 
G1 X36.582 Y13.970 E1.04821 $52 
G1 X38.701 Y13.994 E1.15394 $60 
G1 X39.343 Y15.111 E1.21821 $62 
G1 X40.320 Y14.223 E1.28408 $56 
G1 X42.051 Y14.662 E1.37317 $57 
G1 X42.051 Y14.663 E1.37322 $62 
G1 X42.190 Y14.697 E1.38036 $48 
G1 X42.243 Y14.711 E1.38310 $53 
G1 X42.323 Y14.732 E1.38722 $54 
G1 X42.496 Y14.778 E1.39615 $53 
G1 X42.531 Y14.788 E1.39797 $61 
G1 X42.623 Y14.813 E1.40273 $49 
G1 X42.778 Y14.857 E1.41077 $57 
G1 X42.778 Y14.858 E1.41082 $60 
G1 X44.587 Y15.366 E1.50456 $50 
G1 X44.915 Y16.601 E1.56831 $57 
G1 X46.061 Y15.984 E1.63324 $57 
G1 X47.689 Y16.898 E1.72639 $62 
G1 X47.776 Y16.946 E1.73135 $55 
G1 X47.825 Y16.975 E1.73419 $53 
G1 X47.900 Y17.017 E1.73848 $55 
G1 X48.107 Y17.137 E1.75041 $51 
G1 X48.160 Y17.169 E1.75350 $58 
G1 X48.232 Y17.210 E1.75763 $55 
G1 X48.317 Y17.262 E1.76261 $48 
G1 X49.882 Y18.195 E1.85351 $60 
G1 X49.904 Y19.505 E1.91887 $58 
G1 X51.234 Y19.229 E1.98664 $56 
G1 X52.849 Y20.824 E2.09988 $48 
G1 X54.329 Y22.343 E2.20569 $59 
G1 X54.000 Y23.558 E2.26849 $55 
G1 X55.231 Y23.558 E2.32990 $54 
G1 X56.214 Y25.158 E2.42359 $56 
G1 X56.263 Y25.240 E2.42836 $48 
G1 X56.300 Y25.303 E2.43200 $60 
G1 X56.336 Y25.364 E2.43553 $57 
G1 X56.456 Y25.571 E2.44747 $58 
G1 X56.498 Y25.646 E2.45176 $58 
G1 X56.527 Y25.696 E2.45464 $52 
G1 X56.601 Y25.829 E2.46224 $56 
G1 X57.514 Y27.483 E2.55649 $61 
G1 X56.891 Y28.556 E2.61839 $52 
G1 X58.073 Y28.863 E2.67932 $57 
G1 X58.611 Y30.676 E2.77367 $51 
G1 X58.636 Y30.761 E2.77809 $50 
G1 X58.652 Y30.819 E2.78109 $54 
G1 X58.678 Y30.911 E2.78586 $52 
G1 X58.703 Y31.003 E2.79062 $60 
G1 X58.702 Y31.003 E2.79067 $56 
G1 X58.718 Y31.060 E2.79362 $48 
G1 X58.760 Y31.217 E2.80173 $57 
G1 X58.775 Y31.279 E2.80491 $60 
G1 X58.791 Y31.338 E2.80796 $54 
G1 X59.271 Y33.258 E2.90670 $49 
G1 X58.382 Y34.143 E2.96928 $55 
G1 X59.482 Y34.784 E3.03280 $56 
G1 X59.504 Y37.169 E3.15179 $51 
G1 X59.472 Y39.292 E3.25772 $52 
G1 X58.378 Y39.920 E3.32065 $61 
G1 X59.264 Y40.827 E3.38391 $58 
G1 X58.793 Y42.712 E3.48085 $60 
G1 X58.770 Y42.799 E3.48534 $61 
G1 X58.758 Y42.846 E3.48776 $62 
G1 X58.736 Y42.926 E3.49190 $62 
G1 X58.737 Y42.926 E3.49195 $58 
G1 X58.701 Y43.060 E3.49887 $63 
G1 X58.678 Y43.145 E3.50326 $62 
G1 X58.654 Y43.232 E3.50776 $50 
G1 X58.616 Y43.364 E3.51462 $49 
G1 X58.615 Y43.364 E3.51467 $55 
G1 X58.107 Y45.173 E3.60841 $59 
G1 X56.886 Y45.497 E3.67143 $54 
G1 X57.211 Y46.066 E3.70412 $61 
G1 X56.833 Y47.807 E3.79301 $52 
G1 X56.569 Y48.285 E3.82025 $56 
G1 X56.521 Y48.371 E3.82516 $59 
G1 X56.510 Y48.389 E3.82622 $58 
G1 X56.462 Y48.476 E3.83117 $57 
G1 X56.373 Y48.629 E3.84000 $54 
G1 X56.330 Y48.703 E3.84427 $57 
G1 X56.291 Y48.767 E3.84801 $57 
G1 X56.263 Y48.817 E3.85087 $59 
G1 X56.211 Y48.902 E3.85584 $61 
G1 X55.278 Y50.467 E3.94674 $58 
G1 X53.988 Y50.489 E4.01111 $55 
G1 X54.309 Y51.750 E4.07603 $55 
G1 X52.648 Y53.433 E4.19400 $59 
G1 X51.131 Y54.911 E4.29967 $52 
G1 X49.905 Y54.580 E4.36302 $49 
G1 X49.883 Y55.860 E4.42689 $57 
G1 X48.317 Y56.794 E4.51786 $53 
G1 X48.250 Y56.835 E4.52178 $55 
G1 X48.164 Y56.886 E4.52677 $51 
G1 X47.843 Y57.072 E4.54528 $61 
G1 X47.768 Y57.114 E4.54956 $63 
G1 X47.718 Y57.143 E4.55245 $50 
G1 X47.642 Y57.185 E4.55678 $60 
G1 X45.988 Y58.098 E4.65104 $58 
G1 X44.902 Y57.468 E4.71367 $63 
G1 X44.601 Y58.521 E4.76831 $63 
G1 X42.907 Y59.162 E4.85867 $61 
G1 X42.646 Y59.237 E4.87222 $61 
G1 X42.559 Y59.261 E4.87672 $50 
G1 X42.474 Y59.284 E4.88112 $57 
G1 X42.340 Y59.320 E4.88804 $56 
G1 X42.340 Y59.319 E4.88809 $63 
G1 X42.283 Y59.335 E4.89104 $58 
G1 X42.190 Y59.360 E4.89585 $54 
G1 X40.212 Y59.854 E4.99756 $60 
G1 X39.314 Y58.951 E5.06110 $51 
G1 X38.624 Y60.044 E5.12558 $63 
G1 X36.315 Y60.087 E5.24080 $60 
G1 X34.177 Y60.055 E5.34748 $53 
G1 X33.545 Y58.954 E5.41081 $52 
G1 X32.612 Y59.840 E5.47500 $59 
G1 X30.686 Y59.358 E5.57406 $48 
G1 X30.606 Y59.336 E5.57820 $56 
G1 X30.606 Y59.337 E5.57825 $60 
G1 X30.472 Y59.301 E5.58517 $59 
G1 X30.415 Y59.285 E5.58812 $63 
G1 X30.415 Y59.286 E5.58817 $57 
G1 X30.329 Y59.263 E5.59261 $48 
G1 X30.236 Y59.237 E5.59743 $59 
G1 X30.104 Y59.199 E5.60428 $58 
G1 X30.104 Y59.198 E5.60433 $49 
G1 X28.295 Y58.690 E5.69808 $48 
G1 X27.972 Y57.472 E5.76094 $63 
G1 X27.039 Y58.012 E5.81472 $48 
G1 X25.350 Y57.247 E5.90723 $52 
G1 X25.164 Y57.143 E5.91786 $56 
G1 X25.114 Y57.114 E5.92074 $52 
G1 X25.039 Y57.072 E5.92503 $62 
G1 X24.718 Y56.886 E5.94354 $59 
G1 X24.632 Y56.835 E5.94853 $54 
G1 X24.565 Y56.794 E5.95245 $63 
G1 X23.000 Y55.861 E6.04335 $53 
G1 X22.978 Y54.570 E6.10777 $57 
G1 X21.710 Y54.887 E6.17297 $51 
G1 X20.033 Y53.232 E6.29052 $49 
G1 X18.553 Y51.713 E6.39633 $61 
G1 X18.885 Y50.488 E6.45965 $60 
G1 X17.603 Y50.465 E6.52362 $59 
G1 X16.653 Y48.873 E6.61611 $60 
G1 X16.616 Y48.810 E6.61976 $54 
G1 X16.552 Y48.703 E6.62598 $55 
G1 X16.509 Y48.629 E6.63025 $50 
G1 X16.420 Y48.476 E6.63908 $54 
G1 X16.372 Y48.389 E6.64403 $48 
G1 X16.361 Y48.371 E6.64509 $62 
G1 X16.313 Y48.285 E6.65000 $60 
G1 X15.368 Y46.573 E6.74756 $55 
G1 X15.999 Y45.486 E6.81027 $48 
G1 X14.763 Y45.131 E6.87442 $50 
G1 X14.267 Y43.364 E6.96599 $48 
G1 X14.266 Y43.364 E6.96604 $54 
G1 X14.228 Y43.232 E6.97289 $62 
G1 X14.204 Y43.145 E6.97739 $61 
G1 X14.181 Y43.060 E6.98179 $56 
G1 X14.145 Y42.926 E6.98871 $59 
G1 X14.146 Y42.926 E6.98876 $63 
G1 X14.124 Y42.846 E6.99290 $63 
G1 X14.112 Y42.799 E6.99532 $56 
G1 X14.089 Y42.712 E6.99981 $60 
G1 X13.611 Y40.798 E7.09823 $61 
G1 X14.508 Y39.906 E7.16134 $55 
G1 X13.431 Y39.247 E7.22433 $48 
G1 X13.378 Y36.979 E7.33752 $55 
G1 X13.405 Y34.768 E7.44783 $58 
G1 X14.499 Y34.140 E7.51076 $61 
G1 X13.612 Y33.253 E7.57335 $63 
G1 X14.091 Y31.338 E7.67183 $55 
G1 X14.107 Y31.279 E7.67488 $51 
G1 X14.122 Y31.217 E7.67806 $54 
G1 X14.164 Y31.060 E7.68617 $55 
G1 X14.180 Y31.003 E7.68912 $50 
G1 X14.179 Y31.003 E7.68917 $49 
G1 X14.204 Y30.911 E7.69393 $52 
G1 X14.230 Y30.819 E7.69870 $60 
G1 X14.246 Y30.761 E7.70170 $60 
G1 X14.783 Y28.881 E7.79925 $57 
G1 X16.010 Y28.556 E7.86257 $63 
G1 X15.401 Y27.424 E7.92670 $55 
G1 X16.281 Y25.829 E8.01759 $54 
G1 X16.355 Y25.696 E8.02518 $48 
G1 X16.384 Y25.646 E8.02806 $51 
G1 X16.426 Y25.571 E8.03235 $48 
G1 X16.546 Y25.364 E8.04429 $57 
G1 X16.597 Y25.278 E8.04928 $53 
G1 X16.624 Y25.234 E8.05185 $56 
G1 X16.653 Y25.183 E8.05478 $48 
G1 X17.618 Y23.595 E8.14749 $58 
G1 X18.896 Y23.570 E8.21126 $63 
G1 X18.579 Y22.300 E8.27656 $53 
G1 X20.234 Y20.623 E8.39411 $56 
G1 F2400 E3.89411 $91 
G0 F3600 X22.853 Y23.378 $22 
;TYPE:WALL-INNER
G1 Z0.300 $33 
G1 F2400 E8.39411 $91 
G1 F1200 X23.271 Y23.491 E8.41571 $95 
G1 X23.933 Y23.730 E8.45083 $51 
G1 X24.455 Y23.968 E8.47945 $59 
G1 X25.021 Y24.300 E8.51219 $59 
G1 X25.318 Y24.497 E8.52997 $53 
G1 X25.538 Y24.589 E8.54186 $49 
G1 X25.811 Y24.627 E8.55561 $60 
G1 X25.981 Y24.604 E8.56417 $54 
G1 X26.160 Y24.534 E8.57376 $51 
G1 X26.914 Y23.957 E8.62113 $49 
G1 X27.038 Y23.858 E8.62905 $54 
G1 X27.149 Y23.703 E8.63856 $54 
G1 X27.219 Y23.529 E8.64791 $57 
G1 X27.249 Y23.283 E8.66028 $60 
G1 X27.214 Y23.038 E8.67263 $58 
G1 X27.038 Y22.515 E8.70016 $59 
G1 X26.926 Y22.078 E8.72266 $53 
G1 X26.827 Y21.493 E8.75226 $52 
G1 X26.762 Y20.411 E8.80634 $60 
G1 X26.763 Y20.377 E8.80804 $55 
G1 X26.849 Y20.327 E8.81300 $59 
G1 X27.227 Y20.546 E8.83480 $52 
G1 X27.799 Y20.943 E8.86953 $59 
G1 X28.241 Y21.308 E8.89813 $58 
G1 X28.698 Y21.770 E8.93055 $48 
G1 X28.927 Y22.035 E8.94803 $50 
G1 X29.131 Y22.191 E8.96084 $54 
G1 X29.246 Y22.252 E8.96733 $50 
G1 X29.385 Y22.298 E8.97464 $58 
G1 X29.543 Y22.319 E8.98259 $57 
G1 X29.737 Y22.303 E8.99230 $61 
G1 X30.619 Y21.938 E9.03992 $56 
G1 X30.764 Y21.876 E9.04779 $52 
G1 X30.914 Y21.755 E9.05741 $57 
G1 X31.013 Y21.624 E9.06560 $51 
G1 X31.078 Y21.493 E9.07289 $49 
G1 X31.127 Y21.336 E9.08110 $62 
G1 X31.150 Y21.033 E9.09626 $59 
G1 X31.126 Y20.779 E9.10899 $48 
G1 X31.114 Y20.354 E9.13020 $51 
G1 X31.141 Y19.844 E9.15568 $60 
G1 X31.225 Y19.228 E9.18670 $58 
G1 X31.395 Y18.469 E9.22550 $58 
G1 X31.404 Y18.439 E9.22706 $49 
G1 X31.500 Y18.414 E9.23201 $56 
G1 X31.804 Y18.720 E9.25353 $53 
G1 X32.266 Y19.265 E9.28918 $53 
G1 X32.719 Y19.930 E9.32932 $48 
G1 X33.023 Y20.524 E9.36261 $53 
G1 X33.138 Y20.708 E9.37344 $53 
G1 X33.220 Y20.807 E9.37985 $56 
G1 X33.317 Y20.893 E9.38632 $60 
G1 X33.437 Y20.975 E9.39357 $55 
G1 X33.592 Y21.037 E9.40190 $48 
G1 X33.778 Y21.070 E9.41132 $60 
G1 X34.726 Y20.945 E9.45903 $48 
G1 X34.883 Y20.923 E9.46694 $50 
G1 X35.054 Y20.845 E9.47631 $62 
G1 X35.187 Y20.744 E9.48464 $50 
G1 X35.351 Y20.527 E9.49822 $51 
G1 X35.450 Y20.287 E9.51117 $62 
G1 X35.554 Y19.767 E9.53762 $60 
G1 X35.679 Y19.317 E9.56092 $62 
G1 X35.879 Y18.783 E9.58937 $48 
G1 X36.184 Y18.136 E9.62506 $55 
G1 X36.387 Y17.771 E9.64590 $53 
G1 X36.487 Y17.771 E9.65088 $63 
G1 X36.703 Y18.145 E9.67243 $57 
G1 X37.003 Y18.783 E9.70761 $48 
G1 X37.203 Y19.317 E9.73605 $58 
G1 X37.410 Y20.194 E9.78101 $53 
G1 X37.477 Y20.415 E9.79253 $61 
G1 X37.601 Y20.635 E9.80513 $59 
G1 X37.695 Y20.744 E9.81231 $55 
G1 X37.828 Y20.845 E9.82064 $48 
G1 X38.003 Y20.924 E9.83022 $59 
G1 X38.945 Y21.049 E9.87763 $53 
G1 X39.106 Y21.070 E9.88573 $61 
G1 X39.294 Y21.037 E9.89525 $52 
G1 X39.447 Y20.974 E9.90351 $62 
G1 X39.565 Y20.893 E9.91065 $50 
G1 X39.662 Y20.807 E9.91712 $60 
G1 X39.817 Y20.600 E9.93002 $61 
G1 X40.055 Y20.121 E9.95670 $60 
G1 X40.289 Y19.727 E9.97957 $61 
G1 X40.624 Y19.256 E10.00840 $12 
G1 X41.081 Y18.717 E10.04366 $14 
G1 X41.375 Y18.412 E10.06479 $11 
G1 X41.471 Y18.437 E10.06974 $15 
G1 X41.586 Y18.870 E10.09209 $7 
G1 X41.707 Y19.545 E10.12630 $2 
G1 X41.768 Y20.360 E10.16708 $14 
G1 X41.756 Y20.784 E10.18824 $2 
G1 X41.732 Y21.039 E10.20102 $6 
G1 X41.755 Y21.340 E10.21608 $6 
G1 X41.804 Y21.494 E10.22414 $15 
G1 X41.872 Y21.630 E10.23173 $7 
G1 X41.971 Y21.755 E10.23968 $5 
G1 X42.114 Y21.875 E10.24900 $9 
G1 X42.999 Y22.243 E10.29682 $0 
G1 X43.149 Y22.303 E10.30488 $1 
G1 X43.338 Y22.320 E10.31434 $2 
G1 X43.497 Y22.298 E10.32235 $6 
G1 X43.636 Y22.252 E10.32966 $4 
G1 X43.862 Y22.116 E10.34281 $12 
G1 X44.464 Y21.475 E10.38669 $12 
G1 X44.841 Y21.135 E10.41201 $2 
G1 X45.352 Y20.747 E10.44402 $8 
G1 X46.001 Y20.336 E10.48235 $2 
G1 X46.018 Y20.326 E10.48333 $12 
G1 X46.119 Y20.377 E10.48898 $2 
G1 X46.120 Y20.444 E10.49232 $4 
G1 X46.090 Y21.162 E10.52817 $9 
G1 X46.010 Y21.797 E10.56010 $6 
G1 X45.903 Y22.303 E10.58591 $6 
G1 X45.697 Y22.941 E10.61936 $3 
G1 X45.648 Y23.154 E10.63026 $6 
G1 X45.637 Y23.276 E10.63637 $11 
G1 X45.643 Y23.417 E10.64341 $10 
G1 X45.674 Y23.556 E10.65052 $10 
G1 X45.733 Y23.705 E10.65851 $7 
G1 X45.849 Y23.865 E10.66837 $15 
G1 X46.602 Y24.443 E10.71573 $9 
G1 X46.730 Y24.539 E10.72371 $2 
G1 X46.907 Y24.605 E10.73314 $6 
G1 X47.073 Y24.627 E10.74149 $0 
G1 X47.220 Y24.616 E10.74885 $15 
G1 X47.345 Y24.588 E10.75524 $14 
G1 X47.460 Y24.547 E10.76133 $12 
G1 X48.210 Y24.085 E10.80527 $1 
G1 X48.679 Y23.846 E10.83154 $9 
G1 X49.267 Y23.607 E10.86320 $12 
G1 X49.971 Y23.386 E10.90002 $8 
G1 X50.023 Y23.373 E10.90269 $11 
G1 X50.094 Y23.443 E10.90766 $9 
G1 X49.982 Y23.858 E10.92911 $5 
G1 X49.742 Y24.528 E10.96461 $4 
G1 X49.507 Y25.040 E10.99272 $6 
G1 X49.172 Y25.611 E11.02575 $1 
G1 X48.976 Y25.905 E11.04338 $15 
G1 X48.883 Y26.128 E11.05543 $11 
G1 X48.845 Y26.399 E11.06908 $9 
G1 X48.868 Y26.570 E11.07769 $15 
G1 X48.938 Y26.749 E11.08728 $9 
G1 X49.513 Y27.501 E11.13451 $5 
G1 X49.612 Y27.627 E11.14250 $0 
G1 X49.769 Y27.739 E11.15213 $5 
G1 X49.946 Y27.810 E11.16164 $2 
G1 X50.172 Y27.836 E11.17299 $1 
G1 X50.315 Y27.825 E11.18014 $8 
G1 X50.447 Y27.800 E11.18685 $1 
G1 X50.953 Y27.628 E11.21351 $11 
G1 X51.389 Y27.517 E11.23596 $7 
G1 X51.981 Y27.416 E11.26592 $4 
G1 X53.049 Y27.351 E11.31930 $13 
G1 X53.097 Y27.353 E11.32170 $3 
G1 X53.146 Y27.438 E11.32659 $8 
G1 X52.926 Y27.818 E11.34850 $8 
G1 X52.530 Y28.388 E11.38312 $15 
G1 X52.165 Y28.830 E11.41172 $9 
G1 X51.710 Y29.280 E11.44365 $15 
G1 X51.427 Y29.530 E11.46249 $9 
G1 X51.280 Y29.719 E11.47443 $6 
G1 X51.221 Y29.836 E11.48097 $13 
G1 X51.175 Y29.969 E11.48799 $13 
G1 X51.153 Y30.132 E11.49620 $5 
G1 X51.169 Y30.326 E11.50591 $10 
G1 X51.536 Y31.212 E11.55375 $10 
G1 X51.599 Y31.355 E11.56155 $14 
G1 X51.715 Y31.500 E11.57081 $7 
G1 X51.853 Y31.605 E11.57947 $15 
G1 X51.986 Y31.668 E11.58681 $7 
G1 X52.120 Y31.710 E11.59381 $10 
G1 X52.341 Y31.740 E11.60494 $3 
G1 X52.902 Y31.704 E11.63299 $6 
G1 X53.112 Y31.701 E11.64346 $15 
G1 X53.631 Y31.729 E11.66940 $13 
G1 X54.244 Y31.813 E11.70026 $4 
G1 X54.992 Y31.980 E11.73850 $5 
G1 X55.033 Y31.992 E11.74063 $10 
G1 X55.059 Y32.088 E11.74559 $11 
G1 X54.748 Y32.398 E11.76750 $6 
G1 X54.216 Y32.848 E11.80226 $3 
G1 X53.547 Y33.304 E11.84266 $5 
G1 X52.948 Y33.611 E11.87624 $7 
G1 X52.855 Y33.664 E11.88158 $11 
G1 X52.670 Y33.805 E11.89318 $12 
G1 X52.578 Y33.905 E11.89996 $10 
G1 X52.497 Y34.028 E11.90731 $0 
G1 X52.436 Y34.177 E11.91534 $6 
G1 X52.403 Y34.367 E11.92496 $9 
G1 X52.527 Y35.310 E11.97241 $6 
G1 X52.549 Y35.475 E11.98072 $7 
G1 X52.635 Y35.653 E11.99058 $0 
G1 X52.730 Y35.773 E11.99822 $2 
G1 X52.837 Y35.870 E12.00542 $14 
G1 X52.950 Y35.941 E12.01208 $5 
G1 X53.186 Y36.037 E12.02479 $15 
G1 X53.702 Y36.140 E12.05104 $12 
G1 X54.163 Y36.269 E12.07493 $11 
G1 X54.686 Y36.464 E12.10277 $6 
G1 X55.327 Y36.766 E12.13812 $2 
G1 X55.702 Y36.974 E12.15952 $15 
G1 X55.703 Y37.074 E12.16451 $11 
G1 X55.328 Y37.290 E12.18610 $7 
G1 X54.690 Y37.590 E12.22127 $13 
G1 X54.156 Y37.790 E12.24972 $12 
G1 X53.279 Y37.997 E12.29468 $7 
G1 X53.058 Y38.064 E12.30620 $10 
G1 X52.838 Y38.188 E12.31880 $3 
G1 X52.729 Y38.282 E12.32598 $2 
G1 X52.633 Y38.409 E12.33392 $0 
G1 X52.549 Y38.582 E12.34351 $4 
G1 X52.422 Y39.536 E12.39153 $11 
