;Generated with Cura_SteamEngine Realio_170823_USB_32
M190 S50.000000
M140 S60.000000
M109 T0 S210.000000
T0
;Sliced at: Wed 19-02-2025 00:02:21
;Basic settings: Layer height: 0.2 Walls: 3 Fill: 20
;Print time: 2 hours 0 minutes
;Filament used: 6.89m 21g
;Filament cost:  Unknown
;M190 S60 ;Uncomment to add your own bed temperature line
;M109 S210 ;Uncomment to add your own temperature line
G21        ;metric values
G90        ;absolute positioning
M82        ;set extruder to absolute mode
M107       ;start with the fan off
G28 X0 Y0  ;move X/Y to min endstops
G28 Z0     ;move Z to min endstops
G1 Z1.5 F3600 ;move the platform down 1.5mm
G92 E0                  ;zero the extruded length
G1 F200 E8              ;extrude 8mm of feed stock
G92 E0                  ;zero the extruded length again
G1 F3600
;Put printing message on LCD screen
M117 Printing...

M305 S1 $57 	;check Command 
;Layer count: 30
;LAYER:0
M106 S255 $59 
G0 F3600 X47.257 Y62.456 Z0.300 E8.36181 $12 
G92 E0 $25 
G92 E0.5 $2 
G92 E0 $25 
;TYPE:SKIRT
G1 F1200 X48.116 Y61.835 E0.05658 $84 
G1 X48.991 Y61.235 E0.11322 $49 
G1 X49.879 Y60.658 E0.16975 $54 
G1 X50.781 Y60.101 E0.22634 $48 
G1 X51.696 Y59.568 E0.28287 $49 
G1 X52.625 Y59.055 E0.33952 $56 
G1 X53.568 Y58.567 E0.39620 $54 
G1 X54.521 Y58.102 E0.45281 $63 
G1 X55.485 Y57.661 E0.50940 $62 
G1 X56.459 Y57.243 E0.56598 $55 
G1 X57.443 Y56.850 E0.62254 $52 
G1 X58.436 Y56.481 E0.67909 $63 
G1 X59.438 Y56.136 E0.73566 $57 
G1 X60.450 Y55.815 E0.79234 $60 
G1 X61.468 Y55.520 E0.84892 $57 
G1 X62.493 Y55.250 E0.90550 $56 
G1 X63.525 Y55.005 E0.96213 $49 
G1 X64.563 Y54.785 E1.01877 $61 
G1 X65.605 Y54.592 E1.07534 $55 
G1 X66.650 Y54.424 E1.13184 $50 
G1 X67.702 Y54.281 E1.18851 $54 
G1 X68.754 Y54.164 E1.24502 $54 
G1 X69.809 Y54.073 E1.30155 $52 
G1 X70.870 Y54.008 E1.35829 $57 
G1 X71.929 Y53.969 E1.41486 $54 
G1 X72.988 Y53.956 E1.47140 $59 
G1 X74.049 Y53.969 E1.52804 $56 
G1 X75.108 Y54.008 E1.58461 $49 
G1 X76.167 Y54.073 E1.64125 $61 
G1 X77.224 Y54.164 E1.69788 $51 
G1 X78.276 Y54.281 E1.75439 $55 
G1 X79.327 Y54.424 E1.81101 $63 
G1 X80.373 Y54.592 E1.86756 $55 
G1 X81.415 Y54.785 E1.92413 $50 
G1 X82.453 Y55.005 E1.98078 $62 
G1 X83.485 Y55.250 E2.03740 $59 
G1 X84.510 Y55.520 E2.09398 $58 
G1 X85.529 Y55.815 E2.15061 $50 
G1 X86.539 Y56.136 E2.20719 $53 
G1 X87.541 Y56.481 E2.26376 $57 
G1 X88.534 Y56.850 E2.32031 $49 
G1 X89.519 Y57.243 E2.37692 $60 
G1 X90.493 Y57.661 E2.43350 $59 
G1 X91.457 Y58.102 E2.49009 $58 
G1 X92.410 Y58.568 E2.54672 $52 
G1 X93.351 Y59.055 E2.60328 $48 
G1 X94.281 Y59.568 E2.65998 $52 
G1 X95.197 Y60.101 E2.71655 $59 
G1 X96.099 Y60.658 E2.77315 $59 
G1 X96.986 Y61.235 E2.82963 $51 
G1 X97.861 Y61.835 E2.88627 $53 
G1 X98.721 Y62.456 E2.94290 $62 
G1 X99.564 Y63.098 E2.99946 $54 
G1 X100.393 Y63.761 E3.05613 $3 
G1 X101.203 Y64.443 E3.11265 $14 
G1 X101.997 Y65.145 E3.16923 $4 
G1 X102.774 Y65.867 E3.22585 $10 
G1 X103.533 Y66.607 E3.28244 $1 
G1 X104.275 Y67.367 E3.33914 $5 
G1 X104.995 Y68.144 E3.39569 $0 
G1 X105.697 Y68.937 E3.45222 $3 
G1 X106.379 Y69.748 E3.50879 $2 
G1 X107.042 Y70.575 E3.56537 $13 
G1 X107.684 Y71.419 E3.62198 $13 
G1 X108.305 Y72.278 E3.67857 $3 
G1 X108.904 Y73.152 E3.73513 $10 
G1 X109.483 Y74.040 E3.79172 $5 
G1 X110.040 Y74.943 E3.84835 $4 
G1 X110.574 Y75.860 E3.90500 $9 
G1 X111.085 Y76.787 E3.96151 $0 
G1 X111.573 Y77.729 E4.01814 $8 
G1 X112.038 Y78.682 E4.07475 $3 
G1 X112.480 Y79.647 E4.13141 $11 
G1 X112.897 Y80.621 E4.18797 $1 
G1 X113.290 Y81.604 E4.24448 $5 
G1 X113.660 Y82.598 E4.30110 $6 
G1 X114.005 Y83.601 E4.35772 $1 
G1 X114.325 Y84.612 E4.41433 $0 
G1 X114.620 Y85.631 E4.47096 $13 
G1 X114.890 Y86.655 E4.52749 $8 
G1 X115.135 Y87.686 E4.58406 $2 
G1 X115.355 Y88.724 E4.64070 $10 
G1 X115.549 Y89.766 E4.69729 $0 
G1 X115.717 Y90.812 E4.75384 $3 
G1 X115.860 Y91.864 E4.81051 $12 
G1 X115.977 Y92.917 E4.86707 $14 
G1 X116.068 Y93.973 E4.92365 $12 
G1 X116.132 Y95.032 E4.98029 $9 
G1 X116.171 Y96.091 E5.03686 $4 
G1 X116.184 Y97.151 E5.09345 $2 
G1 X116.171 Y98.212 E5.15009 $5 
G1 X116.132 Y99.271 E5.20666 $15 
G1 X116.068 Y100.329 E5.26324 $57 
G1 X115.977 Y101.385 E5.31982 $58 
G1 X115.860 Y102.439 E5.37643 $58 
G1 X115.717 Y103.490 E5.43306 $48 
G1 X115.549 Y104.537 E5.48966 $53 
G1 X115.354 Y105.579 E5.54625 $49 
G1 X115.135 Y106.616 E5.60283 $50 
G1 X114.890 Y107.648 E5.65945 $59 
G1 X114.620 Y108.673 E5.71604 $54 
G1 X114.325 Y109.690 E5.77257 $62 
G1 X114.005 Y110.701 E5.82917 $59 
G1 X113.660 Y111.704 E5.88580 $53 
G1 X113.290 Y112.699 E5.94246 $56 
G1 X112.897 Y113.682 E5.99898 $59 
G1 X112.480 Y114.656 E6.05554 $52 
G1 X112.038 Y115.620 E6.11215 $52 
G1 X111.573 Y116.573 E6.16876 $51 
G1 X111.085 Y117.514 E6.22534 $51 
G1 X110.574 Y118.443 E6.28194 $49 
G1 X110.040 Y119.360 E6.33859 $54 
G1 X109.482 Y120.264 E6.39530 $51 
G1 X108.904 Y121.151 E6.45182 $51 
G1 X108.305 Y122.023 E6.50829 $51 
G1 X107.684 Y122.884 E6.56496 $59 
G1 X107.042 Y123.727 E6.62153 $59 
G1 X106.380 Y124.554 E6.67808 $52 
G1 X105.697 Y125.365 E6.73468 $62 
G1 X104.996 Y126.159 E6.79122 $62 
G1 X104.274 Y126.937 E6.84788 $61 
G1 X103.533 Y127.696 E6.90450 $56 
G1 X102.774 Y128.437 E6.96113 $58 
G1 X101.996 Y129.159 E7.01779 $50 
G1 X101.203 Y129.860 E7.07429 $54 
G1 X100.393 Y130.542 E7.13081 $57 
G1 X99.564 Y131.205 E7.18748 $10 
G1 X98.721 Y131.847 E7.24405 $1 
G1 X97.861 Y132.468 E7.30067 $2 
G1 X96.986 Y133.068 E7.35731 $15 
G1 X96.099 Y133.645 E7.41380 $12 
G1 X95.198 Y134.201 E7.47031 $3 
G1 X94.281 Y134.736 E7.52699 $8 
G1 X93.351 Y135.248 E7.58366 $1 
G1 X92.410 Y135.736 E7.64025 $5 
G1 X91.457 Y136.201 E7.69685 $6 
G1 X90.493 Y136.643 E7.75347 $11 
G1 X89.519 Y137.060 E7.81002 $15 
G1 X88.534 Y137.454 E7.86666 $1 
G1 X87.541 Y137.822 E7.92319 $9 
G1 X86.539 Y138.168 E7.97978 $7 
G1 X85.527 Y138.488 E8.03644 $2 
G1 X84.510 Y138.783 E8.09296 $14 
G1 X83.485 Y139.053 E8.14955 $7 
G1 X82.453 Y139.298 E8.20617 $6 
G1 X81.416 Y139.517 E8.26275 $2 
G1 X80.374 Y139.712 E8.31934 $15 
G1 X79.327 Y139.880 E8.37595 $10 
G1 X78.276 Y140.023 E8.43257 $11 
G1 X77.222 Y140.140 E8.48918 $10 
G1 X76.166 Y140.231 E8.54576 $4 
G1 X75.108 Y140.295 E8.60234 $7 
G1 X74.049 Y140.334 E8.65891 $8 
G1 X72.988 Y140.347 E8.71555 $14 
G1 X71.929 Y140.334 E8.77209 $10 
G1 X70.870 Y140.295 E8.82866 $5 
G1 X69.811 Y140.231 E8.88530 $0 
G1 X68.755 Y140.140 E8.94188 $1 
G1 X67.702 Y140.023 E8.99844 $12 
G1 X66.650 Y139.880 E9.05511 $13 
G1 X65.604 Y139.712 E9.11166 $10 
G1 X64.562 Y139.517 E9.16825 $6 
G1 X63.525 Y139.298 E9.22483 $5 
G1 X62.493 Y139.053 E9.28145 $8 
G1 X61.468 Y138.783 E9.33804 $2 
G1 X60.451 Y138.488 E9.39457 $1 
G1 X59.438 Y138.168 E9.45128 $9 
G1 X58.436 Y137.822 E9.50787 $9 
G1 X57.443 Y137.454 E9.56440 $7 
G1 X56.459 Y137.060 E9.62098 $8 
G1 X55.485 Y136.643 E9.67754 $14 
G1 X54.521 Y136.201 E9.73415 $1 
G1 X53.568 Y135.737 E9.79073 $6 
G1 X52.625 Y135.248 E9.84744 $1 
G1 X51.696 Y134.736 E9.90407 $6 
G1 X50.780 Y134.201 E9.96069 $10 
G1 X49.879 Y133.645 E10.01721 $53 
G1 X48.991 Y133.068 E10.07374 $56 
G1 X48.116 Y132.468 E10.13038 $52 
G1 X47.257 Y131.847 E10.18696 $54 
G1 X46.414 Y131.205 E10.24353 $57 
G1 X45.586 Y130.543 E10.30012 $55 
G1 X44.774 Y129.860 E10.35676 $60 
G1 X43.981 Y129.158 E10.41330 $57 
G1 X43.204 Y128.438 E10.46985 $62 
G1 X42.444 Y127.696 E10.52655 $51 
G1 X41.704 Y126.937 E10.58313 $63 
G1 X40.982 Y126.160 E10.63976 $53 
G1 X40.279 Y125.364 E10.69645 $58 
G1 X39.598 Y124.554 E10.75294 $61 
G1 X38.936 Y123.728 E10.80945 $55 
G1 X38.293 Y122.883 E10.86613 $54 
G1 X37.673 Y122.023 E10.92272 $55 
G1 X37.073 Y121.151 E10.97923 $60 
G1 X36.495 Y120.262 E11.03583 $57 
G1 X35.938 Y119.360 E11.09243 $56 
G1 X35.404 Y118.443 E11.14907 $58 
G1 X34.893 Y117.514 E11.20567 $56 
G1 X34.405 Y116.574 E11.26221 $63 
G1 X33.939 Y115.620 E11.31889 $53 
G1 X33.498 Y114.656 E11.37548 $53 
G1 X33.080 Y113.682 E11.43206 $56 
G1 X32.687 Y112.697 E11.48867 $59 
G1 X32.318 Y111.704 E11.54522 $49 
G1 X31.973 Y110.701 E11.60184 $62 
G1 X31.653 Y109.692 E11.65835 $54 
G1 X31.357 Y108.674 E11.71495 $61 
G1 X31.087 Y107.647 E11.77163 $54 
G1 X30.843 Y106.616 E11.82819 $60 
G1 X30.623 Y105.579 E11.88478 $60 
G1 X30.429 Y104.536 E11.94141 $60 
G1 X30.261 Y103.490 E11.99797 $60 
G1 X30.118 Y102.439 E12.05459 $52 
G1 X30.001 Y101.387 E12.11109 $57 
G1 X29.910 Y100.330 E12.16773 $57 
G1 X29.845 Y99.271 E12.22437 $9 
G1 X29.806 Y98.212 E12.28094 $13 
G1 X29.793 Y97.151 E12.33758 $8 
G1 X29.806 Y96.091 E12.39417 $5 
G1 X29.845 Y95.032 E12.45074 $2 
G1 X29.910 Y93.971 E12.50748 $7 
G1 X30.001 Y92.916 E12.56401 $14 
G1 X30.118 Y91.864 E12.62052 $5 
G1 X30.261 Y90.812 E12.67719 $5 
G1 X30.429 Y89.767 E12.73369 $12 
G1 X30.622 Y88.724 E12.79032 $4 
G1 X30.843 Y87.686 E12.84697 $0 
G1 X31.087 Y86.656 E12.90347 $0 
G1 X31.357 Y85.629 E12.96016 $4 
G1 X31.653 Y84.610 E13.01681 $9 
G1 X31.973 Y83.601 E13.07331 $11 
G1 X32.318 Y82.598 E13.12993 $11 
G1 X32.687 Y81.605 E13.18649 $14 
G1 X33.080 Y80.621 E13.24305 $11 
G1 X33.498 Y79.647 E13.29963 $7 
G1 X33.939 Y78.682 E13.35627 $11 
G1 X34.405 Y77.728 E13.41295 $14 
G1 X34.893 Y76.787 E13.46953 $15 
G1 X35.404 Y75.860 E13.52604 $1 
G1 X35.938 Y74.943 E13.58268 $6 
G1 X36.495 Y74.041 E13.63928 $3 
G1 X37.073 Y73.152 E13.69588 $6 
G1 X37.673 Y72.278 E13.75247 $3 
G1 X38.293 Y71.420 E13.80898 $12 
G1 X38.936 Y70.574 E13.86571 $5 
G1 X39.599 Y69.748 E13.92225 $11 
G1 X40.279 Y68.938 E13.97871 $10 
G1 X40.983 Y68.143 E14.03539 $11 
G1 X41.703 Y67.367 E14.09190 $10 
G1 X42.444 Y66.607 E14.14857 $5 
G1 X43.204 Y65.866 E14.20523 $5 
G1 X43.980 Y65.146 E14.26174 $9 
G1 X44.774 Y64.443 E14.31835 $0 
G1 X45.586 Y63.760 E14.37499 $7 
G1 X46.414 Y63.098 E14.43158 $5 
G1 X47.257 Y62.456 E14.48815 $9 
G1 F2400 E9.98815 $89 
G0 F3600 X50.831 Y67.271 $31 
;TYPE:WALL-INNER
G1 Z0.300 $33 
G1 F2400 E14.48815 $104 
G1 F1200 X51.555 Y66.748 E14.53583 $110 
G1 X52.350 Y66.202 E14.58731 $0 
G1 X53.071 Y65.734 E14.63320 $14 
G1 X53.863 Y65.245 E14.68289 $15 
G1 X54.646 Y64.789 E14.73126 $9 
G1 X55.475 Y64.332 E14.78179 $15 
G1 X56.251 Y63.930 E14.82844 $1 
G1 X57.076 Y63.527 E14.87746 $5 
G1 X57.900 Y63.150 E14.92583 $6 
G1 X58.786 Y62.770 E14.97729 $11 
G1 X59.598 Y62.446 E15.02396 $12 
G1 X60.443 Y62.131 E15.07210 $14 
G1 X61.313 Y61.832 E15.12121 $1 
G1 X62.203 Y61.550 E15.17105 $8 
G1 X63.066 Y61.300 E15.21901 $2 
G1 X63.932 Y61.071 E15.26683 $13 
G1 X64.840 Y60.856 E15.31664 $13 
G1 X65.757 Y60.662 E15.36668 $7 
G1 X66.597 Y60.506 E15.41229 $10 
G1 X67.540 Y60.354 E15.46328 $7 
G1 X68.450 Y60.231 E15.51230 $4 
G1 X69.319 Y60.134 E15.55897 $10 
G1 X70.263 Y60.052 E15.60956 $5 
G1 X71.176 Y59.996 E15.65839 $5 
G1 X72.062 Y59.964 E15.70571 $10 
G1 X72.988 Y59.952 E15.75515 $5 
G1 X73.916 Y59.964 E15.80469 $6 
G1 X74.802 Y59.996 E15.85202 $6 
G1 X75.714 Y60.052 E15.90080 $8 
G1 X76.659 Y60.134 E15.95143 $9 
G1 X77.528 Y60.231 E15.99811 $9 
G1 X78.443 Y60.355 E16.04740 $5 
G1 X79.382 Y60.506 E16.09817 $14 
G1 X80.221 Y60.662 E16.14373 $4 
G1 X81.138 Y60.856 E16.19376 $15 
G1 X82.046 Y61.071 E16.24358 $10 
G1 X82.912 Y61.300 E16.29139 $15 
G1 X83.799 Y61.557 E16.34069 $15 
G1 X84.638 Y61.823 E16.38768 $6 
G1 X85.512 Y62.124 E16.43702 $1 
G1 X86.409 Y62.457 E16.48810 $15 
G1 X87.192 Y62.770 E16.53311 $15 
G1 X88.078 Y63.150 E16.58458 $1 
G1 X88.885 Y63.519 E16.63195 $14 
G1 X89.744 Y63.939 E16.68299 $7 
G1 X90.519 Y64.340 E16.72957 $4 
G1 X91.315 Y64.779 E16.77810 $6 
G1 X92.115 Y65.245 E16.82752 $15 
G1 X92.861 Y65.705 E16.87431 $7 
G1 X93.683 Y66.240 E16.92666 $7 
G1 X94.414 Y66.741 E16.97397 $6 
G1 X95.147 Y67.271 E17.02226 $5 
G1 X95.872 Y67.823 E17.07090 $13 
G1 X96.583 Y68.392 E17.11951 $0 
G1 X97.279 Y68.977 E17.16805 $5 
G1 X97.964 Y69.583 E17.21687 $4 
G1 X98.647 Y70.217 E17.26662 $11 
G1 X99.293 Y70.847 E17.31479 $6 
G1 X99.921 Y71.491 E17.36281 $4 
G1 X100.559 Y72.179 E17.41289 $62 
G1 X101.153 Y72.851 E17.46077 $54 
G1 X101.742 Y73.551 E17.50961 $53 
G1 X102.337 Y74.293 E17.56038 $61 
G1 X102.869 Y74.993 E17.60732 $62 
G1 X103.384 Y75.705 E17.65422 $48 
G1 X103.928 Y76.497 E17.70552 $53 
G1 X104.414 Y77.243 E17.75304 $62 
G1 X104.896 Y78.025 E17.80208 $50 
G1 X105.354 Y78.811 E17.85064 $52 
G1 X105.813 Y79.645 E17.90146 $55 
G1 X106.201 Y80.393 E17.94645 $53 
G1 X106.631 Y81.275 E17.99883 $51 
G1 X106.983 Y82.044 E18.04397 $51 
G1 X107.369 Y82.946 E18.09635 $55 
G1 X107.699 Y83.769 E18.14368 $62 
G1 X108.010 Y84.605 E18.19130 $56 
G1 X108.313 Y85.486 E18.24103 $62 
G1 X108.587 Y86.351 E18.28947 $63 
G1 X108.840 Y87.227 E18.33814 $53 
G1 X109.076 Y88.124 E18.38766 $55 
G1 X109.280 Y88.981 E18.43468 $58 
G1 X109.473 Y89.891 E18.48434 $51 
G1 X109.635 Y90.759 E18.53148 $52 
G1 X109.787 Y91.702 E18.58247 $52 
G1 X109.913 Y92.631 E18.63252 $57 
G1 X110.006 Y93.473 E18.67774 $60 
G1 X110.087 Y94.413 E18.72810 $61 
G1 X110.144 Y95.338 E18.77757 $53 
G1 X110.176 Y96.204 E18.82384 $57 
G1 X110.188 Y97.151 E18.87439 $62 
G1 X110.176 Y98.079 E18.92394 $63 
G1 X110.144 Y98.965 E18.97126 $52 
G1 X110.087 Y99.889 E19.02068 $62 
G1 X110.008 Y100.812 E19.07013 $3 
G1 X109.913 Y101.672 E19.11632 $3 
G1 X109.786 Y102.606 E19.16664 $5 
G1 X109.639 Y103.518 E19.21595 $4 
G1 X109.474 Y104.404 E19.26406 $8 
G1 X109.284 Y105.301 E19.31301 $4 
G1 X109.069 Y106.209 E19.36282 $2 
G1 X108.840 Y107.075 E19.41064 $2 
G1 X108.587 Y107.951 E19.45932 $5 
G1 X108.313 Y108.816 E19.50775 $10 
G1 X108.017 Y109.675 E19.55625 $6 
G1 X107.690 Y110.557 E19.60647 $9 
G1 X107.369 Y111.357 E19.65248 $3 
G1 X106.994 Y112.233 E19.70335 $5 
G1 X106.615 Y113.060 E19.75192 $12 
G1 X106.204 Y113.903 E19.80198 $4 
G1 X105.812 Y114.658 E19.84739 $5 
G1 X105.345 Y115.507 E19.89912 $14 
G1 X104.896 Y116.278 E19.94675 $4 
G1 X104.420 Y117.050 E19.99516 $7 
G1 X103.922 Y117.813 E20.04380 $7 
G1 X103.397 Y118.579 E20.09337 $12 
G1 X102.859 Y119.324 E20.14243 $5 
G1 X102.323 Y120.027 E20.18962 $13 
G1 X101.765 Y120.725 E20.23733 $15 
G1 X101.155 Y121.450 E20.28790 $8 
G1 X100.555 Y122.129 E20.33628 $13 
G1 X99.921 Y122.813 E20.38606 $52 
G1 X99.293 Y123.456 E20.43404 $54 
G1 X98.650 Y124.084 E20.48202 $59 
G1 X97.966 Y124.718 E20.53181 $62 
G1 X97.279 Y125.326 E20.58078 $63 
G1 X96.583 Y125.911 E20.62932 $60 
G1 X95.872 Y126.480 E20.67793 $58 
G1 X95.147 Y127.032 E20.72657 $52 
G1 X94.414 Y127.562 E20.77486 $61 
G1 X93.683 Y128.063 E20.82217 $57 
G1 X92.868 Y128.594 E20.87409 $50 
G1 X92.119 Y129.056 E20.92107 $56 
G1 X91.337 Y129.512 E20.96940 $63 
G1 X90.495 Y129.975 E21.02069 $50 
G1 X89.746 Y130.364 E21.06575 $57 
G1 X88.897 Y130.778 E21.11617 $51 
G1 X88.070 Y131.157 E21.16473 $63 
G1 X87.194 Y131.532 E21.21560 $59 
G1 X86.408 Y131.847 E21.26080 $57 
G1 X85.503 Y132.183 E21.31234 $57 
G1 X84.651 Y132.476 E21.36043 $54 
G1 X83.788 Y132.750 E21.40877 $61 
G1 X82.912 Y133.003 E21.45744 $59 
G1 X82.046 Y133.232 E21.50526 $49 
G1 X81.138 Y133.447 E21.55507 $56 
G1 X80.241 Y133.637 E21.60402 $51 
G1 X79.355 Y133.802 E21.65213 $58 
G1 X78.443 Y133.949 E21.70144 $48 
G1 X77.528 Y134.073 E21.75073 $52 
G1 X76.649 Y134.171 E21.79795 $49 
G1 X75.726 Y134.250 E21.84740 $48 
G1 X74.802 Y134.307 E21.89682 $57 
G1 X73.916 Y134.339 E21.94415 $55 
G1 X72.988 Y134.351 E21.99369 $62 
G1 X72.062 Y134.339 E22.04313 $55 
G1 X71.176 Y134.307 E22.09045 $48 
G1 X70.251 Y134.250 E22.13993 $61 
G1 X69.329 Y134.171 E22.18932 $59 
G1 X68.450 Y134.073 E22.23654 $55 
G1 X67.540 Y133.950 E22.28556 $61 
G1 X66.617 Y133.801 E22.33547 $50 
G1 X65.737 Y133.637 E22.38325 $48 
G1 X64.840 Y133.447 E22.43220 $51 
G1 X63.932 Y133.232 E22.48201 $60 
G1 X63.066 Y133.003 E22.52983 $62 
G1 X62.216 Y132.757 E22.57707 $58 
