;Generated with Cura_SteamEngine Realio_170823_USB_32
M190 S50.000000
M140 S60.000000
M109 T0 S210.000000
T0
;Sliced at: Sun 09-03-2025 16:43:48
;Basic settings: Layer height: 0.3 Walls: 0.8 Fill: 20
;Print time: 2 hours 18 minutes
;Filament used: 10.32m 31g
;Filament cost:  Unknown
;M190 S60 ;Uncomment to add your own bed temperature line
;M109 S210 ;Uncomment to add your own temperature line
G21        ;metric values
G90        ;absolute positioning
M82        ;set extruder to absolute mode
M107       ;start with the fan off
G28 X0 Y0  ;move X/Y to min endstops
G28 Z0     ;move Z to min endstops
G1 Z1.5 F3600 ;move the platform down 1.5mm
G92 E0                  ;zero the extruded length
G1 F200 E8              ;extrude 8mm of feed stock
G92 E0                  ;zero the extruded length again
G1 F3600
;Put printing message on LCD screen
M117 Printing...

M305 S1 $57 	;check Command 
;Layer count: 20
;LAYER:0
M106 S255 $59 
G0 F3600 X27.861 Y27.861 Z0.300 E3.93149 $12 
G92 E0 $25 
G92 E0.5 $2 
G92 E0 $25 
;TYPE:SKIRT
G1 F1200 X28.648 Y27.088 E0.05504 $88 
G1 X29.449 Y26.328 E0.11012 $48 
G1 X30.262 Y25.584 E0.16510 $52 
G1 X31.087 Y24.853 E0.22010 $56 
G1 X31.926 Y24.137 E0.27512 $51 
G1 X32.777 Y23.435 E0.33016 $62 
G1 X33.641 Y22.748 E0.38523 $59 
G1 X34.515 Y22.077 E0.44021 $57 
G1 X35.402 Y21.420 E0.49528 $59 
G1 X36.301 Y20.779 E0.55036 $53 
G1 X37.209 Y20.155 E0.60533 $51 
G1 X38.129 Y19.546 E0.66037 $54 
G1 X39.059 Y18.954 E0.71537 $60 
G1 X39.999 Y18.377 E0.77040 $49 
G1 X40.950 Y17.817 E0.82546 $49 
G1 X41.911 Y17.274 E0.88053 $49 
G1 X42.880 Y16.748 E0.93553 $63 
G1 X43.858 Y16.239 E0.99054 $48 
G1 X44.845 Y15.747 E1.04556 $54 
G1 X45.841 Y15.272 E1.10061 $52 
G1 X46.845 Y14.814 E1.15567 $62 
G1 X47.856 Y14.375 E1.21066 $50 
G1 X48.875 Y13.952 E1.26570 $49 
G1 X49.902 Y13.548 E1.32076 $48 
G1 X50.934 Y13.162 E1.37573 $52 
G1 X51.974 Y12.793 E1.43079 $52 
G1 X53.020 Y12.443 E1.48581 $57 
G1 X54.073 Y12.112 E1.54088 $56 
G1 X55.130 Y11.799 E1.59588 $49 
G1 X56.193 Y11.504 E1.65092 $60 
G1 X57.260 Y11.228 E1.70590 $56 
G1 X58.333 Y10.970 E1.76096 $50 
G1 X59.411 Y10.732 E1.81604 $57 
G1 X60.491 Y10.512 E1.87103 $61 
G1 X61.576 Y10.311 E1.92608 $57 
G1 X62.663 Y10.128 E1.98107 $55 
G1 X63.755 Y9.965 E2.03616 $13 
G1 X64.848 Y9.822 E2.09115 $5 
G1 X65.944 Y9.696 E2.14619 $15 
G1 X67.043 Y9.591 E2.20127 $10 
G1 X68.142 Y9.505 E2.25627 $10 
G1 X69.242 Y9.437 E2.31125 $8 
G1 X70.345 Y9.389 E2.36633 $3 
G1 X71.448 Y9.360 E2.42138 $0 
G1 X72.550 Y9.351 E2.47636 $5 
G1 X73.652 Y9.360 E2.53134 $7 
G1 X74.755 Y9.389 E2.58639 $0 
G1 X75.858 Y9.437 E2.64147 $0 
G1 X76.958 Y9.505 E2.69645 $10 
G1 X78.057 Y9.591 E2.75145 $5 
G1 X79.156 Y9.696 E2.80653 $10 
G1 X80.252 Y9.822 E2.86157 $15 
G1 X81.345 Y9.965 E2.91656 $11 
G1 X82.437 Y10.128 E2.97165 $50 
G1 X83.524 Y10.311 E3.02664 $51 
G1 X84.609 Y10.512 E3.08169 $61 
G1 X85.689 Y10.732 E3.13668 $56 
G1 X86.767 Y10.970 E3.19176 $48 
G1 X87.840 Y11.228 E3.24682 $62 
G1 X88.907 Y11.504 E3.30180 $58 
G1 X89.970 Y11.799 E3.35684 $59 
G1 X91.027 Y12.112 E3.41184 $59 
G1 X92.080 Y12.443 E3.46690 $49 
G1 X93.126 Y12.793 E3.52193 $50 
G1 X94.166 Y13.162 E3.57699 $48 
G1 X95.198 Y13.548 E3.63196 $51 
G1 X96.225 Y13.952 E3.68702 $50 
G1 X97.244 Y14.375 E3.74206 $48 
G1 X98.255 Y14.814 E3.79705 $56 
G1 X99.259 Y15.272 E3.85211 $61 
G1 X100.255 Y15.747 E3.90716 $5 
G1 X101.242 Y16.239 E3.96218 $0 
G1 X102.220 Y16.748 E4.01718 $8 
G1 X103.190 Y17.274 E4.07223 $1 
G1 X104.149 Y17.817 E4.12722 $13 
G1 X105.100 Y18.377 E4.18228 $6 
G1 X106.041 Y18.954 E4.23735 $11 
G1 X106.971 Y19.546 E4.29235 $0 
G1 X107.891 Y20.155 E4.34739 $7 
G1 X108.799 Y20.779 E4.40236 $14 
G1 X109.698 Y21.420 E4.45744 $4 
G1 X110.585 Y22.077 E4.51251 $2 
G1 X111.459 Y22.748 E4.56748 $2 
G1 X112.323 Y23.435 E4.62256 $14 
G1 X113.174 Y24.137 E4.67759 $0 
G1 X114.013 Y24.853 E4.73262 $4 
G1 X114.838 Y25.584 E4.78761 $14 
G1 X115.651 Y26.328 E4.84260 $10 
G1 X116.452 Y27.088 E4.89768 $0 
G1 X117.239 Y27.861 E4.95272 $6 
G1 X118.012 Y28.648 E5.00775 $7 
G1 X118.772 Y29.449 E5.06284 $9 
G1 X119.516 Y30.262 E5.11782 $10 
G1 X120.247 Y31.087 E5.17281 $11 
G1 X120.963 Y31.926 E5.22784 $2 
G1 X121.665 Y32.777 E5.28288 $0 
G1 X122.352 Y33.641 E5.33795 $4 
G1 X123.023 Y34.515 E5.39292 $13 
G1 X123.680 Y35.402 E5.44799 $0 
G1 X124.321 Y36.301 E5.50308 $7 
G1 X124.945 Y37.209 E5.55804 $5 
G1 X125.554 Y38.129 E5.61309 $7 
G1 X126.146 Y39.059 E5.66809 $8 
G1 X126.723 Y40.000 E5.72316 $15 
G1 X127.283 Y40.951 E5.77822 $5 
G1 X127.826 Y41.910 E5.83320 $6 
G1 X128.352 Y42.880 E5.88825 $15 
G1 X128.861 Y43.858 E5.94326 $5 
G1 X129.353 Y44.845 E5.99828 $13 
G1 X129.828 Y45.841 E6.05333 $8 
G1 X130.286 Y46.845 E6.10839 $12 
G1 X130.725 Y47.856 E6.16337 $0 
G1 X131.148 Y48.875 E6.21842 $15 
G1 X131.552 Y49.902 E6.27348 $7 
G1 X131.938 Y50.934 E6.32845 $8 
G1 X132.307 Y51.974 E6.38350 $13 
G1 X132.657 Y53.020 E6.43853 $3 
G1 X132.988 Y54.073 E6.49360 $14 
G1 X133.301 Y55.130 E6.54860 $4 
G1 X133.596 Y56.193 E6.60364 $14 
G1 X133.872 Y57.260 E6.65862 $15 
G1 X134.130 Y58.333 E6.71368 $11 
G1 X134.368 Y59.411 E6.76876 $1 
G1 X134.588 Y60.491 E6.82374 $9 
G1 X134.789 Y61.576 E6.87880 $6 
G1 X134.972 Y62.663 E6.93379 $0 
G1 X135.135 Y63.755 E6.98887 $14 
G1 X135.278 Y64.848 E7.04387 $15 
G1 X135.404 Y65.944 E7.09891 $15 
G1 X135.509 Y67.043 E7.15399 $1 
G1 X135.595 Y68.142 E7.20898 $7 
G1 X135.663 Y69.242 E7.26397 $13 
G1 X135.711 Y70.345 E7.31905 $0 
G1 X135.740 Y71.448 E7.37410 $0 
G1 X135.749 Y72.550 E7.42908 $4 
G1 X135.740 Y73.652 E7.48406 $4 
G1 X135.711 Y74.755 E7.53911 $0 
G1 X135.663 Y75.858 E7.59419 $8 
G1 X135.595 Y76.958 E7.64917 $13 
G1 X135.509 Y78.057 E7.70417 $8 
G1 X135.404 Y79.156 E7.75925 $12 
G1 X135.278 Y80.252 E7.81429 $10 
G1 X135.135 Y81.345 E7.86928 $13 
G1 X134.972 Y82.437 E7.92436 $1 
G1 X134.789 Y83.524 E7.97936 $1 
G1 X134.588 Y84.609 E8.03441 $6 
G1 X134.368 Y85.689 E8.08940 $0 
G1 X134.130 Y86.767 E8.14448 $5 
G1 X133.872 Y87.840 E8.19953 $12 
G1 X133.596 Y88.907 E8.25452 $5 
G1 X133.301 Y89.970 E8.30956 $1 
G1 X132.988 Y91.027 E8.36455 $1 
G1 X132.657 Y92.080 E8.41962 $11 
G1 X132.307 Y93.126 E8.47465 $11 
G1 X131.938 Y94.166 E8.52971 $1 
G1 X131.552 Y95.198 E8.58468 $14 
G1 X131.148 Y96.225 E8.63974 $15 
G1 X130.725 Y97.244 E8.69478 $14 
G1 X130.286 Y98.255 E8.74977 $3 
G1 X129.828 Y99.259 E8.80482 $4 
G1 X129.353 Y100.255 E8.85988 $60 
G1 X128.861 Y101.242 E8.91490 $49 
G1 X128.352 Y102.220 E8.96990 $55 
G1 X127.826 Y103.190 E9.02495 $61 
G1 X127.283 Y104.149 E9.07993 $53 
G1 X126.723 Y105.100 E9.13499 $53 
G1 X126.146 Y106.041 E9.19006 $63 
G1 X125.554 Y106.971 E9.24506 $58 
G1 X124.945 Y107.891 E9.30011 $63 
G1 X124.321 Y108.799 E9.35508 $55 
G1 X123.680 Y109.698 E9.41016 $54 
G1 X123.023 Y110.585 E9.46523 $58 
G1 X122.352 Y111.459 E9.52020 $60 
G1 X121.665 Y112.323 E9.57527 $48 
G1 X120.963 Y113.174 E9.63031 $60 
G1 X120.247 Y114.013 E9.68534 $61 
G1 X119.516 Y114.838 E9.74033 $58 
G1 X118.772 Y115.651 E9.79531 $49 
G1 X118.012 Y116.452 E9.85040 $50 
G1 X117.239 Y117.239 E9.90544 $57 
G1 X116.452 Y118.012 E9.96047 $55 
G1 X115.651 Y118.772 E10.01556 $7 
G1 X114.838 Y119.516 E10.07054 $7 
G1 X114.013 Y120.247 E10.12553 $9 
G1 X113.174 Y120.963 E10.18056 $9 
G1 X112.323 Y121.665 E10.23560 $8 
G1 X111.459 Y122.352 E10.29067 $11 
G1 X110.585 Y123.023 E10.34564 $4 
G1 X109.698 Y123.680 E10.40071 $14 
G1 X108.799 Y124.321 E10.45580 $8 
G1 X107.891 Y124.945 E10.51076 $1 
G1 X106.971 Y125.554 E10.56581 $8 
G1 X106.041 Y126.146 E10.62081 $4 
G1 X105.100 Y126.723 E10.67588 $15 
G1 X104.149 Y127.283 E10.73094 $0 
G1 X103.190 Y127.826 E10.78592 $14 
G1 X102.220 Y128.352 E10.84097 $3 
G1 X101.242 Y128.861 E10.89597 $7 
G1 X100.255 Y129.353 E10.95100 $12 
G1 X99.259 Y129.828 E11.00605 $57 
G1 X98.255 Y130.286 E11.06110 $55 
G1 X97.244 Y130.725 E11.11609 $61 
G1 X96.225 Y131.148 E11.17114 $58 
G1 X95.198 Y131.552 E11.22620 $53 
G1 X94.166 Y131.938 E11.28117 $60 
G1 X93.126 Y132.307 E11.33622 $49 
G1 X92.080 Y132.657 E11.39125 $55 
G1 X91.027 Y132.988 E11.44632 $63 
G1 X89.970 Y133.301 E11.50132 $53 
G1 X88.907 Y133.596 E11.55635 $57 
G1 X87.840 Y133.872 E11.61134 $50 
G1 X86.767 Y134.130 E11.66640 $50 
G1 X85.689 Y134.368 E11.72147 $58 
G1 X84.609 Y134.588 E11.77646 $56 
G1 X83.524 Y134.789 E11.83151 $58 
G1 X82.437 Y134.972 E11.88651 $62 
G1 X81.345 Y135.135 E11.94159 $55 
G1 X80.252 Y135.278 E11.99658 $48 
G1 X79.156 Y135.404 E12.05162 $52 
G1 X78.057 Y135.509 E12.10670 $57 
G1 X76.958 Y135.595 E12.16170 $53 
G1 X75.858 Y135.663 E12.21668 $55 
G1 X74.755 Y135.711 E12.27177 $63 
G1 X73.652 Y135.740 E12.32681 $48 
G1 X72.550 Y135.749 E12.38179 $51 
G1 X71.448 Y135.740 E12.43678 $59 
G1 X70.345 Y135.711 E12.49182 $60 
G1 X69.242 Y135.663 E12.54690 $62 
G1 X68.142 Y135.595 E12.60189 $62 
G1 X67.043 Y135.509 E12.65688 $55 
G1 X65.944 Y135.404 E12.71196 $58 
G1 X64.848 Y135.278 E12.76700 $53 
G1 X63.755 Y135.135 E12.82200 $53 
G1 X62.663 Y134.972 E12.87708 $50 
G1 X61.576 Y134.789 E12.93208 $60 
G1 X60.491 Y134.588 E12.98713 $50 
G1 X59.411 Y134.368 E13.04212 $56 
G1 X58.333 Y134.130 E13.09719 $50 
G1 X57.260 Y133.872 E13.15225 $53 
G1 X56.193 Y133.596 E13.20724 $62 
G1 X55.130 Y133.301 E13.26227 $60 
G1 X54.073 Y132.988 E13.31727 $50 
G1 X53.020 Y132.657 E13.37234 $63 
G1 X51.974 Y132.307 E13.42737 $49 
G1 X50.934 Y131.938 E13.48242 $60 
G1 X49.902 Y131.552 E13.53739 $50 
G1 X48.875 Y131.148 E13.59245 $57 
G1 X47.856 Y130.725 E13.64750 $52 
G1 X46.845 Y130.286 E13.70249 $51 
G1 X45.841 Y129.828 E13.75754 $62 
G1 X44.845 Y129.353 E13.81259 $63 
G1 X43.858 Y128.861 E13.86761 $54 
G1 X42.880 Y128.352 E13.92262 $58 
G1 X41.911 Y127.826 E13.97763 $54 
G1 X40.950 Y127.283 E14.03269 $50 
G1 X39.999 Y126.723 E14.08776 $55 
G1 X39.059 Y126.146 E14.14278 $49 
G1 X38.129 Y125.554 E14.19778 $58 
G1 X37.209 Y124.945 E14.25283 $55 
G1 X36.301 Y124.321 E14.30779 $51 
G1 X35.402 Y123.680 E14.36288 $48 
G1 X34.515 Y123.023 E14.41795 $48 
G1 X33.641 Y122.352 E14.47292 $53 
G1 X32.777 Y121.665 E14.52799 $56 
G1 X31.926 Y120.963 E14.58303 $52 
G1 X31.087 Y120.247 E14.63806 $61 
G1 X30.262 Y119.516 E14.69305 $62 
G1 X29.449 Y118.772 E14.74803 $57 
G1 X28.648 Y118.012 E14.80312 $58 
G1 X27.861 Y117.239 E14.85815 $61 
G1 X27.088 Y116.452 E14.91319 $58 
G1 X26.328 Y115.651 E14.96828 $62 
G1 X25.584 Y114.838 E15.02326 $52 
G1 X24.853 Y114.013 E15.07825 $62 
G1 X24.137 Y113.174 E15.13328 $49 
G1 X23.435 Y112.323 E15.18832 $59 
G1 X22.748 Y111.459 E15.24339 $53 
G1 X22.077 Y110.585 E15.29836 $54 
G1 X21.420 Y109.698 E15.35343 $48 
G1 X20.779 Y108.799 E15.40851 $53 
G1 X20.155 Y107.891 E15.46348 $48 
G1 X19.546 Y106.971 E15.51852 $52 
G1 X18.954 Y106.041 E15.57352 $61 
G1 X18.377 Y105.100 E15.62859 $55 
G1 X17.817 Y104.149 E15.68365 $55 
G1 X17.274 Y103.190 E15.73864 $59 
G1 X16.748 Y102.220 E15.79369 $53 
G1 X16.239 Y101.242 E15.84869 $56 
G1 X15.747 Y100.255 E15.90371 $55 
G1 X15.272 Y99.259 E15.95877 $1 
G1 X14.814 Y98.255 E16.01382 $8 
G1 X14.375 Y97.244 E16.06881 $4 
G1 X13.952 Y96.225 E16.12385 $0 
G1 X13.548 Y95.198 E16.17891 $10 
G1 X13.162 Y94.166 E16.23388 $2 
G1 X12.793 Y93.126 E16.28894 $5 
G1 X12.443 Y92.080 E16.34397 $2 
G1 X12.112 Y91.027 E16.39904 $0 
G1 X11.799 Y89.970 E16.45403 $5 
G1 X11.504 Y88.907 E16.50907 $15 
G1 X11.228 Y87.840 E16.56406 $1 
G1 X10.970 Y86.767 E16.61911 $2 
G1 X10.732 Y85.689 E16.67419 $11 
G1 X10.512 Y84.609 E16.72918 $10 
G1 X10.311 Y83.524 E16.78423 $11 
G1 X10.128 Y82.437 E16.83922 $9 
G1 X9.965 Y81.345 E16.89431 $52 
G1 X9.822 Y80.252 E16.94930 $48 
G1 X9.696 Y79.156 E17.00434 $53 
G1 X9.591 Y78.057 E17.05942 $57 
G1 X9.505 Y76.958 E17.11442 $52 
G1 X9.437 Y75.858 E17.16940 $62 
G1 X9.389 Y74.755 E17.22448 $61 
G1 X9.360 Y73.652 E17.27953 $57 
G1 X9.351 Y72.550 E17.33451 $49 
G1 X9.360 Y71.448 E17.38949 $55 
G1 X9.389 Y70.345 E17.44454 $49 
G1 X9.437 Y69.242 E17.49962 $56 
G1 X9.505 Y68.142 E17.55461 $57 
G1 X9.591 Y67.043 E17.60960 $49 
G1 X9.696 Y65.944 E17.66468 $58 
G1 X9.822 Y64.848 E17.71972 $55 
G1 X9.965 Y63.755 E17.77472 $58 
G1 X10.128 Y62.663 E17.82980 $12 
G1 X10.311 Y61.576 E17.88479 $1 
G1 X10.512 Y60.491 E17.93985 $9 
G1 X10.732 Y59.411 E17.99483 $10 
G1 X10.970 Y58.333 E18.04991 $1 
G1 X11.228 Y57.260 E18.10497 $0 
G1 X11.504 Y56.193 E18.15995 $13 
G1 X11.799 Y55.130 E18.21499 $7 
G1 X12.112 Y54.073 E18.26999 $12 
G1 X12.443 Y53.020 E18.32506 $3 
G1 X12.793 Y51.974 E18.38009 $7 
G1 X13.162 Y50.934 E18.43514 $14 
G1 X13.548 Y49.902 E18.49011 $5 
G1 X13.952 Y48.875 E18.54517 $13 
G1 X14.375 Y47.856 E18.60021 $12 
G1 X14.814 Y46.845 E18.65520 $2 
G1 X15.272 Y45.841 E18.71026 $8 
G1 X15.747 Y44.845 E18.76531 $10 
G1 X16.239 Y43.858 E18.82033 $2 
G1 X16.748 Y42.880 E18.87534 $2 
G1 X17.274 Y41.910 E18.93039 $15 
G1 X17.817 Y40.951 E18.98537 $4 
G1 X18.377 Y40.000 E19.04043 $9 
G1 X18.954 Y39.059 E19.09550 $10 
G1 X19.546 Y38.129 E19.15050 $11 
G1 X20.155 Y37.209 E19.20554 $14 
G1 X20.779 Y36.301 E19.26051 $8 
G1 X21.420 Y35.402 E19.31560 $0 
G1 X22.077 Y34.515 E19.37067 $7 
G1 X22.748 Y33.641 E19.42564 $13 
G1 X23.435 Y32.777 E19.48071 $11 
G1 X24.137 Y31.926 E19.53575 $9 
G1 X24.853 Y31.087 E19.59077 $13 
G1 X25.584 Y30.262 E19.64577 $8 
G1 X26.328 Y29.449 E19.70075 $14 
G1 X27.088 Y28.648 E19.75584 $10 
G1 X27.861 Y27.861 E19.81087 $2 
G1 F2400 E15.31087 $100 
G0 F3600 X30.545 Y30.552 $19 
;TYPE:WALL-INNER
G1 Z0.300 $33 
G1 F2400 E19.81087 $99 
G1 F1200 X31.292 Y29.818 E19.86312 $110 
G1 X32.044 Y29.104 E19.91485 $10 
G1 X32.801 Y28.411 E19.96606 $13 
G1 X33.577 Y27.724 E20.01776 $8 
G1 X34.365 Y27.051 E20.06946 $5 
G1 X35.173 Y26.385 E20.12170 $2 
G1 X35.976 Y25.746 E20.17290 $15 
G1 X36.799 Y25.114 E20.22467 $10 
G1 X37.631 Y24.498 E20.27632 $15 
G1 X38.476 Y23.896 E20.32808 $7 
G1 X39.339 Y23.303 E20.38032 $6 
G1 X40.194 Y22.736 E20.43150 $7 
G1 X41.069 Y22.179 E20.48325 $3 
G1 X41.952 Y21.637 E20.53494 $11 
G1 X42.854 Y21.106 E20.58716 $8 
G1 X43.748 Y20.600 E20.63841 $14 
G1 X44.659 Y20.106 E20.69011 $14 
G1 X45.579 Y19.627 E20.74186 $3 
G1 X46.516 Y19.160 E20.79409 $2 
G1 X47.442 Y18.717 E20.84531 $12 
G1 X48.395 Y18.284 E20.89753 $10 
G1 X49.337 Y17.874 E20.94878 $3 
G1 X50.294 Y17.477 E21.00047 $4 
G1 X51.258 Y17.098 E21.05215 $0 
G1 X52.239 Y16.731 E21.10441 $2 
G1 X53.206 Y16.388 E21.15560 $14 
G1 X54.199 Y16.056 E21.20783 $5 
G1 X55.178 Y15.747 E21.25905 $10 
G1 X56.172 Y15.453 E21.31076 $13 
G1 X57.171 Y15.176 E21.36248 $5 
G1 X58.185 Y14.914 E21.41473 $2 
G1 X59.182 Y14.674 E21.46590 $6 
G1 X60.196 Y14.450 E21.51770 $7 
G1 X61.222 Y14.241 E21.56994 $15 
G1 X62.231 Y14.054 E21.62114 $15 
G1 X63.263 Y13.881 E21.67334 $11 
G1 X64.278 Y13.729 E21.72455 $15 
G1 X65.316 Y13.593 E21.77678 $12 
G1 X66.347 Y13.475 E21.82855 $9 
G1 X67.368 Y13.377 E21.87972 $1 
G1 X68.402 Y13.296 E21.93147 $0 
G1 X69.447 Y13.232 E21.98370 $3 
G1 X70.472 Y13.186 E22.03489 $1 
G1 X71.518 Y13.160 E22.08709 $5 
G1 X72.550 Y13.151 E22.13858 $9 
G1 X73.582 Y13.160 E22.19007 $13 
G1 X74.628 Y13.187 E22.24227 $14 
G1 X75.653 Y13.232 E22.29346 $5 
G1 X76.698 Y13.296 E22.34569 $8 
G1 X77.732 Y13.377 E22.39743 $1 
G1 X78.753 Y13.475 E22.44860 $8 
G1 X79.784 Y13.593 E22.50038 $10 
G1 X80.822 Y13.729 E22.55261 $7 
G1 X81.837 Y13.881 E22.60381 $6 
G1 X82.869 Y14.054 E22.65601 $1 
G1 X83.878 Y14.241 E22.70721 $1 
G1 X84.904 Y14.450 E22.75945 $3 
G1 X85.918 Y14.674 E22.81126 $13 
G1 X86.915 Y14.914 E22.86242 $12 
G1 X87.929 Y15.176 E22.91467 $8 
G1 X88.928 Y15.453 E22.96639 $10 
G1 X89.912 Y15.744 E23.01758 $14 
G1 X90.901 Y16.056 E23.06932 $6 
G1 X91.894 Y16.388 E23.12156 $5 
G1 X92.861 Y16.731 E23.17275 $13 
