;Generated with Cura_SteamEngine Realio_170823_USB_32
M190 S50.000000
M140 S60.000000
M109 T0 S210.000000
T0
;Sliced at: Tue 18-02-2025 23:53:54
;Basic settings: Layer height: 0.2 Walls: 3 Fill: 20
;Print time: 17 minutes
;Filament used: 1.04m 3g
;Filament cost:  Unknown
;M190 S60 ;Uncomment to add your own bed temperature line
;M109 S210 ;Uncomment to add your own temperature line
G21        ;metric values
G90        ;absolute positioning
M82        ;set extruder to absolute mode
M107       ;start with the fan off
G28 X0 Y0  ;move X/Y to min endstops
G28 Z0     ;move Z to min endstops
G1 Z1.5 F3600 ;move the platform down 1.5mm
G92 E0                  ;zero the extruded length
G1 F200 E8              ;extrude 8mm of feed stock
G92 E0                  ;zero the extruded length again
G1 F3600
;Put printing message on LCD screen
M117 Printing...

M305 S1 $57 	;check Command 
;Layer count: 42
;LAYER:0
M106 S255 $59 
G0 F3600 X42.799 Y105.591 Z0.300 E12.16429 $10 
G92 E0 $25 
G92 E0.5 $2 
G92 E0 $25 
;TYPE:SKIRT
G1 F1200 X99.226 Y105.591 E3.01222 $102 
G1 X99.226 Y132.019 E4.42301 $2 
G1 X42.799 Y132.019 E7.43522 $0 
G1 X42.799 Y105.591 E8.84602 $4 
G1 F2400 E4.34602 $90 
G0 F3600 X48.795 Y111.587 $41 
;TYPE:WALL-INNER
G1 Z0.300 $33 
G1 F2400 E8.84602 $93 
G1 F1200 X93.230 Y111.587 E11.21807 $85 
G1 X93.230 Y126.023 E11.98870 $61 
G1 X48.795 Y126.023 E14.36075 $61 
G1 X48.795 Y111.587 E15.13138 $60 
G1 F2400 E10.63138 $99 
G0 F3600 X48.367 Y111.159 $39 
G1 Z0.300 $33 
G1 F2400 E15.13138 $97 
G1 F1200 X93.658 Y111.159 E17.54913 $88 
G1 X93.658 Y126.451 E18.36545 $48 
G1 X48.367 Y126.451 E20.78320 $59 
G1 X48.367 Y111.159 E21.59953 $62 
G1 F2400 E17.09953 $109 
G0 F3600 X47.939 Y110.731 $32 
G1 Z0.300 $33 
G1 F2400 E21.59953 $109 
G1 F1200 X94.086 Y110.731 E24.06297 $83 
G1 X94.086 Y126.879 E24.92499 $53 
G1 X47.939 Y126.879 E27.38843 $62 
G1 X47.939 Y110.731 E28.25045 $53 
G1 F2400 E23.75045 $111 
G0 F3600 X47.511 Y110.303 $35 
G1 Z0.300 $33 
G1 F2400 E28.25045 $97 
G1 F1200 X94.514 Y110.303 E30.75959 $80 
G1 X94.514 Y127.307 E31.66731 $54 
G1 X47.511 Y127.307 E34.17645 $60 
G1 X47.511 Y110.303 E35.08416 $55 
G1 F2400 E30.58416 $96 
G0 F3600 X47.083 Y109.875 $47 
G1 Z0.300 $33 
G1 F2400 E35.08416 $96 
G1 F1200 X94.942 Y109.875 E37.63900 $81 
G1 X94.942 Y127.735 E38.59241 $59 
G1 X47.083 Y127.735 E41.14724 $48 
G1 X47.083 Y109.875 E42.10066 $49 
G1 F2400 E37.60066 $111 
G0 F3600 X46.655 Y109.447 $46 
G1 Z0.300 $33 
G1 F2400 E42.10066 $106 
G1 F1200 X95.370 Y109.447 E44.70118 $81 
G1 X95.370 Y128.163 E45.70029 $54 
G1 X46.655 Y128.163 E48.30082 $50 
G1 X46.655 Y109.447 E49.29993 $50 
G1 F2400 E44.79993 $96 
G0 F3600 X46.227 Y109.019 $32 
;TYPE:WALL-OUTER
G1 Z0.300 $33 
G1 F2400 E49.29993 $104 
G1 F1200 X95.798 Y109.019 E51.94615 $88 
G1 X95.798 Y128.591 E52.99096 $56 
G1 X46.227 Y128.591 E55.63718 $52 
G1 X46.227 Y109.019 E56.68198 $52 
G1 F2400 E52.18198 $99 
G0 F3600 X46.541 Y109.243 $42 
G0 X49.089 Y111.736 $73 
;TYPE:FILL
G1 Z0.300 $33 
G1 F2400 E56.68198 $96 
G1 F1200 X63.225 Y125.872 E57.74917 $92 
G0 F3600 X63.830 Y125.872 $32 
G1 F1200 X49.694 Y111.736 E58.81636 $91 
G0 F3600 X50.300 Y111.736 $32 
G1 F1200 X64.435 Y125.872 E59.88351 $89 
G0 F3600 X65.041 Y125.872 $40 
G1 F1200 X50.905 Y111.736 E60.95069 $86 
G0 F3600 X51.510 Y111.736 $38 
G1 F1200 X65.646 Y125.872 E62.01788 $87 
G0 F3600 X66.251 Y125.872 $40 
G1 F1200 X52.115 Y111.736 E63.08507 $87 
G0 F3600 X52.721 Y111.736 $37 
G1 F1200 X66.856 Y125.872 E64.15222 $93 
G0 F3600 X67.462 Y125.872 $47 
G1 F1200 X53.326 Y111.736 E65.21940 $86 
G0 F3600 X53.931 Y111.736 $43 
G1 F1200 X68.067 Y125.872 E66.28659 $93 
G0 F3600 X68.672 Y125.872 $35 
G1 F1200 X54.537 Y111.736 E67.35374 $93 
G0 F3600 X55.142 Y111.736 $33 
G1 F1200 X69.278 Y125.872 E68.42093 $82 
G0 F3600 X69.883 Y125.872 $34 
G1 F1200 X55.747 Y111.736 E69.48812 $86 
G0 F3600 X56.352 Y111.736 $33 
G1 F1200 X70.488 Y125.872 E70.55530 $80 
G0 F3600 X71.093 Y125.872 $34 
G1 F1200 X56.958 Y111.736 E71.62245 $92 
G0 F3600 X57.563 Y111.736 $36 
G1 F1200 X71.699 Y125.872 E72.68964 $82 
G0 F3600 X72.304 Y125.872 $44 
G1 F1200 X58.168 Y111.736 E73.75683 $83 
G0 F3600 X58.774 Y111.736 $47 
G1 F1200 X72.909 Y125.872 E74.82398 $92 
G0 F3600 X73.515 Y125.872 $43 
G1 F1200 X59.379 Y111.736 E75.89116 $94 
G0 F3600 X59.984 Y111.736 $47 
G1 F1200 X74.120 Y125.872 E76.95835 $81 
G0 F3600 X74.725 Y125.872 $45 
G1 F1200 X60.589 Y111.736 E78.02554 $81 
G0 F3600 X61.195 Y111.736 $44 
G1 F1200 X75.330 Y125.872 E79.09269 $90 
G0 F3600 X75.936 Y125.872 $32 
G1 F1200 X61.800 Y111.736 E80.15987 $95 
G0 F3600 X62.405 Y111.736 $35 
G1 F1200 X76.541 Y125.872 E81.22706 $91 
G0 F3600 X77.146 Y125.872 $45 
G1 F1200 X63.010 Y111.736 E82.29425 $92 
G0 F3600 X63.616 Y111.736 $34 
G1 F1200 X77.752 Y125.872 E83.36144 $93 
G0 F3600 X78.357 Y125.872 $32 
G1 F1200 X64.221 Y111.736 E84.42862 $95 
G0 F3600 X64.826 Y111.736 $40 
G1 F1200 X78.962 Y125.872 E85.49581 $92 
G0 F3600 X79.567 Y125.872 $36 
G1 F1200 X65.432 Y111.736 E86.56296 $92 
G0 F3600 X66.037 Y111.736 $34 
G1 F1200 X80.173 Y125.872 E87.63015 $81 
G0 F3600 X80.778 Y125.872 $46 
G1 F1200 X66.642 Y111.736 E88.69733 $82 
G0 F3600 X67.247 Y111.736 $38 
G1 F1200 X81.383 Y125.872 E89.76452 $80 
G0 F3600 X81.989 Y125.872 $47 
G1 F1200 X67.853 Y111.736 E90.83171 $80 
G0 F3600 X68.458 Y111.736 $33 
G1 F1200 X82.594 Y125.872 E91.89889 $80 
G0 F3600 X83.199 Y125.872 $36 
G1 F1200 X69.063 Y111.736 E92.96608 $90 
G0 F3600 X69.669 Y111.736 $32 
G1 F1200 X83.804 Y125.872 E94.03323 $89 
G0 F3600 X84.410 Y125.872 $39 
G1 F1200 X70.274 Y111.736 E95.10042 $87 
G0 F3600 X70.879 Y111.736 $39 
G1 F1200 X85.015 Y125.872 E96.16761 $83 
G0 F3600 X85.620 Y125.872 $39 
G1 F1200 X71.484 Y111.736 E97.23479 $81 
G0 F3600 X72.090 Y111.736 $42 
G1 F1200 X86.226 Y125.872 E98.30198 $88 
G0 F3600 X86.831 Y125.872 $42 
G1 F1200 X72.695 Y111.736 E99.36917 $95 
G0 F3600 X73.300 Y111.736 $33 
G1 F1200 X87.436 Y125.872 E100.43635 $106 
G0 F3600 X88.041 Y125.872 $43 
G1 F1200 X73.906 Y111.736 E101.50350 $98 
G0 F3600 X74.511 Y111.736 $32 
G1 F1200 X88.647 Y125.872 E102.57069 $105 
G0 F3600 X89.252 Y125.872 $42 
G1 F1200 X75.116 Y111.736 E103.63788 $110 
G0 F3600 X75.721 Y111.736 $32 
G1 F1200 X89.857 Y125.872 E104.70506 $104 
G0 F3600 X90.462 Y125.872 $39 
G1 F1200 X76.327 Y111.736 E105.77221 $104 
G0 F3600 X76.932 Y111.736 $47 
G1 F1200 X91.068 Y125.872 E106.83940 $101 
G0 F3600 X91.673 Y125.872 $36 
G1 F1200 X77.537 Y111.736 E107.90659 $110 
G0 F3600 X78.143 Y111.736 $47 
G1 F1200 X92.278 Y125.872 E108.97374 $99 
G0 F3600 X92.884 Y125.872 $33 
G1 F1200 X78.748 Y111.736 E110.04092 $97 
G0 F3600 X79.353 Y111.736 $45 
G1 F1200 X93.080 Y125.462 E111.07720 $110 
G0 F3600 X93.080 Y124.857 $42 
G1 F1200 X79.958 Y111.736 E112.06780 $107 
G0 F3600 X80.564 Y111.736 $41 
G1 F1200 X93.080 Y124.252 E113.01268 $103 
G0 F3600 X93.080 Y123.646 $35 
G1 F1200 X81.169 Y111.736 E113.91186 $105 
G0 F3600 X81.774 Y111.736 $43 
G1 F1200 X93.080 Y123.041 E114.76536 $107 
G0 F3600 X93.080 Y122.436 $39 
G1 F1200 X82.380 Y111.736 E115.57315 $107 
G0 F3600 X82.985 Y111.736 $40 
G1 F1200 X93.080 Y121.830 E116.33522 $97 
G0 F3600 X93.080 Y121.225 $32 
G1 F1200 X83.590 Y111.736 E117.05163 $107 
G0 F3600 X84.195 Y111.736 $39 
G1 F1200 X93.080 Y120.620 E117.72235 $106 
G0 F3600 X93.080 Y120.015 $32 
G1 F1200 X84.801 Y111.736 E118.34737 $99 
G0 F3600 X85.406 Y111.736 $41 
G1 F1200 X93.080 Y119.409 E118.92668 $100 
G0 F3600 X93.080 Y118.804 $35 
G1 F1200 X86.011 Y111.736 E119.46031 $109 
G0 F3600 X86.617 Y111.736 $40 
G1 F1200 X93.080 Y118.199 E119.94823 $111 
G0 F3600 X93.080 Y117.593 $47 
G1 F1200 X87.222 Y111.736 E120.39044 $110 
G0 F3600 X87.827 Y111.736 $36 
G1 F1200 X93.080 Y116.988 E120.78697 $96 
G0 F3600 X93.080 Y116.383 $41 
G1 F1200 X88.432 Y111.736 E121.13783 $99 
G0 F3600 X89.038 Y111.736 $44 
G1 F1200 X93.080 Y115.778 E121.44298 $103 
G0 F3600 X93.080 Y115.172 $38 
G1 F1200 X89.643 Y111.736 E121.70241 $104 
G0 F3600 X90.248 Y111.736 $33 
G1 F1200 X93.080 Y114.567 E121.91617 $97 
G0 F3600 X93.080 Y113.962 $41 
G1 F1200 X90.854 Y111.736 E122.08423 $102 
G0 F3600 X91.459 Y111.736 $38 
G1 F1200 X93.080 Y113.356 E122.20656 $110 
G0 F3600 X93.080 Y112.751 $38 
G1 F1200 X92.064 Y111.736 E122.28323 $106 
G0 F3600 X92.669 Y111.736 $36 
G1 F1200 X93.080 Y112.146 E122.31422 $109 
G0 F3600 X62.619 Y125.872 $36 
G1 F1200 X48.944 Y112.196 E123.34664 $99 
G0 F3600 X48.944 Y112.801 $43 
G1 F1200 X62.014 Y125.872 E124.33339 $109 
G0 F3600 X61.409 Y125.872 $36 
G1 F1200 X48.944 Y113.407 E125.27442 $109 
G0 F3600 X48.944 Y114.012 $39 
G1 F1200 X60.804 Y125.872 E126.16979 $109 
G0 F3600 X60.198 Y125.872 $40 
G1 F1200 X48.944 Y114.617 E127.01944 $100 
G0 F3600 X48.944 Y115.223 $38 
G1 F1200 X59.593 Y125.872 E127.82338 $103 
G0 F3600 X58.988 Y125.872 $42 
G1 F1200 X48.944 Y115.828 E128.58164 $110 
G0 F3600 X48.944 Y116.433 $34 
G1 F1200 X58.382 Y125.872 E129.29419 $107 
G0 F3600 X57.777 Y125.872 $43 
G1 F1200 X48.944 Y117.038 E129.96107 $99 
G0 F3600 X48.944 Y117.644 $33 
G1 F1200 X57.172 Y125.872 E130.58224 $111 
G0 F3600 X56.567 Y125.872 $41 
G1 F1200 X48.944 Y118.249 E131.15773 $111 
G0 F3600 X48.944 Y118.854 $33 
G1 F1200 X55.961 Y125.872 E131.68751 $98 
G0 F3600 X55.356 Y125.872 $46 
G1 F1200 X48.944 Y119.460 E132.17158 $109 
G0 F3600 X48.944 Y120.065 $32 
G1 F1200 X54.751 Y125.872 E132.60998 $110 
G0 F3600 X54.145 Y125.872 $47 
G1 F1200 X48.944 Y120.670 E133.00266 $109 
G0 F3600 X48.944 Y121.275 $34 
G1 F1200 X53.540 Y125.872 E133.34967 $107 
G0 F3600 X52.935 Y125.872 $38 
G1 F1200 X48.944 Y121.881 E133.65097 $99 
G0 F3600 X48.944 Y122.486 $43 
G1 F1200 X52.330 Y125.872 E133.90659 $103 
G0 F3600 X51.724 Y125.872 $43 
G1 F1200 X48.944 Y123.091 E134.11650 $97 
G0 F3600 X48.944 Y123.697 $40 
G1 F1200 X51.119 Y125.872 E134.28070 $100 
G0 F3600 X50.514 Y125.872 $43 
G1 F1200 X48.944 Y124.302 E134.39923 $110 
G0 F3600 X48.944 Y124.907 $41 
G1 F1200 X49.909 Y125.872 E134.47208 $96 
G0 F3600 X49.303 Y125.872 $35 
G1 F1200 X48.944 Y125.512 E134.49922 $110 
;LAYER:1
G0 F3600 X48.795 Y126.023 Z0.500 $119 
;TYPE:WALL-INNER
G1 F1320 X48.795 Y111.587 E135.01297 $108 
G1 X93.230 Y111.587 E136.59434 $7 
G1 X93.230 Y126.023 E137.10810 $14 
G1 X48.795 Y126.023 E138.68946 $0 
G0 F3600 X48.367 Y126.451 $46 
G1 F1320 X48.367 Y111.159 E139.23368 $111 
G1 X93.658 Y111.159 E140.84551 $9 
G1 X93.658 Y126.451 E141.38973 $10 
G1 X48.367 Y126.451 E143.00156 $3 
G0 F3600 X47.939 Y126.879 $38 
G1 F1320 X47.939 Y110.731 E143.57624 $107 
G1 X94.086 Y110.731 E145.21854 $0 
G1 X94.086 Y126.879 E145.79322 $1 
G1 X47.939 Y126.879 E147.43551 $11 
G0 F3600 X47.511 Y127.307 $35 
G1 F1320 X47.511 Y110.303 E148.04066 $101 
G1 X94.514 Y110.303 E149.71342 $14 
G1 X94.514 Y127.307 E150.31856 $12 
G1 X47.511 Y127.307 E151.99132 $15 
G0 F3600 X47.083 Y127.735 $40 
G1 F1320 X47.083 Y109.875 E152.62693 $110 
G1 X94.942 Y109.875 E154.33015 $8 
G1 X94.942 Y127.735 E154.96576 $0 
G1 X47.083 Y127.735 E156.66898 $10 
G0 F3600 X46.655 Y128.163 $46 
G1 F1320 X46.655 Y109.447 E157.33505 $98 
G1 X95.370 Y109.447 E159.06874 $11 
G1 X95.370 Y128.163 E159.73481 $15 
G1 X46.655 Y128.163 E161.46850 $14 
G0 F3600 X46.227 Y128.591 $38 
;TYPE:WALL-OUTER
G1 F1320 X46.227 Y109.019 E162.16503 $107 
G1 X95.798 Y109.019 E163.92918 $9 
G1 X95.798 Y128.591 E164.62572 $7 
G1 X46.227 Y128.591 E166.38987 $3 
G0 F3600 X46.451 Y128.277 $46 
G0 X48.945 Y125.679 $76 
;TYPE:FILL
G1 F1320 X62.887 Y111.736 E167.09159 $110 
G0 F3600 X62.282 Y111.736 $42 
G1 F1320 X48.945 Y125.073 E167.76283 $100 
G0 F3600 X48.945 Y124.468 $44 
G1 F1320 X61.677 Y111.736 E168.40363 $101 
G0 F3600 X61.072 Y111.736 $36 
G1 F1320 X48.945 Y123.863 E169.01397 $97 
G0 F3600 X48.945 Y123.257 $33 
G1 F1320 X60.466 Y111.736 E169.59382 $96 
G0 F3600 X59.861 Y111.736 $37 
G1 F1320 X48.945 Y122.652 E170.14322 $110 
G0 F3600 X48.945 Y122.047 $35 
G1 F1320 X59.256 Y111.736 E170.66216 $103 
G0 F3600 X58.650 Y111.736 $40 
G1 F1320 X48.945 Y121.442 E171.15064 $111 
G0 F3600 X48.945 Y120.836 $47 
G1 F1320 X58.045 Y111.736 E171.60863 $105 
G0 F3600 X57.440 Y111.736 $36 
G1 F1320 X48.945 Y120.231 E172.03618 $101 
G0 F3600 X48.945 Y119.626 $42 
G1 F1320 X56.835 Y111.736 E172.43328 $110 
G0 F3600 X56.229 Y111.736 $44 
G1 F1320 X48.945 Y119.020 E172.79988 $102 
G0 F3600 X48.945 Y118.415 $41 
G1 F1320 X55.624 Y111.736 E173.13603 $107 
G0 F3600 X55.019 Y111.736 $46 
G1 F1320 X48.945 Y117.810 E173.44174 $103 
G0 F3600 X48.945 Y117.205 $33 
G1 F1320 X54.413 Y111.736 E173.71696 $100 
G0 F3600 X53.808 Y111.736 $32 
G1 F1320 X48.945 Y116.599 E173.96172 $99 
G0 F3600 X48.945 Y115.994 $32 
G1 F1320 X53.203 Y111.736 E174.17602 $110 
G0 F3600 X52.598 Y111.736 $37 
G1 F1320 X48.945 Y115.389 E174.35987 $107 
G0 F3600 X48.945 Y114.783 $41 
G1 F1320 X51.992 Y111.736 E174.51323 $107 
G0 F3600 X51.387 Y111.736 $46 
G1 F1320 X48.945 Y114.178 E174.63613 $103 
G0 F3600 X48.945 Y113.573 $35 
G1 F1320 X50.782 Y111.736 E174.72859 $98 
G0 F3600 X50.177 Y111.736 $34 
G1 F1320 X48.945 Y112.968 E174.79059 $107 
G0 F3600 X48.945 Y112.362 $36 
G1 F1320 X49.571 Y111.736 E174.82210 $108 
G0 F3600 X63.493 Y111.736 $45 
G1 F1320 X49.356 Y125.872 E175.53358 $103 
G0 F3600 X49.962 Y125.872 $46 
G1 F1320 X64.098 Y111.736 E176.24504 $109 
G0 F3600 X64.703 Y111.736 $32 
G1 F1320 X50.567 Y125.872 E176.95650 $111 
G0 F3600 X51.172 Y125.872 $46 
G1 F1320 X65.309 Y111.736 E177.66798 $103 
G0 F3600 X65.914 Y111.736 $41 
G1 F1320 X51.777 Y125.872 E178.37946 $99 
G0 F3600 X52.383 Y125.872 $33 
G1 F1320 X66.519 Y111.736 E179.09092 $105 
G0 F3600 X67.124 Y111.736 $32 
G1 F1320 X52.988 Y125.872 E179.80238 $97 
G0 F3600 X53.593 Y125.872 $39 
G1 F1320 X67.730 Y111.736 E180.51386 $108 
G0 F3600 X68.335 Y111.736 $45 
G1 F1320 X54.199 Y125.872 E181.22532 $109 
G0 F3600 X54.804 Y125.872 $35 
G1 F1320 X68.940 Y111.736 E181.93678 $97 
G0 F3600 X69.546 Y111.736 $46 
G1 F1320 X55.409 Y125.872 E182.64826 $105 
G0 F3600 X56.014 Y125.872 $40 
G1 F1320 X70.151 Y111.736 E183.35975 $108 
G0 F3600 X70.756 Y111.736 $37 
G1 F1320 X56.620 Y125.872 E184.07120 $111 
G0 F3600 X57.225 Y125.872 $41 
G1 F1320 X71.361 Y111.736 E184.78266 $107 
G0 F3600 X71.967 Y111.736 $40 
G1 F1320 X57.830 Y125.872 E185.49415 $105 
G0 F3600 X58.436 Y125.872 $34 
G1 F1320 X72.572 Y111.736 E186.20560 $98 
G0 F3600 X73.177 Y111.736 $35 
G1 F1320 X59.041 Y125.872 E186.91706 $110 
G0 F3600 X59.646 Y125.872 $38 
G1 F1320 X73.783 Y111.736 E187.62855 $99 
G0 F3600 X74.388 Y111.736 $38 
G1 F1320 X60.251 Y125.872 E188.34003 $100 
G0 F3600 X60.857 Y125.872 $34 
G1 F1320 X74.993 Y111.736 E189.05149 $96 
G0 F3600 X75.598 Y111.736 $32 
G1 F1320 X61.462 Y125.872 E189.76295 $105 
G0 F3600 X62.067 Y125.872 $43 
G1 F1320 X76.204 Y111.736 E190.47443 $102 
G0 F3600 X76.809 Y111.736 $38 
G1 F1320 X62.672 Y125.872 E191.18591 $107 
G0 F3600 X63.278 Y125.872 $38 
G1 F1320 X77.414 Y111.736 E191.89737 $99 
G0 F3600 X78.020 Y111.736 $43 
G1 F1320 X63.883 Y125.872 E192.60885 $110 
G0 F3600 X64.488 Y125.872 $40 
G1 F1320 X78.625 Y111.736 E193.32034 $106 
G0 F3600 X79.230 Y111.736 $41 
G1 F1320 X65.094 Y125.872 E194.03179 $111 
G0 F3600 X65.699 Y125.872 $43 
G1 F1320 X79.835 Y111.736 E194.74325 $98 
G0 F3600 X80.441 Y111.736 $47 
G1 F1320 X66.304 Y125.872 E195.45474 $109 
G0 F3600 X66.909 Y125.872 $46 
G1 F1320 X81.046 Y111.736 E196.16622 $109 
G0 F3600 X81.651 Y111.736 $45 
G1 F1320 X67.515 Y125.872 E196.87768 $105 
G0 F3600 X68.120 Y125.872 $35 
G1 F1320 X82.257 Y111.736 E197.58916 $111 
G0 F3600 X82.862 Y111.736 $32 
G1 F1320 X68.725 Y125.872 E198.30064 $110 
G0 F3600 X69.331 Y125.872 $32 
G1 F1320 X83.467 Y111.736 E199.01210 $100 
