;Generated with Cura_SteamEngine Realio_170823_USB_32
M190 S50.000000
M140 S60.000000
M109 T0 S210.000000
T0
;Sliced at: Tue 18-02-2025 23:53:11
;Basic settings: Layer height: 0.2 Walls: 3 Fill: 20
;Print time: 18 minutes
;Filament used: 0.94m 3g
;Filament cost:  Unknown
;M190 S60 ;Uncomment to add your own bed temperature line
;M109 S210 ;Uncomment to add your own temperature line
G21        ;metric values
G90        ;absolute positioning
M82        ;set extruder to absolute mode
M107       ;start with the fan off
G28 X0 Y0  ;move X/Y to min endstops
G28 Z0     ;move Z to min endstops
G1 Z1.5 F3600 ;move the platform down 1.5mm
G92 E0                  ;zero the extruded length
G1 F200 E8              ;extrude 8mm of feed stock
G92 E0                  ;zero the extruded length again
G1 F3600
;Put printing message on LCD screen
M117 Printing...

M305 S1 $57 	;check Command 
;Layer count: 50
;LAYER:0
M106 S255 $59 
G0 F3600 X63.482 Y110.146 Z0.300 E13.57307 $5 
G92 E0 $25 
G92 E0.5 $2 
G92 E0 $25 
;TYPE:SKIRT
G1 F1200 X65.536 Y110.326 E0.11007 $106 
G1 X65.814 Y110.362 E0.12503 $0 
G1 X65.930 Y110.087 E0.14096 $0 
G1 X65.959 Y110.026 E0.14457 $13 
G1 X65.996 Y109.944 E0.14937 $0 
G1 X66.019 Y109.898 E0.15212 $0 
G1 X66.034 Y109.865 E0.15405 $13 
G1 X66.058 Y109.813 E0.15711 $0 
G1 X66.671 Y108.514 E0.23379 $9 
G1 X68.164 Y107.875 E0.32048 $0 
G1 X68.439 Y107.793 E0.33580 $10 
G1 X68.552 Y107.763 E0.34204 $5 
G1 X68.562 Y107.760 E0.34260 $7 
G1 X68.615 Y107.746 E0.34552 $6 
G1 X68.684 Y107.728 E0.34933 $13 
G1 X68.694 Y107.725 E0.34989 $0 
G1 X68.737 Y107.714 E0.35226 $5 
G1 X70.409 Y107.280 E0.44447 $13 
G1 X72.079 Y108.453 E0.55341 $10 
G1 X72.306 Y108.625 E0.56862 $11 
G1 X72.437 Y108.521 E0.57755 $3 
G1 X72.560 Y108.427 E0.58581 $3 
G1 X72.668 Y108.353 E0.59280 $11 
G1 X72.715 Y108.319 E0.59590 $8 
G1 X72.755 Y108.292 E0.59847 $9 
G1 X72.775 Y108.278 E0.59978 $2 
G1 X74.213 Y107.268 E0.69358 $4 
G1 X75.863 Y107.712 E0.78480 $2 
G1 X75.954 Y107.736 E0.78982 $14 
G1 X75.991 Y107.746 E0.79187 $12 
G1 X76.001 Y107.749 E0.79242 $10 
G1 X76.070 Y107.767 E0.79623 $3 
G1 X76.101 Y107.775 E0.79794 $10 
G1 X77.865 Y108.273 E0.89579 $2 
G1 X78.790 Y110.362 E1.01775 $15 
G1 X79.056 Y110.327 E1.03207 $0 
G1 X79.160 Y110.317 E1.03765 $6 
G1 X79.231 Y110.311 E1.04145 $4 
G1 X79.264 Y110.309 E1.04321 $13 
G1 X79.295 Y110.307 E1.04487 $6 
G1 X79.295 Y110.306 E1.04493 $2 
G1 X79.330 Y110.303 E1.04680 $9 
G1 X79.331 Y110.303 E1.04685 $13 
G1 X81.073 Y110.138 E1.14026 $11 
G1 X82.392 Y111.412 E1.23816 $7 
G1 X82.423 Y111.445 E1.24057 $2 
G1 X82.531 Y111.553 E1.24873 $8 
G1 X82.543 Y111.566 E1.24967 $15 
G1 X82.569 Y111.592 E1.25163 $1 
G1 X83.752 Y112.836 E1.34328 $7 
G1 X83.577 Y114.827 E1.44997 $13 
G1 X83.541 Y115.111 E1.46525 $2 
G1 X83.848 Y115.242 E1.48307 $11 
G1 X83.923 Y115.276 E1.48747 $0 
G1 X83.950 Y115.288 E1.48904 $12 
G1 X84.038 Y115.329 E1.49423 $15 
G1 X84.038 Y115.330 E1.49428 $12 
G1 X84.082 Y115.350 E1.49686 $13 
G1 X84.099 Y115.358 E1.49786 $14 
G1 X85.658 Y116.060 E1.58913 $13 
G1 X86.099 Y117.696 E1.67958 $8 
G1 X86.110 Y117.732 E1.68159 $1 
G1 X86.129 Y117.805 E1.68562 $12 
G1 X86.147 Y117.874 E1.68943 $13 
G1 X86.150 Y117.884 E1.68998 $2 
G1 X86.164 Y117.937 E1.69291 $15 
G1 X86.182 Y118.006 E1.69672 $10 
G1 X86.185 Y118.016 E1.69727 $13 
G1 X86.635 Y119.687 E1.78965 $6 
G1 X85.450 Y121.374 E1.89971 $13 
G1 X85.280 Y121.598 E1.91472 $5 
G1 X85.519 Y121.910 E1.93570 $15 
G1 X85.567 Y121.988 E1.94059 $14 
G1 X85.570 Y121.993 E1.94090 $7 
G1 X85.577 Y122.003 E1.94155 $11 
G1 X85.624 Y122.070 E1.94592 $5 
G1 X86.423 Y123.238 E2.02146 $13 
G1 X86.264 Y124.887 E2.10990 $1 
G1 X86.178 Y125.207 E2.12759 $5 
G1 X86.160 Y125.276 E2.13140 $5 
G1 X86.143 Y125.339 E2.13488 $15 
G1 X86.140 Y125.349 E2.13544 $10 
G1 X85.656 Y127.147 E2.23484 $9 
G1 X83.541 Y128.086 E2.35837 $10 
G1 X83.580 Y128.397 E2.37510 $14 
G1 X83.582 Y128.427 E2.37670 $5 
G1 X83.587 Y128.484 E2.37976 $0 
G1 X83.593 Y128.549 E2.38324 $7 
G1 X83.601 Y128.633 E2.38775 $1 
G1 X83.604 Y128.677 E2.39010 $1 
G1 X83.768 Y130.405 E2.48276 $0 
G1 X82.569 Y131.604 E2.57328 $4 
G1 X82.550 Y131.624 E2.57475 $3 
G1 X82.520 Y131.654 E2.57702 $0 
G1 X82.440 Y131.736 E2.58313 $9 
G1 X82.360 Y131.815 E2.58913 $8 
G1 X81.103 Y133.050 E2.68320 $14 
G1 X79.069 Y132.871 E2.79220 $15 
G1 X78.790 Y132.835 E2.80722 $14 
G1 X78.679 Y133.100 E2.82256 $2 
G1 X78.619 Y133.233 E2.83035 $1 
G1 X78.600 Y133.271 E2.83261 $12 
G1 X78.568 Y133.339 E2.83663 $10 
G1 X78.528 Y133.425 E2.84169 $14 
G1 X77.852 Y134.928 E2.92966 $6 
G1 X76.109 Y135.419 E3.02633 $9 
G1 X75.813 Y135.498 E3.04269 $12 
G1 X74.111 Y135.891 E3.13593 $7 
G1 X72.300 Y134.571 E3.25556 $13 
G1 X72.077 Y134.749 E3.27080 $11 
G1 X71.989 Y134.808 E3.27645 $5 
G1 X71.943 Y134.840 E3.27944 $1 
G1 X71.885 Y134.880 E3.28320 $1 
G1 X71.827 Y134.921 E3.28700 $5 
G1 X71.787 Y134.949 E3.28960 $6 
G1 X71.778 Y134.955 E3.29018 $12 
G1 X71.768 Y134.962 E3.29083 $11 
G1 X71.768 Y134.961 E3.29088 $3 
G1 X70.496 Y135.842 E3.37348 $1 
G1 X68.779 Y135.495 E3.46699 $3 
G1 X68.615 Y135.451 E3.47606 $7 
G1 X68.455 Y135.409 E3.48489 $6 
G1 X68.416 Y135.397 E3.48707 $4 
G1 X66.754 Y134.958 E3.57883 $10 
G1 X65.815 Y132.835 E3.70275 $9 
G1 X65.536 Y132.871 E3.71777 $3 
G1 X63.426 Y133.056 E3.83084 $15 
G1 X62.247 Y131.815 E3.92222 $12 
G1 X62.237 Y131.806 E3.92294 $4 
G1 X62.094 Y131.663 E3.93373 $11 
G1 X62.075 Y131.642 E3.93524 $3 
G1 X62.074 Y131.643 E3.93532 $4 
G1 X62.036 Y131.604 E3.93823 $12 
G1 X60.855 Y130.423 E4.02738 $15 
G1 X61.028 Y128.369 E4.13742 $1 
G1 X61.065 Y128.087 E4.15260 $8 
G1 X60.823 Y127.985 E4.16662 $2 
G1 X60.726 Y127.941 E4.17231 $3 
G1 X60.708 Y127.933 E4.17336 $12 
G1 X60.698 Y127.928 E4.17396 $4 
G1 X60.635 Y127.899 E4.17766 $3 
G1 X60.558 Y127.863 E4.18220 $6 
G1 X60.524 Y127.846 E4.18423 $15 
G1 X59.113 Y127.187 E4.26736 $11 
G1 X58.525 Y125.569 E4.35926 $0 
G1 X58.481 Y125.407 E4.36822 $0 
G1 X58.474 Y125.383 E4.36955 $0 
G1 X58.440 Y125.255 E4.37662 $7 
G1 X58.412 Y125.143 E4.38279 $5 
G1 X57.972 Y123.449 E4.47622 $10 
G1 X59.329 Y121.597 E4.59878 $14 
G1 X59.168 Y121.395 E4.61257 $1 
G1 X59.064 Y121.245 E4.62231 $3 
G1 X59.039 Y121.209 E4.62465 $4 
G1 X58.987 Y121.134 E4.62953 $12 
G1 X58.960 Y121.098 E4.63193 $7 
G1 X57.985 Y119.636 E4.72574 $7 
G1 X58.412 Y118.049 E4.81347 $14 
G1 X58.416 Y118.032 E4.81440 $6 
G1 X58.452 Y117.895 E4.82196 $1 
G1 X58.453 Y117.895 E4.82202 $14 
G1 X58.474 Y117.811 E4.82664 $3 
G1 X58.485 Y117.776 E4.82860 $9 
G1 X58.496 Y117.732 E4.83102 $7 
G1 X58.507 Y117.696 E4.83303 $2 
G1 X58.951 Y116.047 E4.92419 $10 
G1 X61.064 Y115.111 E5.04756 $8 
G1 X61.031 Y114.848 E5.06171 $13 
G1 X61.016 Y114.697 E5.06981 $3 
G1 X61.012 Y114.634 E5.07318 $5 
G1 X61.009 Y114.604 E5.07479 $12 
G1 X61.008 Y114.591 E5.07548 $1 
G1 X61.005 Y114.558 E5.07725 $0 
G1 X61.001 Y114.523 E5.07913 $3 
G1 X60.889 Y113.101 E5.15528 $14 
G1 X61.857 Y111.777 E5.24283 $13 
G1 X62.091 Y111.536 E5.26076 $1 
G1 X62.105 Y111.522 E5.26182 $2 
G1 X62.145 Y111.480 E5.26492 $11 
G1 X62.205 Y111.423 E5.26933 $3 
G1 X62.276 Y111.352 E5.27469 $5 
G1 X62.298 Y111.331 E5.27632 $12 
G1 X63.482 Y110.146 E5.36574 $2 
G1 F2400 E0.86574 $85 
G0 F3600 X63.644 Y110.590 $42 
G1 Z0.300 $33 
G1 F2400 E5.36574 $91 
G1 F1200 X65.490 Y110.751 E5.46466 $103 
G1 X65.932 Y110.809 E5.48846 $5 
G1 X66.090 Y110.839 E5.49704 $12 
G1 X66.144 Y110.682 E5.50590 $13 
G1 X66.321 Y110.262 E5.53024 $15 
G1 X66.360 Y110.178 E5.53518 $8 
G1 X66.382 Y110.128 E5.53809 $12 
G1 X66.411 Y110.071 E5.54151 $15 
G1 X66.422 Y110.045 E5.54302 $12 
G1 X66.446 Y109.994 E5.54602 $6 
G1 X66.989 Y108.844 E5.61391 $12 
G1 X68.310 Y108.278 E5.69063 $11 
G1 X68.556 Y108.205 E5.70433 $12 
G1 X68.661 Y108.177 E5.71013 $10 
G1 X68.702 Y108.166 E5.71240 $10 
G1 X68.755 Y108.152 E5.71532 $13 
G1 X68.793 Y108.142 E5.71742 $3 
G1 X68.834 Y108.131 E5.71969 $2 
G1 X68.846 Y108.128 E5.72035 $12 
G1 X70.325 Y107.744 E5.80192 $9 
G1 X71.827 Y108.798 E5.89987 $10 
G1 X72.179 Y109.067 E5.92352 $5 
G1 X72.303 Y109.175 E5.93230 $12 
G1 X72.700 Y108.859 E5.95939 $9 
G1 X72.811 Y108.774 E5.96685 $13 
G1 X72.899 Y108.714 E5.97253 $5 
G1 X72.959 Y108.670 E5.97651 $13 
G1 X73.006 Y108.639 E5.97951 $13 
G1 X73.022 Y108.628 E5.98055 $9 
G1 X74.295 Y107.733 E6.06362 $7 
G1 X75.754 Y108.127 E6.14429 $9 
G1 X75.754 Y108.126 E6.14435 $5 
G1 X75.844 Y108.150 E6.14932 $0 
G1 X75.851 Y108.152 E6.14971 $1 
G1 X75.892 Y108.163 E6.15197 $13 
G1 X75.930 Y108.173 E6.15407 $9 
G1 X75.990 Y108.188 E6.15737 $7 
G1 X77.555 Y108.630 E6.24419 $9 
G1 X78.450 Y110.650 E6.36213 $2 
G1 X78.515 Y110.837 E6.37270 $9 
G1 X78.707 Y110.804 E6.38310 $0 
G1 X79.103 Y110.753 E6.40441 $2 
G1 X79.198 Y110.744 E6.40950 $11 
G1 X79.264 Y110.738 E6.41304 $10 
G1 X79.277 Y110.737 E6.41374 $0 
G1 X79.291 Y110.736 E6.41449 $0 
G1 X79.339 Y110.732 E6.41706 $15 
G1 X79.350 Y110.731 E6.41765 $6 
G1 X79.371 Y110.729 E6.41877 $0 
G1 X80.918 Y110.583 E6.50172 $13 
G1 X82.088 Y111.714 E6.58859 $10 
G1 X82.114 Y111.741 E6.59059 $7 
G1 X82.122 Y111.749 E6.59120 $5 
G1 X82.225 Y111.851 E6.59894 $1 
G1 X82.235 Y111.862 E6.59973 $8 
G1 X82.263 Y111.890 E6.60184 $12 
G1 X83.308 Y112.991 E6.68288 $5 
G1 X83.151 Y114.781 E6.77880 $14 
G1 X83.096 Y115.222 E6.80252 $4 
G1 X83.064 Y115.386 E6.81144 $3 
G1 X83.228 Y115.443 E6.82071 $3 
G1 X83.675 Y115.633 E6.84664 $14 
G1 X83.720 Y115.654 E6.84929 $8 
G1 X83.772 Y115.677 E6.85232 $14 
G1 X83.856 Y115.717 E6.85729 $15 
G1 X83.899 Y115.737 E6.85982 $1 
G1 X83.917 Y115.746 E6.86090 $9 
G1 X85.298 Y116.367 E6.94173 $8 
G1 X85.683 Y117.801 E7.02099 $7 
G1 X85.698 Y117.849 E7.02367 $3 
G1 X85.722 Y117.942 E7.02880 $11 
G1 X85.733 Y117.983 E7.03107 $1 
G1 X85.736 Y117.995 E7.03173 $0 
G1 X85.750 Y118.048 E7.03465 $4 
G1 X85.768 Y118.115 E7.03836 $12 
G1 X85.779 Y118.156 E7.04062 $5 
G1 X86.169 Y119.605 E7.12073 $6 
G1 X85.105 Y121.122 E7.21964 $9 
G1 X84.836 Y121.474 E7.24329 $1 
G1 X84.730 Y121.597 E7.25196 $3 
G1 X84.855 Y121.748 E7.26242 $6 
G1 X85.166 Y122.153 E7.28968 $12 
G1 X85.207 Y122.221 E7.29392 $0 
G1 X85.218 Y122.236 E7.29492 $15 
G1 X85.229 Y122.252 E7.29595 $9 
G1 X85.273 Y122.314 E7.30001 $5 
G1 X85.982 Y123.351 E7.36707 $7 
G1 X85.841 Y124.811 E7.44537 $5 
G1 X85.769 Y125.076 E7.46003 $8 
G1 X85.770 Y125.076 E7.46008 $11 
G1 X85.746 Y125.166 E7.46506 $5 
G1 X85.729 Y125.228 E7.46849 $3 
G1 X85.726 Y125.240 E7.46915 $10 
G1 X85.296 Y126.838 E7.55749 $7 
G1 X83.251 Y127.746 E7.67693 $10 
G1 X83.066 Y127.810 E7.68738 $15 
G1 X83.100 Y128.011 E7.69826 $9 
G1 X83.154 Y128.442 E7.72145 $12 
G1 X83.161 Y128.524 E7.72585 $3 
G1 X83.167 Y128.587 E7.72922 $13 
G1 X83.174 Y128.669 E7.73362 $3 
G1 X83.178 Y128.717 E7.73619 $14 
G1 X83.323 Y130.245 E7.81812 $1 
G1 X82.264 Y131.305 E7.89811 $13 
G1 X82.244 Y131.326 E7.89966 $15 
G1 X82.196 Y131.374 E7.90328 $12 
G1 X82.138 Y131.433 E7.90770 $5 
G1 X82.060 Y131.509 E7.91351 $7 
G1 X80.944 Y132.606 E7.99705 $8 
G1 X79.115 Y132.446 E8.09506 $3 
G1 X78.674 Y132.388 E8.11880 $13 
G1 X78.515 Y132.357 E8.12745 $14 
G1 X78.460 Y132.516 E8.13643 $8 
G1 X78.287 Y132.929 E8.16033 $3 
G1 X78.232 Y133.049 E8.16738 $15 
G1 X78.224 Y133.066 E8.16838 $10 
G1 X78.181 Y133.157 E8.17376 $5 
G1 X78.157 Y133.207 E8.17672 $9 
G1 X77.544 Y134.570 E8.25650 $1 
G1 X75.997 Y135.007 E8.34231 $6 
G1 X75.710 Y135.082 E8.35815 $7 
G1 X74.205 Y135.430 E8.44061 $7 
G1 X72.452 Y134.152 E8.55642 $2 
G1 X72.302 Y134.022 E8.56701 $3 
G1 X71.824 Y134.403 E8.59964 $10 
G1 X71.735 Y134.463 E8.60537 $3 
G1 X71.699 Y134.488 E8.60771 $1 
G1 X71.645 Y134.526 E8.61124 $2 
G1 X71.636 Y134.532 E8.61182 $15 
G1 X71.584 Y134.569 E8.61522 $5 
G1 X71.545 Y134.596 E8.61775 $8 
G1 X71.526 Y134.609 E8.61898 $4 
G1 X70.402 Y135.387 E8.69196 $15 
G1 X68.877 Y135.078 E8.77502 $13 
G1 X68.726 Y135.037 E8.78337 $2 
G1 X68.573 Y134.997 E8.79181 $12 
G1 X68.538 Y134.986 E8.79377 $8 
G1 X67.062 Y134.597 E8.87526 $2 
G1 X66.154 Y132.543 E8.99514 $6 
G1 X66.091 Y132.360 E9.00547 $14 
G1 X65.899 Y132.393 E9.01587 $12 
G1 X65.490 Y132.446 E9.03789 $8 
G1 X63.594 Y132.612 E9.13949 $11 
G1 X62.565 Y131.529 E9.21923 $1 
G1 X62.545 Y131.509 E9.22074 $9 
G1 X62.535 Y131.500 E9.22146 $7 
G1 X62.400 Y131.365 E9.23165 $5 
G1 X62.372 Y131.335 E9.23385 $14 
G1 X61.299 Y130.261 E9.31489 $0 
G1 X61.453 Y128.415 E9.41377 $13 
G1 X61.512 Y127.969 E9.43779 $8 
G1 X61.542 Y127.811 E9.44638 $0 
G1 X61.385 Y127.757 E9.45524 $15 
G1 X60.994 Y127.592 E9.47789 $8 
G1 X60.905 Y127.553 E9.48308 $15 
G1 X60.872 Y127.537 E9.48504 $6 
G1 X60.816 Y127.511 E9.48833 $9 
G1 X60.745 Y127.478 E9.49251 $1 
G1 X60.710 Y127.461 E9.49459 $7 
G1 X59.455 Y126.874 E9.56855 $8 
G1 X58.933 Y125.440 E9.65002 $6 
G1 X58.897 Y125.306 E9.65742 $15 
G1 X58.886 Y125.266 E9.65964 $2 
G1 X58.854 Y125.148 E9.66617 $10 
G1 X58.827 Y125.040 E9.67211 $4 
G1 X58.437 Y123.538 E9.75495 $12 
G1 X59.749 Y121.747 E9.87346 $11 
G1 X59.878 Y121.598 E9.88398 $10 
G1 X59.512 Y121.140 E9.91528 $15 
G1 X59.408 Y120.989 E9.92507 $7 
G1 X59.388 Y120.962 E9.92686 $7 
G1 X59.340 Y120.893 E9.93135 $2 
G1 X59.334 Y120.884 E9.93193 $11 
G1 X59.311 Y120.853 E9.93399 $14 
G1 X58.449 Y119.560 E10.01694 $57 
G1 X58.824 Y118.166 E10.09400 $58 
G1 X58.831 Y118.136 E10.09565 $57 
G1 X58.866 Y118.005 E10.10289 $55 
G1 X58.886 Y117.928 E10.10713 $54 
G1 X58.896 Y117.896 E10.10892 $53 
G1 X58.908 Y117.849 E10.11151 $54 
G1 X58.923 Y117.801 E10.11420 $48 
G1 X59.311 Y116.356 E10.19407 $63 
G1 X61.356 Y115.450 E10.31347 $60 
G1 X61.540 Y115.386 E10.32387 $62 
G1 X61.507 Y115.192 E10.33437 $55 
G1 X61.456 Y114.799 E10.35553 $59 
G1 X61.443 Y114.662 E10.36288 $56 
G1 X61.443 Y114.656 E10.36320 $60 
G1 X61.439 Y114.615 E10.36540 $54 
G1 X61.435 Y114.568 E10.36791 $61 
G1 X61.432 Y114.528 E10.37005 $53 
G1 X61.431 Y114.519 E10.37054 $48 
G1 X61.428 Y114.484 E10.37241 $59 
G1 X61.328 Y113.225 E10.43983 $48 
G1 X62.184 Y112.054 E10.51727 $49 
G1 X62.396 Y111.837 E10.53346 $63 
G1 X62.429 Y111.803 E10.53599 $63 
G1 X62.448 Y111.783 E10.53746 $63 
G1 X62.483 Y111.749 E10.54007 $59 
G1 X62.574 Y111.658 E10.54694 $63 
G1 X62.591 Y111.642 E10.54818 $53 
G1 X63.644 Y110.590 E10.62764 $51 
G1 F2400 E6.12764 $93 
G0 F3600 X67.779 Y117.074 $41 
;TYPE:WALL-INNER
G1 Z0.300 $33 
G1 F2400 E10.62764 $109 
G1 F1200 X68.157 Y117.118 E10.64796 $80 
G1 X68.724 Y117.046 E10.67847 $61 
G1 X69.138 Y116.870 E10.70248 $56 
G1 X69.657 Y116.569 E10.73451 $62 
G1 X69.769 Y116.507 E10.74134 $59 
G1 X70.149 Y116.227 E10.76654 $49 
G1 X70.496 Y115.764 E10.79743 $63 
G1 X70.647 Y115.419 E10.81753 $62 
G1 X70.956 Y115.648 E10.83806 $58 
G1 X71.482 Y115.866 E10.86846 $60 
G1 X71.943 Y115.923 E10.89325 $61 
G1 X72.306 Y115.917 E10.91263 $56 
G1 X72.487 Y115.920 E10.92230 $55 
G1 X72.659 Y115.924 E10.93148 $63 
G1 X73.136 Y115.865 E10.95714 $61 
G1 X73.661 Y115.640 E10.98763 $60 
G1 X73.958 Y115.418 E11.00743 $52 
G1 X74.110 Y115.764 E11.02760 $60 
G1 X74.457 Y116.227 E11.05849 $56 
G1 X74.826 Y116.499 E11.08296 $52 
G1 X75.292 Y116.766 E11.11163 $50 
G1 X75.434 Y116.858 E11.12066 $61 
G1 X75.895 Y117.047 E11.14726 $56 
G1 X76.450 Y117.118 E11.17713 $48 
G1 X76.828 Y117.074 E11.19744 $52 
G1 X76.784 Y117.453 E11.21781 $62 
G1 X76.858 Y118.034 E11.24907 $63 
G1 X77.039 Y118.444 E11.27300 $60 
G1 X77.315 Y118.921 E11.30242 $62 
G1 X77.405 Y119.083 E11.31231 $61 
G1 X77.681 Y119.441 E11.33644 $61 
G1 X78.129 Y119.792 E11.36682 $53 
G1 X78.485 Y119.942 E11.38745 $49 
G1 X78.258 Y120.247 E11.40774 $62 
G1 X78.037 Y120.772 E11.43815 $61 
G1 X77.980 Y121.234 E11.46300 $59 
G1 X77.986 Y121.598 E11.48243 $52 
G1 X77.979 Y121.955 E11.50149 $57 
