;Generated with Cura_SteamEngine Realio_170823_USB_32
M190 S50.000000
M140 S60.000000
M109 T0 S210.000000
T0
;Sliced at: Wed 19-02-2025 00:04:02
;Basic settings: Layer height: 0.2 Walls: 3 Fill: 20
;Print time: 18 minutes
;Filament used: 0.97m 3g
;Filament cost:  Unknown
;M190 S60 ;Uncomment to add your own bed temperature line
;M109 S210 ;Uncomment to add your own temperature line
G21        ;metric values
G90        ;absolute positioning
M82        ;set extruder to absolute mode
M107       ;start with the fan off
G28 X0 Y0  ;move X/Y to min endstops
G28 Z0     ;move Z to min endstops
G1 Z1.5 F3600 ;move the platform down 1.5mm
G92 E0                  ;zero the extruded length
G1 F200 E8              ;extrude 8mm of feed stock
G92 E0                  ;zero the extruded length again
G1 F3600
;Put printing message on LCD screen
M117 Printing...

M305 S1 $57 	;check Command 
;Layer count: 32
;LAYER:0
M106 S255 $59 
G0 F3600 X67.692 Y113.720 Z0.300 E14.12951 $8 
G92 E0 $25 
G92 E0.5 $2 
G92 E0 $25 
;TYPE:SKIRT
G1 F1200 X67.940 Y114.156 E0.02678 $104 
G1 X68.451 Y115.236 E0.09056 $10 
G1 X68.723 Y115.935 E0.13060 $10 
G1 X69.070 Y117.078 E0.19436 $5 
G1 X69.237 Y117.810 E0.23444 $14 
G1 X69.413 Y118.993 E0.29829 $6 
G1 X69.467 Y119.703 E0.33630 $14 
G1 X69.483 Y120.355 E0.37112 $10 
G1 X69.466 Y121.043 E0.40786 $15 
G1 X69.407 Y121.641 E0.43993 $5 
G1 X74.599 Y121.641 E0.71710 $11 
G1 X74.351 Y121.205 E0.74387 $2 
G1 X73.840 Y120.125 E0.80765 $13 
G1 X73.568 Y119.426 E0.84769 $14 
G1 X73.221 Y118.283 E0.91146 $3 
G1 X73.054 Y117.551 E0.95154 $3 
G1 X72.878 Y116.368 E1.01538 $11 
G1 X72.824 Y115.658 E1.05340 $10 
G1 X72.808 Y115.006 E1.08821 $8 
G1 X72.825 Y114.319 E1.12490 $6 
G1 X72.884 Y113.720 E1.15703 $10 
G1 X67.692 Y113.720 E1.43419 $12 
G1 F2400 E-3.06581 $121 
G0 F3600 X62.810 Y108.884 $37 
G1 Z0.300 $33 
G1 F2400 E1.43419 $87 
G1 F1200 X62.810 Y101.531 E1.82671 $104 
G1 X109.237 Y101.531 E4.30510 $54 
G1 X109.237 Y113.720 E4.95578 $54 
G1 X99.174 Y113.720 E5.49297 $12 
G1 X99.222 Y114.354 E5.52691 $4 
G1 X99.238 Y115.006 E5.56173 $5 
G1 X99.221 Y115.693 E5.59841 $0 
G1 X99.105 Y116.878 E5.66197 $3 
G1 X98.978 Y117.619 E5.70211 $2 
G1 X98.689 Y118.778 E5.76587 $4 
G1 X98.456 Y119.491 E5.80591 $15 
G1 X97.998 Y120.599 E5.86991 $6 
G1 X97.660 Y121.269 E5.90997 $6 
G1 X97.048 Y122.294 E5.97370 $15 
G1 X96.617 Y122.907 E6.01370 $15 
G1 X95.859 Y123.833 E6.07759 $6 
G1 X95.341 Y124.378 E6.11772 $9 
G1 X94.458 Y125.179 E6.18137 $11 
G1 X93.868 Y125.642 E6.22140 $5 
G1 X92.874 Y126.307 E6.28524 $2 
G1 X92.222 Y126.678 E6.32529 $0 
G1 X91.142 Y127.189 E6.38907 $4 
G1 X90.443 Y127.461 E6.42911 $8 
G1 X89.300 Y127.808 E6.49288 $3 
G1 X88.568 Y127.975 E6.53296 $5 
G1 X87.385 Y128.151 E6.59680 $7 
G1 X86.675 Y128.205 E6.63481 $4 
G1 X86.023 Y128.221 E6.66963 $3 
G1 X85.337 Y128.204 E6.70626 $8 
G1 X84.151 Y128.088 E6.76988 $0 
G1 X83.446 Y127.968 E6.80805 $1 
G1 X82.772 Y127.816 E6.84493 $11 
G1 X81.636 Y127.471 E6.90831 $5 
G1 X80.936 Y127.204 E6.94831 $11 
G1 X79.850 Y126.692 E7.01240 $7 
G1 X79.481 Y126.483 E7.03504 $0 
G1 X79.481 Y133.830 E7.42724 $5 
G1 X33.054 Y133.830 E9.90563 $7 
G1 X33.054 Y121.641 E10.55631 $57 
G1 X43.117 Y121.641 E11.09350 $50 
G1 X43.069 Y121.007 E11.12744 $53 
G1 X43.053 Y120.355 E11.16225 $63 
G1 X43.070 Y119.668 E11.19894 $48 
G1 X43.186 Y118.483 E11.26250 $48 
G1 X43.313 Y117.742 E11.30263 $56 
G1 X43.602 Y116.583 E11.36640 $48 
G1 X43.836 Y115.870 E11.40646 $60 
G1 X44.292 Y114.766 E11.47022 $53 
G1 X44.628 Y114.094 E11.51033 $61 
G1 X45.244 Y113.066 E11.57430 $57 
G1 X45.674 Y112.454 E11.61423 $61 
G1 X46.432 Y111.528 E11.67811 $60 
G1 X46.950 Y110.983 E11.71825 $57 
G1 X47.833 Y110.182 E11.78189 $51 
G1 X48.423 Y109.719 E11.82193 $51 
G1 X49.417 Y109.054 E11.88577 $63 
G1 X50.069 Y108.683 E11.92582 $54 
G1 X51.149 Y108.172 E11.98960 $55 
G1 X51.848 Y107.900 E12.02964 $57 
G1 X52.991 Y107.553 E12.09340 $50 
G1 X53.723 Y107.386 E12.13348 $57 
G1 X54.905 Y107.210 E12.19728 $50 
G1 X55.616 Y107.156 E12.23534 $57 
G1 X56.268 Y107.140 E12.27016 $49 
G1 X56.954 Y107.157 E12.30679 $58 
G1 X58.140 Y107.273 E12.37040 $55 
G1 X58.882 Y107.400 E12.41059 $59 
G1 X60.041 Y107.690 E12.47437 $54 
G1 X60.752 Y107.923 E12.51431 $53 
G1 X61.858 Y108.379 E12.57817 $53 
G1 X62.531 Y108.717 E12.61837 $63 
G1 X62.810 Y108.884 E12.63573 $59 
G1 F2400 E8.13573 $86 
G0 F3600 X62.847 Y127.637 $44 
;TYPE:WALL-INNER
G1 Z0.300 $33 
G1 F2400 E12.63573 $106 
G1 F1200 X73.485 Y127.637 E13.20361 $86 
G1 X73.485 Y127.834 E13.21413 $61 
G1 X62.629 Y127.834 E13.79365 $50 
G1 X62.847 Y127.637 E13.80934 $49 
G1 F2400 E9.30934 $89 
G0 F3600 X55.517 Y127.986 $37 
G0 X49.907 Y127.834 $78 
G1 Z0.300 $33 
G1 F2400 E13.80934 $105 
G1 F1200 X39.050 Y127.834 E14.38891 $83 
G1 X39.050 Y127.637 E14.39943 $52 
G1 X49.689 Y127.637 E14.96736 $56 
G1 X49.907 Y127.834 E14.98305 $54 
G1 F2400 E10.48305 $102 
G0 F3600 X50.306 Y127.618 $46 
G1 Z0.300 $33 
G1 F2400 E14.98305 $111 
G1 F1200 X51.046 Y128.168 E15.03227 $91 
G1 X51.203 Y128.262 E15.04203 $53 
G1 X38.622 Y128.262 E15.71364 $63 
G1 X38.622 Y127.209 E15.76985 $63 
G1 X49.854 Y127.209 E16.36944 $60 
G1 X50.306 Y127.618 E16.40199 $53 
G1 F2400 E11.90199 $101 
G0 F3600 X61.333 Y128.262 $44 
G1 Z0.300 $33 
G1 F2400 E16.40199 $111 
G1 F1200 X62.230 Y127.619 E16.46090 $90 
G1 X62.682 Y127.209 E16.49348 $62 
G1 X73.913 Y127.209 E17.09302 $50 
G1 X73.913 Y128.262 E17.14923 $53 
G1 X61.333 Y128.262 E17.82078 $54 
G1 F2400 E13.32078 $97 
G0 F3600 X61.250 Y127.812 $42 
G1 Z0.300 $33 
G1 F2400 E17.82078 $110 
G1 F1200 X61.958 Y127.287 E17.86783 $87 
G1 X62.517 Y126.781 E17.90808 $63 
G1 X74.341 Y126.781 E18.53928 $62 
G1 X74.341 Y128.690 E18.64119 $63 
G1 X59.563 Y128.690 E19.43007 $60 
G1 X59.700 Y128.641 E19.43784 $59 
G1 X60.494 Y128.265 E19.48474 $58 
G1 X61.250 Y127.812 E19.53179 $50 
G1 F2400 E15.03179 $101 
G0 F3600 X52.973 Y128.690 $43 
G1 Z0.300 $33 
G1 F2400 E19.53179 $108 
G1 F1200 X38.194 Y128.690 E20.32073 $93 
G1 X38.194 Y126.781 E20.42263 $51 
G1 X50.019 Y126.781 E21.05388 $63 
G1 X50.578 Y127.287 E21.09413 $54 
G1 X51.284 Y127.812 E21.14110 $63 
G1 X52.041 Y128.265 E21.18819 $62 
G1 X52.836 Y128.641 E21.23514 $60 
G1 X52.973 Y128.690 E21.24290 $60 
G1 F2400 E16.74290 $98 
G0 F3600 X53.000 Y128.245 $43 
G1 Z0.300 $33 
G1 F2400 E21.24290 $99 
G1 F1200 X53.788 Y128.527 E21.28758 $80 
G1 X54.602 Y128.731 E21.33238 $61 
G1 X55.431 Y128.854 E21.37712 $59 
G1 X56.268 Y128.895 E21.42185 $53 
G1 X57.105 Y128.854 E21.46659 $51 
G1 X57.933 Y128.731 E21.51127 $58 
G1 X58.747 Y128.527 E21.55607 $60 
G1 X59.536 Y128.245 E21.60080 $53 
G1 X60.293 Y127.887 E21.64550 $48 
G1 X61.012 Y127.456 E21.69025 $48 
G1 X61.686 Y126.956 E21.73505 $59 
G1 X62.307 Y126.394 E21.77976 $60 
G1 X62.870 Y125.772 E21.82455 $62 
G1 X63.368 Y125.099 E21.86924 $48 
G1 X63.534 Y124.822 E21.88648 $61 
G1 X62.761 Y126.353 E21.97803 $62 
G1 X74.769 Y126.353 E22.61905 $60 
G1 X74.769 Y129.118 E22.76665 $49 
G1 X37.766 Y129.118 E24.74197 $55 
G1 X37.766 Y126.353 E24.88957 $50 
G1 X49.686 Y126.353 E25.52589 $61 
G1 X48.896 Y124.648 E25.62620 $61 
G1 X49.167 Y125.100 E25.65433 $54 
G1 X49.667 Y125.773 E25.69909 $59 
G1 X50.229 Y126.394 E25.74380 $52 
G1 X50.850 Y126.956 E25.78851 $63 
G1 X51.522 Y127.456 E25.83322 $49 
G1 X52.243 Y127.887 E25.87807 $58 
G1 X53.000 Y128.245 E25.92277 $60 
G1 F2400 E21.42277 $106 
G0 F3600 X53.164 Y127.849 $33 
G1 Z0.300 $33 
G1 F2400 E25.92277 $99 
G1 F1200 X53.913 Y128.117 E25.96523 $84 
G1 X54.685 Y128.311 E26.00773 $57 
G1 X55.473 Y128.427 E26.05025 $48 
G1 X56.268 Y128.466 E26.09274 $48 
G1 X57.063 Y128.427 E26.13523 $51 
G1 X57.850 Y128.311 E26.17769 $49 
G1 X58.622 Y128.117 E26.22018 $54 
G1 X59.372 Y127.849 E26.26270 $50 
G1 X60.091 Y127.509 E26.30516 $63 
G1 X60.774 Y127.100 E26.34765 $60 
G1 X61.414 Y126.625 E26.39020 $50 
G1 X62.004 Y126.091 E26.43268 $62 
G1 X62.538 Y125.500 E26.47520 $53 
G1 X63.012 Y124.861 E26.51767 $52 
G1 X63.421 Y124.179 E26.56013 $51 
G1 X63.762 Y123.460 E26.60261 $63 
G1 X64.030 Y122.710 E26.64512 $58 
G1 X64.223 Y121.938 E26.68760 $54 
G1 X64.340 Y121.150 E26.73013 $61 
G1 X64.379 Y120.355 E26.77262 $49 
G1 X64.340 Y119.559 E26.81516 $54 
G1 X64.223 Y118.773 E26.85758 $53 
G1 X64.030 Y118.000 E26.90011 $56 
G1 X63.762 Y117.250 E26.94263 $52 
G1 X63.421 Y116.531 E26.98511 $63 
G1 X63.012 Y115.849 E27.02756 $57 
G1 X62.538 Y115.210 E27.07003 $49 
G1 X62.004 Y114.619 E27.11255 $49 
G1 X61.413 Y114.085 E27.15507 $55 
G1 X60.774 Y113.611 E27.19755 $49 
G1 X60.091 Y113.201 E27.24007 $54 
G1 X59.372 Y112.861 E27.28253 $48 
G1 X58.622 Y112.593 E27.32504 $63 
G1 X57.850 Y112.399 E27.36754 $52 
G1 X57.063 Y112.283 E27.41000 $48 
G1 X56.268 Y112.244 E27.45249 $56 
G1 X55.473 Y112.283 E27.49498 $58 
G1 X54.685 Y112.399 E27.53750 $54 
G1 X53.913 Y112.593 E27.57999 $50 
G1 X53.164 Y112.861 E27.62246 $53 
G1 X52.444 Y113.201 E27.66496 $49 
G1 X51.760 Y113.612 E27.70756 $57 
G1 X51.122 Y114.085 E27.74996 $48 
G1 X50.532 Y114.619 E27.79244 $62 
G1 X49.998 Y115.209 E27.83492 $54 
G1 X49.523 Y115.849 E27.87747 $59 
G1 X49.114 Y116.531 E27.91992 $59 
G1 X48.774 Y117.251 E27.96242 $59 
G1 X48.506 Y118.000 E28.00489 $52 
G1 X48.312 Y118.773 E28.04744 $50 
G1 X48.196 Y119.560 E28.08990 $54 
G1 X48.157 Y120.355 E28.13239 $51 
G1 X48.196 Y121.150 E28.17488 $48 
G1 X48.312 Y121.938 E28.21740 $58 
G1 X48.506 Y122.710 E28.25989 $49 
G1 X48.774 Y123.459 E28.30236 $50 
G1 X49.114 Y124.179 E28.34486 $58 
G1 X49.523 Y124.861 E28.38732 $58 
G1 X49.998 Y125.501 E28.42986 $48 
G1 X50.532 Y126.091 E28.47234 $60 
G1 X51.122 Y126.625 E28.51482 $61 
G1 X51.760 Y127.100 E28.55728 $59 
G1 X52.445 Y127.509 E28.59987 $54 
G1 X53.164 Y127.849 E28.64233 $50 
G1 F2400 E24.14233 $108 
G0 F3600 X49.016 Y125.925 $39 
G1 Z0.300 $33 
G1 F2400 E28.64233 $103 
G1 F1200 X48.024 Y123.783 E28.76834 $91 
G1 X47.864 Y123.373 E28.79184 $59 
G1 X47.608 Y122.532 E28.83877 $61 
G1 X47.511 Y122.102 E28.86230 $61 
G1 X47.384 Y121.245 E28.90855 $58 
G1 X47.349 Y120.797 E28.93253 $63 
G1 X47.339 Y120.355 E28.95613 $52 
G1 X47.349 Y119.926 E28.97904 $60 
G1 X47.434 Y119.058 E29.02560 $50 
G1 X47.510 Y118.617 E29.04949 $56 
G1 X47.720 Y117.775 E29.09581 $54 
G1 X47.856 Y117.359 E29.11918 $55 
G1 X48.193 Y116.545 E29.16621 $48 
G1 X48.387 Y116.156 E29.18941 $54 
G1 X48.838 Y115.403 E29.23627 $56 
G1 X49.091 Y115.044 E29.25971 $63 
G1 X49.646 Y114.365 E29.30653 $57 
G1 X49.943 Y114.053 E29.32952 $57 
G1 X50.597 Y113.459 E29.37669 $63 
G1 X50.947 Y113.184 E29.40045 $51 
G1 X51.663 Y112.706 E29.44640 $49 
G1 X52.054 Y112.483 E29.47043 $56 
G1 X52.849 Y112.107 E29.51738 $57 
G1 X53.240 Y111.955 E29.53977 $48 
G1 X54.099 Y111.694 E29.58770 $49 
G1 X54.513 Y111.599 E29.61037 $54 
G1 X55.379 Y111.470 E29.65711 $60 
G1 X55.826 Y111.436 E29.68104 $48 
G1 X56.268 Y111.426 E29.70464 $56 
G1 X56.696 Y111.436 E29.72750 $58 
G1 X57.565 Y111.521 E29.77411 $48 
G1 X58.003 Y111.596 E29.79783 $48 
G1 X58.851 Y111.808 E29.84449 $50 
G1 X59.269 Y111.946 E29.86799 $53 
G1 X60.079 Y112.279 E29.91474 $62 
G1 X60.462 Y112.472 E29.93764 $61 
G1 X61.226 Y112.929 E29.98516 $53 
G1 X61.575 Y113.174 E30.00792 $50 
G1 X62.263 Y113.738 E30.05541 $54 
G1 X62.563 Y114.022 E30.07747 $60 
G1 X63.164 Y114.684 E30.12520 $51 
G1 X63.439 Y115.034 E30.14896 $52 
G1 X63.917 Y115.750 E30.19491 $54 
G1 X64.140 Y116.141 E30.21894 $60 
G1 X64.516 Y116.936 E30.26589 $53 
G1 X64.668 Y117.327 E30.28828 $60 
G1 X64.929 Y118.186 E30.33621 $61 
G1 X65.024 Y118.602 E30.35899 $56 
G1 X65.152 Y119.465 E30.40556 $54 
G1 X65.187 Y119.913 E30.42955 $63 
G1 X65.197 Y120.355 E30.45315 $53 
G1 X65.187 Y120.782 E30.47595 $54 
G1 X65.101 Y121.658 E30.52294 $61 
G1 X64.932 Y122.515 E30.56957 $61 
G1 X64.677 Y123.355 E30.61643 $62 
G1 X64.525 Y123.753 E30.63917 $52 
G1 X63.456 Y125.925 E30.76840 $56 
G1 X75.197 Y125.925 E31.39517 $50 
G1 X75.197 Y129.546 E31.58847 $56 
G1 X37.338 Y129.546 E33.60947 $49 
G1 X37.338 Y125.925 E33.80277 $50 
G1 X49.016 Y125.925 E34.42617 $63 
G1 F2400 E29.92617 $109 
G0 F3600 X48.346 Y125.497 $36 
G1 Z0.300 $33 
G1 F2400 E34.42617 $108 
G1 F1200 X47.626 Y123.941 E34.51770 $87 
G1 X47.459 Y123.514 E34.54217 $53 
G1 X47.193 Y122.641 E34.59089 $60 
G1 X47.092 Y122.191 E34.61551 $61 
G1 X46.957 Y121.286 E34.66436 $61 
G1 X46.922 Y120.820 E34.68930 $61 
G1 X46.910 Y120.355 E34.71413 $49 
G1 X46.922 Y119.900 E34.73843 $59 
G1 X47.009 Y119.001 E34.78665 $51 
G1 X47.309 Y117.651 E34.86047 $58 
G1 X47.456 Y117.205 E34.88554 $59 
G1 X47.801 Y116.369 E34.93382 $56 
G1 X48.008 Y115.956 E34.95848 $56 
G1 X48.484 Y115.161 E35.00794 $55 
G1 X48.742 Y114.794 E35.03189 $58 
G1 X49.326 Y114.080 E35.08113 $55 
G1 X49.647 Y113.743 E35.10598 $52 
G1 X50.325 Y113.127 E35.15488 $60 
G1 X50.682 Y112.848 E35.17907 $61 
G1 X51.447 Y112.336 E35.22821 $54 
G1 X51.855 Y112.104 E35.25326 $49 
G1 X52.680 Y111.713 E35.30200 $54 
G1 X53.104 Y111.549 E35.32627 $50 
G1 X53.980 Y111.282 E35.37515 $49 
G1 X54.434 Y111.179 E35.40000 $50 
G1 X55.338 Y111.044 E35.44880 $51 
G1 X55.803 Y111.009 E35.47369 $54 
G1 X56.268 Y110.997 E35.49852 $48 
G1 X56.722 Y111.009 E35.52277 $51 
G1 X57.622 Y111.096 E35.57103 $48 
G1 X58.088 Y111.176 E35.59627 $57 
G1 X58.975 Y111.398 E35.64509 $49 
G1 X59.407 Y111.540 E35.66936 $57 
G1 X60.259 Y111.892 E35.71857 $60 
G1 X61.458 Y112.569 E35.79207 $55 
G1 X61.840 Y112.837 E35.81699 $48 
G1 X62.542 Y113.413 E35.86546 $49 
G1 X62.874 Y113.727 E35.88985 $48 
G1 X63.496 Y114.412 E35.93925 $51 
G1 X63.774 Y114.767 E35.96332 $52 
G1 X64.287 Y115.534 E36.01258 $63 
G1 X64.519 Y115.942 E36.03763 $61 
G1 X64.910 Y116.767 E36.08637 $57 
G1 X65.073 Y117.186 E36.11037 $50 
G1 X65.341 Y118.067 E36.15952 $63 
G1 X65.445 Y118.522 E36.18444 $63 
G1 X65.579 Y119.424 E36.23312 $59 
G1 X65.614 Y119.890 E36.25807 $57 
G1 X65.626 Y120.355 E36.28290 $57 
G1 X65.615 Y120.808 E36.30709 $54 
G1 X65.525 Y121.715 E36.35574 $57 
G1 X65.347 Y122.623 E36.40514 $56 
G1 X65.084 Y123.491 E36.45355 $56 
G1 X64.721 Y124.371 E36.50437 $56 
G1 X64.152 Y125.497 E36.57172 $55 
G1 X75.625 Y125.497 E37.18417 $60 
G1 X75.625 Y129.974 E37.42317 $56 
G1 X36.910 Y129.974 E39.48987 $49 
G1 X36.910 Y125.497 E39.72887 $53 
G1 X48.346 Y125.497 E40.33935 $54 
G1 F2400 E35.83935 $111 
G0 F3600 X49.880 Y124.623 $40 
G1 Z0.300 $33 
G1 F2400 E40.33935 $102 
G1 F1200 X50.329 Y125.229 E40.37961 $85 
G1 X50.835 Y125.788 E40.41986 $48 
G1 X51.394 Y126.294 E40.46011 $58 
G1 X51.999 Y126.743 E40.50033 $53 
G1 X52.646 Y127.131 E40.54060 $59 
G1 X53.328 Y127.453 E40.58086 $50 
G1 X54.037 Y127.707 E40.62107 $59 
G1 X54.769 Y127.890 E40.66135 $51 
G1 X55.515 Y128.001 E40.70161 $50 
G1 X56.268 Y128.038 E40.74185 $56 
G1 X57.021 Y128.001 E40.78210 $63 
G1 X57.766 Y127.890 E40.82231 $50 
G1 X58.498 Y127.707 E40.86259 $52 
G1 X59.208 Y127.453 E40.90284 $63 
G1 X59.889 Y127.131 E40.94305 $49 
G1 X60.536 Y126.743 E40.98332 $56 
G1 X61.142 Y126.294 E41.02359 $62 
G1 X61.701 Y125.788 E41.06384 $48 
G1 X62.207 Y125.229 E41.10409 $59 
G1 X62.656 Y124.623 E41.14435 $63 
G1 X63.043 Y123.977 E41.18455 $63 
G1 X63.366 Y123.295 E41.22483 $62 
G1 X63.620 Y122.585 E41.26509 $57 
G1 X63.802 Y121.854 E41.30530 $56 
G1 X63.914 Y121.108 E41.34557 $59 
G1 X63.951 Y120.355 E41.38582 $53 
G1 X63.914 Y119.602 E41.42606 $59 
G1 X63.802 Y118.857 E41.46628 $58 
G1 X63.620 Y118.125 E41.50654 $52 
G1 X63.366 Y117.415 E41.54680 $55 
G1 X63.043 Y116.733 E41.58708 $56 
G1 X62.656 Y116.087 E41.62728 $56 
G1 X62.207 Y115.481 E41.66754 $54 
G1 X61.701 Y114.922 E41.70779 $59 
G1 X61.142 Y114.416 E41.74804 $49 
G1 X60.536 Y113.968 E41.78827 $57 
G1 X59.889 Y113.579 E41.82857 $52 
