;Generated with Cura_SteamEngine Realio_170823_USB_32
M190 S50.000000
M140 S60.000000
M109 T0 S210.000000
T0
;Sliced at: Sun 09-03-2025 16:44:51
;Basic settings: Layer height: 0.3 Walls: 0.8 Fill: 20
;Print time: 3 hours 34 minutes
;Filament used: 14.70m 44g
;Filament cost:  Unknown
;M190 S60 ;Uncomment to add your own bed temperature line
;M109 S210 ;Uncomment to add your own temperature line
G21        ;metric values
G90        ;absolute positioning
M82        ;set extruder to absolute mode
M107       ;start with the fan off
G28 X0 Y0  ;move X/Y to min endstops
G28 Z0     ;move Z to min endstops
G1 Z1.5 F3600 ;move the platform down 1.5mm
G92 E0                  ;zero the extruded length
G1 F200 E8              ;extrude 8mm of feed stock
G92 E0                  ;zero the extruded length again
G1 F3600
;Put printing message on LCD screen
M117 Printing...

M305 S1 $57 	;check Command 
;Layer count: 20
;LAYER:-2
;RAFT
G0 F3600 X26.588 Y26.588 Z0.300 E10.00000 $56 
G92 E0 $25 
G92 E0.5 $2 
G92 E0 $25 
;TYPE:SUPPORT
G1 F1200 X27.398 Y25.793 E0.16987 $85 
G1 X28.222 Y25.011 E0.33990 $51 
G1 X29.057 Y24.246 E0.50939 $53 
G1 X29.906 Y23.495 E0.67904 $61 
G1 X30.769 Y22.758 E0.84890 $48 
G1 X31.645 Y22.036 E1.01880 $60 
G1 X32.532 Y21.330 E1.18848 $54 
G1 X33.431 Y20.640 E1.35810 $52 
G1 X34.344 Y19.964 E1.52813 $55 
G1 X35.269 Y19.304 E1.69820 $60 
G1 X36.203 Y18.663 E1.86775 $56 
G1 X37.149 Y18.036 E2.03761 $57 
G1 X38.105 Y17.428 E2.20718 $53 
G1 X39.072 Y16.834 E2.37704 $62 
G1 X40.050 Y16.258 E2.54692 $59 
G1 X41.039 Y15.699 E2.71695 $63 
G1 X42.035 Y15.159 E2.88652 $54 
G1 X43.041 Y14.635 E3.05629 $48 
G1 X44.056 Y14.129 E3.22604 $49 
G1 X45.080 Y13.640 E3.39588 $57 
G1 X46.113 Y13.170 E3.56574 $63 
G1 X47.152 Y12.718 E3.73533 $54 
G1 X48.201 Y12.283 E3.90529 $61 
G1 X49.257 Y11.868 E4.07511 $49 
G1 X50.317 Y11.471 E4.24453 $62 
G1 X51.388 Y11.091 E4.41461 $49 
G1 X52.464 Y10.731 E4.58443 $51 
G1 X53.547 Y10.390 E4.75437 $49 
G1 X54.634 Y10.068 E4.92405 $61 
G1 X55.727 Y9.765 E5.09381 $5 
G1 X56.825 Y9.482 E5.26352 $2 
G1 X57.929 Y9.216 E5.43349 $12 
G1 X59.038 Y8.971 E5.60347 $15 
G1 X60.147 Y8.745 E5.77287 $14 
G1 X61.263 Y8.538 E5.94275 $2 
G1 X62.381 Y8.351 E6.11241 $12 
G1 X63.505 Y8.182 E6.28253 $2 
G1 X64.629 Y8.035 E6.45219 $0 
G1 X65.756 Y7.906 E6.62197 $14 
G1 X66.886 Y7.798 E6.79187 $13 
G1 X68.016 Y7.709 E6.96152 $3 
G1 X69.147 Y7.640 E7.13111 $0 
G1 X70.283 Y7.590 E7.30130 $15 
G1 X71.417 Y7.561 E7.47109 $1 
G1 X72.550 Y7.551 E7.64067 $11 
G1 X73.683 Y7.561 E7.81025 $9 
G1 X74.817 Y7.590 E7.98003 $15 
G1 X75.953 Y7.640 E8.15022 $8 
G1 X77.084 Y7.709 E8.31982 $0 
G1 X78.214 Y7.798 E8.48947 $11 
G1 X79.344 Y7.906 E8.65937 $15 
G1 X80.471 Y8.035 E8.82915 $7 
G1 X81.595 Y8.182 E8.99881 $6 
G1 X82.719 Y8.351 E9.16893 $10 
G1 X83.837 Y8.538 E9.33859 $0 
G1 X84.953 Y8.745 E9.50847 $6 
G1 X86.062 Y8.971 E9.67786 $0 
G1 X87.171 Y9.216 E9.84785 $7 
G1 X88.275 Y9.482 E10.01782 $54 
G1 X89.373 Y9.765 E10.18752 $63 
G1 X90.466 Y10.068 E10.35728 $4 
G1 X91.553 Y10.390 E10.52696 $3 
G1 X92.636 Y10.731 E10.69690 $1 
G1 X93.712 Y11.091 E10.86672 $6 
G1 X94.783 Y11.471 E11.03681 $3 
G1 X95.843 Y11.868 E11.20622 $13 
G1 X96.899 Y12.283 E11.37604 $7 
G1 X97.948 Y12.718 E11.54601 $12 
G1 X98.987 Y13.170 E11.71560 $10 
G1 X100.020 Y13.640 E11.88546 $56 
G1 X101.044 Y14.129 E12.05530 $51 
G1 X102.059 Y14.635 E12.22505 $53 
G1 X103.065 Y15.159 E12.39482 $51 
G1 X104.062 Y15.700 E12.56459 $54 
G1 X105.049 Y16.258 E12.73429 $53 
G1 X106.027 Y16.834 E12.90417 $62 
G1 X106.995 Y17.428 E13.07415 $51 
G1 X107.951 Y18.036 E13.24372 $57 
G1 X108.897 Y18.663 E13.41359 $49 
G1 X109.831 Y19.304 E13.58313 $63 
G1 X110.756 Y19.964 E13.75321 $59 
G1 X111.669 Y20.640 E13.92324 $56 
G1 X112.568 Y21.330 E14.09285 $53 
G1 X113.455 Y22.036 E14.26253 $59 
G1 X114.331 Y22.758 E14.43244 $51 
G1 X115.194 Y23.495 E14.60229 $54 
G1 X116.043 Y24.246 E14.77194 $50 
G1 X116.878 Y25.011 E14.94144 $51 
G1 X117.702 Y25.793 E15.11146 $51 
G1 X118.512 Y26.588 E15.28133 $60 
G1 X119.307 Y27.398 E15.45120 $48 
G1 X120.089 Y28.222 E15.62123 $54 
G1 X120.854 Y29.057 E15.79072 $48 
G1 X121.605 Y29.906 E15.96037 $54 
G1 X122.342 Y30.769 E16.13023 $55 
G1 X123.064 Y31.645 E16.30014 $58 
G1 X123.770 Y32.532 E16.46981 $60 
G1 X124.460 Y33.431 E16.63943 $51 
G1 X125.136 Y34.344 E16.80946 $62 
G1 X125.796 Y35.269 E16.97953 $63 
G1 X126.437 Y36.203 E17.14908 $63 
G1 X127.064 Y37.149 E17.31894 $51 
G1 X127.672 Y38.105 E17.48852 $49 
G1 X128.266 Y39.073 E17.65850 $51 
G1 X128.842 Y40.051 E17.82838 $54 
G1 X129.400 Y41.038 E17.99808 $58 
G1 X129.941 Y42.035 E18.16785 $62 
G1 X130.465 Y43.041 E18.33762 $49 
G1 X130.971 Y44.056 E18.50737 $61 
G1 X131.460 Y45.080 E18.67721 $56 
G1 X131.930 Y46.113 E18.84707 $49 
G1 X132.382 Y47.152 E19.01666 $63 
G1 X132.817 Y48.201 E19.18662 $62 
G1 X133.232 Y49.257 E19.35644 $59 
G1 X133.629 Y50.317 E19.52586 $52 
G1 X134.009 Y51.388 E19.69594 $59 
G1 X134.369 Y52.464 E19.86576 $53 
G1 X134.710 Y53.547 E20.03570 $63 
G1 X135.032 Y54.634 E20.20538 $52 
G1 X135.335 Y55.727 E20.37514 $58 
G1 X135.618 Y56.825 E20.54485 $50 
G1 X135.884 Y57.929 E20.71482 $53 
G1 X136.129 Y59.038 E20.88480 $59 
G1 X136.355 Y60.147 E21.05420 $63 
G1 X136.562 Y61.263 E21.22408 $54 
G1 X136.749 Y62.381 E21.39374 $53 
G1 X136.918 Y63.505 E21.56386 $48 
G1 X137.065 Y64.629 E21.73352 $54 
G1 X137.194 Y65.756 E21.90330 $56 
G1 X137.302 Y66.886 E22.07320 $56 
G1 X137.391 Y68.016 E22.24285 $50 
G1 X137.460 Y69.147 E22.41244 $49 
G1 X137.510 Y70.283 E22.58263 $57 
G1 X137.539 Y71.417 E22.75242 $52 
G1 X137.549 Y72.550 E22.92200 $61 
G1 X137.539 Y73.683 E23.09158 $59 
G1 X137.510 Y74.817 E23.26136 $49 
G1 X137.460 Y75.953 E23.43155 $49 
G1 X137.391 Y77.084 E23.60115 $60 
G1 X137.302 Y78.214 E23.77080 $57 
G1 X137.194 Y79.344 E23.94070 $51 
G1 X137.065 Y80.471 E24.11048 $58 
G1 X136.918 Y81.595 E24.28014 $49 
G1 X136.749 Y82.719 E24.45026 $52 
G1 X136.562 Y83.837 E24.61992 $61 
G1 X136.355 Y84.953 E24.78980 $48 
G1 X136.129 Y86.062 E24.95919 $51 
G1 X135.884 Y87.171 E25.12918 $51 
G1 X135.618 Y88.275 E25.29915 $53 
G1 X135.335 Y89.373 E25.46885 $56 
G1 X135.032 Y90.466 E25.63861 $58 
G1 X134.710 Y91.553 E25.80829 $59 
G1 X134.369 Y92.636 E25.97823 $62 
G1 X134.009 Y93.712 E26.14805 $49 
G1 X133.629 Y94.783 E26.31814 $58 
G1 X133.232 Y95.843 E26.48755 $50 
G1 X132.817 Y96.899 E26.65737 $49 
G1 X132.382 Y97.948 E26.82734 $48 
G1 X131.930 Y98.987 E26.99693 $58 
G1 X131.460 Y100.020 E27.16679 $4 
G1 X130.971 Y101.044 E27.33663 $7 
G1 X130.465 Y102.059 E27.50638 $11 
G1 X129.941 Y103.065 E27.67615 $13 
G1 X129.400 Y104.062 E27.84592 $4 
G1 X128.842 Y105.049 E28.01562 $10 
G1 X128.266 Y106.027 E28.18550 $4 
G1 X127.672 Y106.995 E28.35548 $12 
G1 X127.064 Y107.951 E28.52505 $12 
G1 X126.437 Y108.897 E28.69492 $12 
G1 X125.796 Y109.831 E28.86446 $2 
G1 X125.136 Y110.756 E29.03454 $7 
G1 X124.460 Y111.669 E29.20457 $14 
G1 X123.770 Y112.568 E29.37418 $7 
G1 X123.064 Y113.455 E29.54386 $14 
G1 X122.342 Y114.331 E29.71377 $3 
G1 X121.605 Y115.194 E29.88362 $8 
G1 X120.854 Y116.043 E30.05327 $7 
G1 X120.089 Y116.878 E30.22277 $14 
G1 X119.307 Y117.702 E30.39279 $6 
G1 X118.512 Y118.512 E30.56266 $14 
G1 X117.702 Y119.307 E30.73253 $0 
G1 X116.878 Y120.089 E30.90256 $4 
G1 X116.043 Y120.854 E31.07205 $5 
G1 X115.194 Y121.605 E31.24170 $6 
G1 X114.331 Y122.342 E31.41156 $8 
G1 X113.455 Y123.064 E31.58147 $4 
G1 X112.568 Y123.770 E31.75114 $1 
G1 X111.669 Y124.460 E31.92076 $9 
G1 X110.756 Y125.136 E32.09079 $12 
G1 X109.831 Y125.796 E32.26086 $11 
G1 X108.897 Y126.437 E32.43041 $5 
G1 X107.951 Y127.064 E32.60027 $3 
G1 X106.995 Y127.672 E32.76985 $13 
G1 X106.027 Y128.266 E32.93983 $14 
G1 X105.049 Y128.842 E33.10971 $14 
G1 X104.062 Y129.400 E33.27941 $10 
G1 X103.065 Y129.941 E33.44918 $11 
G1 X102.059 Y130.465 E33.61895 $5 
G1 X101.044 Y130.971 E33.78870 $1 
G1 X100.020 Y131.460 E33.95854 $11 
G1 X98.987 Y131.930 E34.12840 $58 
G1 X97.948 Y132.382 E34.29799 $53 
G1 X96.899 Y132.817 E34.46795 $59 
G1 X95.843 Y133.232 E34.63777 $56 
G1 X94.783 Y133.629 E34.80719 $49 
G1 X93.712 Y134.009 E34.97727 $54 
G1 X92.636 Y134.369 E35.14709 $51 
G1 X91.553 Y134.710 E35.31703 $55 
G1 X90.466 Y135.032 E35.48671 $61 
G1 X89.373 Y135.335 E35.65647 $56 
G1 X88.275 Y135.618 E35.82618 $55 
G1 X87.171 Y135.884 E35.99615 $51 
G1 X86.062 Y136.129 E36.16613 $62 
G1 X84.953 Y136.355 E36.33553 $62 
G1 X83.837 Y136.562 E36.50541 $62 
G1 X82.719 Y136.749 E36.67507 $49 
G1 X81.595 Y136.918 E36.84519 $60 
G1 X80.471 Y137.065 E37.01485 $60 
G1 X79.344 Y137.194 E37.18463 $52 
G1 X78.214 Y137.302 E37.35453 $48 
G1 X77.084 Y137.391 E37.52418 $48 
G1 X75.953 Y137.460 E37.69377 $62 
G1 X74.817 Y137.510 E37.86396 $54 
G1 X73.683 Y137.539 E38.03375 $54 
G1 X72.550 Y137.549 E38.20333 $62 
G1 X71.417 Y137.539 E38.37291 $55 
G1 X70.283 Y137.510 E38.54269 $52 
G1 X69.147 Y137.460 E38.71288 $57 
G1 X68.016 Y137.391 E38.88248 $62 
G1 X66.886 Y137.302 E39.05213 $49 
G1 X65.756 Y137.194 E39.22203 $57 
G1 X64.629 Y137.065 E39.39181 $61 
G1 X63.505 Y136.918 E39.56147 $54 
G1 X62.381 Y136.749 E39.73159 $63 
G1 X61.263 Y136.562 E39.90125 $60 
G1 X60.147 Y136.355 E40.07113 $63 
G1 X59.038 Y136.129 E40.24052 $48 
G1 X57.929 Y135.884 E40.41051 $58 
G1 X56.825 Y135.618 E40.58048 $61 
G1 X55.727 Y135.335 E40.75018 $51 
G1 X54.634 Y135.032 E40.91994 $50 
G1 X53.547 Y134.710 E41.08962 $60 
G1 X52.464 Y134.369 E41.25956 $63 
G1 X51.388 Y134.009 E41.42938 $53 
G1 X50.317 Y133.629 E41.59947 $51 
G1 X49.257 Y133.232 E41.76888 $63 
G1 X48.201 Y132.817 E41.93870 $61 
G1 X47.152 Y132.382 E42.10867 $62 
G1 X46.113 Y131.930 E42.27826 $59 
G1 X45.080 Y131.460 E42.44812 $57 
G1 X44.056 Y130.971 E42.61796 $59 
G1 X43.041 Y130.465 E42.78771 $51 
G1 X42.035 Y129.941 E42.95748 $59 
G1 X41.039 Y129.401 E43.12705 $58 
G1 X40.050 Y128.842 E43.29708 $59 
G1 X39.072 Y128.266 E43.46696 $54 
G1 X38.105 Y127.672 E43.63682 $58 
G1 X37.149 Y127.064 E43.80639 $49 
G1 X36.203 Y126.437 E43.97625 $53 
G1 X35.269 Y125.796 E44.14580 $49 
G1 X34.344 Y125.136 E44.31587 $50 
G1 X33.431 Y124.460 E44.48590 $63 
G1 X32.532 Y123.770 E44.65552 $56 
G1 X31.645 Y123.064 E44.82519 $60 
G1 X30.769 Y122.342 E44.99510 $55 
G1 X29.906 Y121.605 E45.16496 $52 
G1 X29.057 Y120.854 E45.33461 $61 
G1 X28.222 Y120.089 E45.50410 $55 
G1 X27.398 Y119.307 E45.67413 $48 
G1 X26.588 Y118.512 E45.84400 $58 
G1 X25.793 Y117.702 E46.01387 $59 
G1 X25.011 Y116.878 E46.18389 $51 
G1 X24.246 Y116.043 E46.35339 $54 
G1 X23.495 Y115.194 E46.52304 $62 
G1 X22.758 Y114.331 E46.69290 $53 
G1 X22.036 Y113.455 E46.86280 $56 
G1 X21.330 Y112.568 E47.03248 $56 
G1 X20.640 Y111.669 E47.20209 $62 
G1 X19.964 Y110.756 E47.37212 $61 
G1 X19.304 Y109.831 E47.54220 $51 
G1 X18.663 Y108.897 E47.71174 $62 
G1 X18.036 Y107.951 E47.88161 $62 
G1 X17.428 Y106.995 E48.05118 $55 
G1 X16.834 Y106.027 E48.22116 $60 
G1 X16.258 Y105.049 E48.39104 $62 
G1 X15.700 Y104.062 E48.56074 $50 
G1 X15.159 Y103.065 E48.73052 $59 
G1 X14.635 Y102.059 E48.90028 $57 
G1 X14.129 Y101.044 E49.07003 $58 
G1 X13.640 Y100.020 E49.23987 $53 
G1 X13.170 Y98.987 E49.40973 $11 
G1 X12.718 Y97.948 E49.57932 $13 
G1 X12.283 Y96.899 E49.74929 $13 
G1 X11.868 Y95.843 E49.91911 $5 
G1 X11.471 Y94.783 E50.08852 $13 
G1 X11.091 Y93.712 E50.25861 $7 
G1 X10.731 Y92.636 E50.42843 $12 
G1 X10.390 Y91.553 E50.59837 $9 
G1 X10.068 Y90.466 E50.76805 $7 
G1 X9.765 Y89.373 E50.93781 $54 
G1 X9.482 Y88.275 E51.10752 $62 
G1 X9.216 Y87.171 E51.27748 $50 
G1 X8.971 Y86.062 E51.44747 $49 
G1 X8.745 Y84.953 E51.61686 $58 
G1 X8.538 Y83.837 E51.78674 $51 
G1 X8.351 Y82.719 E51.95640 $60 
G1 X8.182 Y81.595 E52.12652 $58 
G1 X8.035 Y80.471 E52.29618 $59 
G1 X7.906 Y79.344 E52.46596 $54 
G1 X7.798 Y78.214 E52.63586 $60 
G1 X7.709 Y77.084 E52.80551 $55 
G1 X7.640 Y75.953 E52.97511 $56 
G1 X7.590 Y74.817 E53.14530 $63 
G1 X7.561 Y73.683 E53.31508 $57 
G1 X7.551 Y72.550 E53.48466 $49 
G1 X7.561 Y71.417 E53.65425 $59 
G1 X7.590 Y70.283 E53.82403 $50 
G1 X7.640 Y69.147 E53.99422 $54 
G1 X7.709 Y68.016 E54.16381 $48 
G1 X7.798 Y66.886 E54.33346 $59 
G1 X7.906 Y65.756 E54.50336 $49 
G1 X8.035 Y64.629 E54.67314 $59 
G1 X8.182 Y63.505 E54.84280 $61 
G1 X8.351 Y62.381 E55.01292 $53 
G1 X8.538 Y61.263 E55.18258 $60 
G1 X8.745 Y60.147 E55.35246 $48 
G1 X8.971 Y59.038 E55.52186 $52 
G1 X9.216 Y57.929 E55.69184 $50 
G1 X9.482 Y56.825 E55.86181 $49 
G1 X9.765 Y55.727 E56.03152 $53 
G1 X10.068 Y54.634 E56.20128 $9 
G1 X10.390 Y53.547 E56.37096 $15 
G1 X10.731 Y52.464 E56.54090 $2 
G1 X11.091 Y51.388 E56.71072 $3 
G1 X11.471 Y50.317 E56.88080 $5 
G1 X11.868 Y49.257 E57.05022 $0 
G1 X12.283 Y48.201 E57.22004 $15 
G1 X12.718 Y47.152 E57.39001 $13 
G1 X13.170 Y46.113 E57.55959 $14 
G1 X13.640 Y45.080 E57.72945 $10 
G1 X14.129 Y44.056 E57.89929 $1 
G1 X14.635 Y43.041 E58.06904 $13 
G1 X15.159 Y42.035 E58.23881 $8 
G1 X15.700 Y41.038 E58.40858 $13 
G1 X16.258 Y40.051 E58.57828 $9 
G1 X16.834 Y39.073 E58.74816 $11 
G1 X17.428 Y38.105 E58.91815 $2 
G1 X18.036 Y37.149 E59.08772 $14 
G1 X18.663 Y36.203 E59.25758 $3 
G1 X19.304 Y35.269 E59.42713 $7 
G1 X19.964 Y34.344 E59.59720 $14 
G1 X20.640 Y33.431 E59.76723 $1 
G1 X21.330 Y32.532 E59.93685 $7 
G1 X22.036 Y31.645 E60.10652 $10 
G1 X22.758 Y30.769 E60.27643 $15 
G1 X23.495 Y29.906 E60.44629 $10 
G1 X24.246 Y29.057 E60.61594 $10 
G1 X25.011 Y28.222 E60.78543 $8 
G1 X25.793 Y27.398 E60.95546 $12 
G1 X26.588 Y26.588 E61.12533 $13 
G0 F3600 X39.317 Y39.317 $21 
G1 F1200 X38.804 Y39.839 E61.23487 $107 
G1 X48.331 Y47.284 E63.04453 $15 
G1 X48.682 Y46.952 E63.11684 $15 
G1 X49.130 Y46.541 E63.20784 $13 
G1 X49.588 Y46.136 E63.29935 $3 
G1 X50.053 Y45.739 E63.39086 $2 
G1 X50.525 Y45.350 E63.48240 $3 
G1 X51.001 Y44.971 E63.57347 $1 
G1 X51.487 Y44.598 E63.66516 $0 
G1 X51.979 Y44.234 E63.75676 $10 
G1 X52.474 Y43.881 E63.84776 $5 
G1 X52.977 Y43.535 E63.93914 $5 
G1 X53.488 Y43.196 E64.03092 $13 
G1 X54.003 Y42.869 E64.12222 $12 
G1 X54.524 Y42.549 E64.21374 $1 
G1 X55.052 Y42.238 E64.30545 $1 
G1 X55.581 Y41.939 E64.39640 $12 
G1 X56.118 Y41.647 E64.48789 $15 
G1 X56.662 Y41.364 E64.57966 $0 
G1 X57.207 Y41.093 E64.67076 $6 
G1 X57.757 Y40.830 E64.76201 $4 
G1 X58.315 Y40.576 E64.85377 $10 
G1 X58.876 Y40.332 E64.94533 $4 
G1 X59.438 Y40.099 E65.03639 $7 
G1 X59.886 Y39.922 E65.10849 $2 
G1 X57.166 Y28.141 E66.91814 $4 
G1 X56.472 Y28.386 E67.02830 $1 
G1 X55.704 Y28.673 E67.15101 $2 
G1 X54.929 Y28.979 E67.27572 $6 
G1 X54.215 Y29.274 E67.39134 $12 
G1 X53.440 Y29.611 E67.51783 $14 
G1 X52.662 Y29.967 E67.64589 $13 
G1 X51.945 Y30.308 E67.76472 $9 
G1 X51.201 Y30.679 E67.88915 $12 
G1 X50.523 Y31.032 E68.00356 $0 
G1 X49.749 Y31.452 E68.13536 $6 
G1 X49.062 Y31.841 E68.25352 $7 
G1 X48.311 Y32.284 E68.38402 $15 
G1 X47.663 Y32.681 E68.49776 $7 
G1 X46.969 Y33.123 E68.62091 $10 
G1 X46.232 Y33.611 E68.75321 $7 
G1 X45.607 Y34.041 E68.86675 $10 
G1 X44.908 Y34.540 E68.99530 $3 
G1 X44.272 Y35.009 E69.11357 $10 
G1 X43.582 Y35.539 E69.24379 $9 
G1 X42.982 Y36.017 E69.35861 $12 
G1 X42.347 Y36.540 E69.48174 $15 
G1 X41.724 Y37.072 E69.60435 $2 
G1 X41.091 Y37.633 E69.73095 $4 
G1 X40.528 Y38.148 E69.84515 $3 
G1 X39.895 Y38.748 E69.97569 $9 
G1 X39.317 Y39.317 E70.09708 $13 
G0 F3600 X26.399 Y63.668 $31 
G1 F1200 X26.258 Y64.429 E70.21292 $98 
G1 X26.130 Y65.195 E70.32916 $12 
G1 X26.014 Y65.970 E70.44644 $1 
G1 X25.901 Y66.823 E70.57523 $11 
G1 X25.807 Y67.647 E70.69936 $4 
G1 X25.730 Y68.441 E70.81875 $4 
G1 X25.666 Y69.259 E70.94156 $4 
G1 X25.613 Y70.132 E71.07246 $9 
G1 X25.579 Y70.907 E71.18857 $12 
G1 X25.558 Y71.682 E71.30460 $14 
G1 X25.551 Y72.550 E71.43452 $13 
