;Generated with Cura_SteamEngine Realio_170823_USB_32
M190 S50.000000
M140 S60.000000
M109 T0 S210.000000
T0
;Sliced at: Tue 18-02-2025 23:57:26
;Basic settings: Layer height: 0.2 Walls: 3 Fill: 20
;Print time: 9 minutes
;Filament used: 0.49m 1g
;Filament cost:  Unknown
;M190 S60 ;Uncomment to add your own bed temperature line
;M109 S210 ;Uncomment to add your own temperature line
G21        ;metric values
G90        ;absolute positioning
M82        ;set extruder to absolute mode
M107       ;start with the fan off
G28 X0 Y0  ;move X/Y to min endstops
G28 Z0     ;move Z to min endstops
G1 Z1.5 F3600 ;move the platform down 1.5mm
G92 E0                  ;zero the extruded length
G1 F200 E8              ;extrude 8mm of feed stock
G92 E0                  ;zero the extruded length again
G1 F3600
;Put printing message on LCD screen
M117 Printing...

M305 S1 $57 	;check Command 
;Layer count: 32
;LAYER:0
M106 S255 $59 
G0 F3600 X65.058 Y103.762 Z0.300 E13.07560 $0 
G92 E0 $25 
G92 E0.5 $2 
G92 E0 $25 
;TYPE:SKIRT
G1 F1200 X65.737 Y103.375 E0.04172 $106 
G1 X66.846 Y102.850 E0.10722 $14 
G1 X67.574 Y102.567 E0.14892 $10 
G1 X68.747 Y102.211 E0.21435 $6 
G1 X69.510 Y102.037 E0.25613 $3 
G1 X70.724 Y101.856 E0.32165 $2 
G1 X71.460 Y101.800 E0.36106 $2 
G1 X72.134 Y101.784 E0.39705 $12 
G1 X72.846 Y101.801 E0.43507 $15 
G1 X74.062 Y101.920 E0.50029 $14 
G1 X74.793 Y102.045 E0.53988 $15 
G1 X75.493 Y102.203 E0.57819 $0 
G1 X76.658 Y102.557 E0.64318 $10 
G1 X77.388 Y102.835 E0.68488 $8 
G1 X78.503 Y103.361 E0.75070 $6 
G1 X79.185 Y103.746 E0.79250 $0 
G1 X80.110 Y104.364 E0.85189 $13 
G1 X80.275 Y104.477 E0.86256 $10 
G1 X81.244 Y105.270 E0.92941 $1 
G1 X81.812 Y105.810 E0.97124 $10 
G1 X82.633 Y106.715 E1.03647 $3 
G1 X83.116 Y107.331 E1.07826 $12 
G1 X83.798 Y108.351 E1.14376 $9 
G1 X84.185 Y109.030 E1.18548 $6 
G1 X84.710 Y110.139 E1.25098 $10 
G1 X84.993 Y110.867 E1.29267 $3 
G1 X85.349 Y112.040 E1.35811 $6 
G1 X85.523 Y112.803 E1.39989 $15 
G1 X85.704 Y114.017 E1.46541 $3 
G1 X85.760 Y114.753 E1.50482 $15 
G1 X85.776 Y115.427 E1.54081 $10 
G1 X85.759 Y116.140 E1.57888 $2 
G1 X85.745 Y116.285 E1.58665 $7 
G1 X95.775 Y116.285 E2.12208 $7 
G1 X95.775 Y129.330 E2.81846 $14 
G1 X48.492 Y129.330 E5.34254 $4 
G1 X48.492 Y116.285 E6.03892 $0 
G1 X58.521 Y116.285 E6.57429 $5 
G1 X58.507 Y116.101 E6.58414 $15 
G1 X58.491 Y115.427 E6.62013 $9 
G1 X58.508 Y114.714 E6.65820 $5 
G1 X58.627 Y113.498 E6.72343 $3 
G1 X58.752 Y112.767 E6.76301 $0 
G1 X58.910 Y112.067 E6.80132 $4 
G1 X59.264 Y110.902 E6.86632 $4 
G1 X59.542 Y110.172 E6.90802 $2 
G1 X60.068 Y109.057 E6.97383 $14 
G1 X60.453 Y108.375 E7.01564 $1 
G1 X61.071 Y107.450 E7.07503 $12 
G1 X61.184 Y107.285 E7.08570 $2 
G1 X61.977 Y106.316 E7.15254 $1 
G1 X62.517 Y105.748 E7.19438 $4 
G1 X63.422 Y104.927 E7.25961 $10 
G1 X64.038 Y104.444 E7.30140 $5 
G1 X65.058 Y103.762 E7.36690 $14 
G1 F2400 E2.86690 $94 
G0 F3600 X65.283 Y104.126 $47 
G1 Z0.300 $33 
G1 F2400 E7.36690 $80 
G1 F1200 X65.935 Y103.755 E7.40694 $104 
G1 X67.015 Y103.244 E7.47072 $8 
G1 X67.714 Y102.972 E7.51076 $2 
G1 X68.857 Y102.625 E7.57453 $13 
G1 X69.589 Y102.458 E7.61461 $14 
G1 X70.772 Y102.282 E7.67845 $13 
G1 X71.482 Y102.228 E7.71647 $11 
G1 X72.134 Y102.212 E7.75128 $3 
G1 X72.820 Y102.229 E7.78791 $14 
G1 X74.005 Y102.345 E7.85147 $3 
G1 X74.710 Y102.465 E7.88965 $0 
G1 X75.384 Y102.617 E7.92653 $14 
G1 X76.520 Y102.962 E7.98991 $3 
G1 X77.220 Y103.229 E8.02990 $13 
G1 X78.306 Y103.741 E8.09400 $3 
G1 X78.960 Y104.111 E8.13411 $6 
G1 X79.871 Y104.719 E8.19258 $9 
G1 X80.018 Y104.820 E8.20210 $11 
G1 X80.960 Y105.591 E8.26708 $1 
G1 X81.505 Y106.109 E8.30722 $6 
G1 X82.306 Y106.992 E8.37086 $4 
G1 X82.769 Y107.582 E8.41090 $3 
G1 X83.434 Y108.576 E8.47474 $5 
G1 X83.805 Y109.228 E8.51478 $13 
G1 X84.316 Y110.308 E8.57856 $14 
G1 X84.588 Y111.007 E8.61860 $2 
G1 X84.935 Y112.150 E8.68237 $9 
G1 X85.102 Y112.882 E8.72245 $12 
G1 X85.278 Y114.065 E8.78630 $9 
G1 X85.332 Y114.775 E8.82431 $6 
G1 X85.348 Y115.427 E8.85912 $5 
G1 X85.331 Y116.114 E8.89581 $7 
G1 X85.272 Y116.713 E8.92794 $12 
G1 X95.347 Y116.713 E9.46577 $13 
G1 X95.347 Y128.902 E10.11645 $54 
G1 X48.920 Y128.902 E12.59484 $60 
G1 X48.920 Y116.713 E13.24552 $62 
G1 X58.983 Y116.713 E13.78271 $57 
G1 X58.935 Y116.079 E13.81665 $56 
G1 X58.919 Y115.427 E13.85146 $56 
G1 X58.936 Y114.740 E13.88815 $52 
G1 X59.052 Y113.555 E13.95171 $56 
G1 X59.172 Y112.850 E13.98988 $49 
G1 X59.324 Y112.176 E14.02677 $54 
G1 X59.669 Y111.040 E14.09015 $52 
G1 X59.936 Y110.340 E14.13014 $57 
G1 X60.448 Y109.254 E14.19423 $49 
G1 X60.818 Y108.600 E14.23434 $51 
G1 X61.426 Y107.689 E14.29281 $63 
G1 X61.527 Y107.542 E14.30233 $58 
G1 X62.298 Y106.600 E14.36732 $60 
G1 X62.816 Y106.055 E14.40745 $55 
G1 X63.699 Y105.254 E14.47110 $62 
G1 X64.289 Y104.791 E14.51113 $53 
G1 X65.283 Y104.126 E14.57497 $59 
G1 F2400 E10.07497 $97 
G0 F3600 X65.555 Y122.709 $44 
;TYPE:WALL-INNER
G1 Z0.300 $33 
G1 F2400 E14.57497 $96 
G1 F1200 X65.773 Y122.906 E14.59066 $94 
G1 X54.916 Y122.906 E15.17023 $62 
G1 X54.916 Y122.709 E15.18075 $51 
G1 X65.555 Y122.709 E15.74869 $53 
G1 F2400 E11.24869 $108 
G0 F3600 X72.884 Y123.058 $41 
G0 X78.494 Y122.906 $78 
G1 Z0.300 $33 
G1 F2400 E15.74869 $109 
G1 F1200 X78.712 Y122.709 E15.76437 $88 
G1 X89.351 Y122.709 E16.33231 $50 
G1 X89.351 Y122.906 E16.34282 $60 
G1 X78.494 Y122.906 E16.92240 $62 
G1 F2400 E12.42240 $110 
G0 F3600 X78.095 Y122.691 $41 
G1 Z0.300 $33 
G1 F2400 E16.92240 $103 
G1 F1200 X78.547 Y122.281 E16.95497 $91 
G1 X89.779 Y122.281 E17.55457 $62 
G1 X89.779 Y123.334 E17.61078 $62 
G1 X77.197 Y123.334 E18.28244 $54 
G1 X78.095 Y122.691 E18.34140 $59 
G1 F2400 E13.84140 $102 
G0 F3600 X67.070 Y123.334 $39 
G1 Z0.300 $33 
G1 F2400 E18.34140 $102 
G1 F1200 X54.488 Y123.334 E19.01306 $84 
G1 X54.488 Y122.281 E19.06927 $49 
G1 X65.720 Y122.281 E19.66886 $62 
G1 X66.172 Y122.691 E19.70144 $57 
G1 X66.913 Y123.240 E19.75067 $58 
G1 X67.070 Y123.334 E19.76043 $48 
G1 F2400 E15.26043 $106 
G0 F3600 X67.151 Y122.884 $36 
G1 Z0.300 $33 
G1 F2400 E19.76043 $99 
G1 F1200 X67.906 Y123.337 E19.80744 $87 
G1 X68.702 Y123.713 E19.85443 $52 
G1 X68.839 Y123.762 E19.86220 $53 
G1 X54.060 Y123.762 E20.65114 $61 
G1 X54.060 Y121.853 E20.75305 $49 
G1 X65.885 Y121.853 E21.38429 $49 
G1 X66.444 Y122.359 E21.42454 $54 
G1 X67.151 Y122.884 E21.47155 $60 
G1 F2400 E16.97155 $101 
G0 F3600 X75.428 Y123.762 $42 
G1 Z0.300 $33 
G1 F2400 E21.47155 $108 
G1 F1200 X75.565 Y123.713 E21.47932 $80 
G1 X76.361 Y123.337 E21.52632 $61 
G1 X77.116 Y122.884 E21.57332 $60 
G1 X77.823 Y122.359 E21.62033 $60 
G1 X78.382 Y121.853 E21.66058 $56 
G1 X90.207 Y121.853 E22.29182 $60 
G1 X90.207 Y123.762 E22.39373 $62 
G1 X75.428 Y123.762 E23.18267 $56 
G1 F2400 E18.68267 $105 
G0 F3600 X75.401 Y123.317 $39 
G1 Z0.300 $33 
G1 F2400 E23.18267 $102 
G1 F1200 X76.159 Y122.959 E23.22742 $81 
G1 X76.878 Y122.528 E23.27217 $52 
G1 X77.551 Y122.028 E23.31693 $57 
G1 X78.172 Y121.466 E23.36164 $54 
G1 X78.734 Y120.845 E23.40635 $60 
G1 X79.234 Y120.172 E23.45111 $49 
G1 X79.389 Y119.913 E23.46722 $54 
G1 X78.626 Y121.425 E23.55763 $51 
G1 X90.635 Y121.425 E24.19870 $53 
G1 X90.635 Y124.190 E24.34630 $62 
G1 X53.632 Y124.190 E26.32161 $49 
G1 X53.632 Y121.425 E26.46922 $51 
G1 X65.552 Y121.425 E27.10554 $60 
G1 X64.762 Y119.720 E27.20585 $62 
G1 X65.033 Y120.172 E27.23398 $62 
G1 X65.533 Y120.845 E27.27874 $59 
G1 X66.095 Y121.466 E27.32345 $48 
G1 X66.716 Y122.028 E27.36816 $56 
G1 X67.389 Y122.528 E27.41292 $56 
G1 X68.108 Y122.959 E27.45767 $61 
G1 X68.866 Y123.317 E27.50242 $59 
G1 X69.654 Y123.599 E27.54709 $59 
G1 X70.469 Y123.803 E27.59194 $62 
G1 X71.297 Y123.926 E27.63663 $56 
G1 X72.134 Y123.967 E27.68136 $56 
G1 X72.970 Y123.926 E27.72604 $56 
G1 X73.798 Y123.803 E27.77073 $52 
G1 X74.613 Y123.599 E27.81558 $58 
G1 X75.401 Y123.317 E27.86026 $49 
G1 F2400 E23.36026 $109 
G0 F3600 X75.237 Y122.921 $42 
G1 Z0.300 $33 
G1 F2400 E27.86026 $98 
G1 F1200 X75.957 Y122.581 E27.90276 $82 
G1 X76.639 Y122.172 E27.94521 $58 
G1 X77.279 Y121.697 E27.98776 $56 
G1 X77.869 Y121.163 E28.03024 $50 
G1 X78.403 Y120.573 E28.07272 $60 
G1 X78.878 Y119.933 E28.11527 $62 
G1 X79.287 Y119.251 E28.15772 $60 
G1 X79.627 Y118.531 E28.20023 $55 
G1 X79.895 Y117.782 E28.24269 $61 
G1 X80.089 Y117.009 E28.28524 $56 
G1 X80.205 Y116.222 E28.32770 $60 
G1 X80.244 Y115.427 E28.37019 $52 
G1 X80.205 Y114.632 E28.41268 $51 
G1 X80.089 Y113.845 E28.45515 $53 
G1 X79.895 Y113.072 E28.49769 $63 
G1 X79.627 Y112.323 E28.54016 $61 
G1 X79.287 Y111.603 E28.58266 $62 
G1 X78.878 Y110.921 E28.62512 $54 
G1 X78.403 Y110.281 E28.66766 $50 
G1 X77.869 Y109.691 E28.71014 $52 
G1 X77.279 Y109.157 E28.75262 $53 
G1 X76.639 Y108.682 E28.79517 $51 
G1 X75.957 Y108.273 E28.83762 $56 
G1 X75.237 Y107.933 E28.88013 $63 
G1 X74.488 Y107.665 E28.92259 $55 
G1 X73.715 Y107.471 E28.96514 $58 
G1 X72.928 Y107.355 E29.00760 $53 
G1 X72.134 Y107.316 E29.05004 $55 
G1 X71.339 Y107.355 E29.09253 $48 
G1 X70.552 Y107.471 E29.13500 $49 
G1 X69.779 Y107.665 E29.17754 $50 
G1 X69.030 Y107.933 E29.22001 $53 
G1 X68.310 Y108.273 E29.26251 $54 
G1 X67.628 Y108.682 E29.30496 $55 
G1 X66.988 Y109.157 E29.34751 $49 
G1 X66.398 Y109.691 E29.38999 $49 
G1 X65.864 Y110.281 E29.43247 $51 
G1 X65.389 Y110.921 E29.47502 $56 
G1 X64.980 Y111.603 E29.51747 $48 
G1 X64.640 Y112.323 E29.55997 $48 
G1 X64.372 Y113.072 E29.60244 $49 
G1 X64.178 Y113.845 E29.64498 $54 
G1 X64.062 Y114.632 E29.68745 $58 
G1 X64.023 Y115.427 E29.72994 $49 
G1 X64.062 Y116.222 E29.77243 $48 
G1 X64.178 Y117.009 E29.81490 $49 
G1 X64.372 Y117.782 E29.85744 $51 
G1 X64.640 Y118.531 E29.89991 $56 
G1 X64.980 Y119.251 E29.94241 $49 
G1 X65.389 Y119.933 E29.98486 $61 
G1 X65.864 Y120.573 E30.02741 $52 
G1 X66.398 Y121.163 E30.06989 $53 
G1 X66.988 Y121.697 E30.11237 $58 
G1 X67.628 Y122.172 E30.15492 $60 
G1 X68.310 Y122.581 E30.19737 $53 
G1 X69.030 Y122.921 E30.23987 $63 
G1 X69.779 Y123.189 E30.28234 $54 
G1 X70.552 Y123.383 E30.32488 $55 
G1 X71.339 Y123.499 E30.36735 $48 
G1 X72.134 Y123.538 E30.40984 $51 
G1 X72.928 Y123.499 E30.45228 $52 
G1 X73.715 Y123.383 E30.49474 $58 
G1 X74.488 Y123.189 E30.53729 $50 
G1 X75.237 Y122.921 E30.57975 $57 
G1 F2400 E26.07975 $101 
G0 F3600 X79.321 Y120.997 $47 
G1 Z0.300 $33 
G1 F2400 E30.57975 $103 
G1 F1200 X91.063 Y120.997 E31.20657 $84 
G1 X91.063 Y124.618 E31.39987 $55 
G1 X53.204 Y124.618 E33.42088 $50 
G1 X53.204 Y120.997 E33.61418 $50 
G1 X64.882 Y120.997 E34.23758 $52 
G1 X63.886 Y118.846 E34.36412 $56 
G1 X63.734 Y118.455 E34.38651 $59 
G1 X63.473 Y117.596 E34.43444 $48 
G1 X63.378 Y117.180 E34.45721 $57 
G1 X63.250 Y116.317 E34.50379 $50 
G1 X63.215 Y115.869 E34.52778 $53 
G1 X63.205 Y115.427 E34.55138 $55 
G1 X63.215 Y114.998 E34.57428 $56 
G1 X63.300 Y114.130 E34.62084 $51 
G1 X63.470 Y113.267 E34.66780 $50 
G1 X63.724 Y112.429 E34.71454 $49 
G1 X63.879 Y112.024 E34.73769 $48 
G1 X64.259 Y111.218 E34.78526 $51 
G1 X64.467 Y110.850 E34.80782 $52 
G1 X64.960 Y110.111 E34.85525 $56 
G1 X65.512 Y109.437 E34.90175 $60 
G1 X65.809 Y109.125 E34.92475 $58 
G1 X66.463 Y108.531 E34.97191 $51 
G1 X66.813 Y108.256 E34.99567 $61 
G1 X67.529 Y107.778 E35.04163 $59 
G1 X67.920 Y107.555 E35.06566 $48 
G1 X68.715 Y107.179 E35.11260 $58 
G1 X69.106 Y107.027 E35.13500 $54 
G1 X69.965 Y106.766 E35.18292 $63 
G1 X70.381 Y106.671 E35.20570 $48 
G1 X71.244 Y106.543 E35.25228 $52 
G1 X71.692 Y106.508 E35.27626 $60 
G1 X72.134 Y106.498 E35.29986 $55 
G1 X72.562 Y106.508 E35.32272 $50 
G1 X73.430 Y106.593 E35.36928 $55 
G1 X74.293 Y106.763 E35.41623 $54 
G1 X75.131 Y107.017 E35.46298 $58 
G1 X75.536 Y107.172 E35.48612 $51 
G1 X76.342 Y107.552 E35.53369 $48 
G1 X76.710 Y107.760 E35.55626 $56 
G1 X77.449 Y108.253 E35.60368 $53 
G1 X78.123 Y108.805 E35.65019 $58 
G1 X78.435 Y109.102 E35.67318 $55 
G1 X79.029 Y109.756 E35.72035 $48 
G1 X79.304 Y110.106 E35.74411 $51 
G1 X79.782 Y110.822 E35.79006 $57 
G1 X80.005 Y111.213 E35.81409 $50 
G1 X80.381 Y112.008 E35.86104 $57 
G1 X80.530 Y112.390 E35.88293 $52 
G1 X80.794 Y113.258 E35.93136 $58 
G1 X80.889 Y113.674 E35.95414 $48 
G1 X81.017 Y114.537 E36.00071 $53 
G1 X81.052 Y114.985 E36.02470 $54 
G1 X81.062 Y115.427 E36.04830 $63 
G1 X81.052 Y115.856 E36.07121 $60 
G1 X80.967 Y116.724 E36.11776 $56 
G1 X80.797 Y117.587 E36.16472 $51 
G1 X80.543 Y118.425 E36.21146 $56 
G1 X80.201 Y119.254 E36.25934 $49 
G1 X79.321 Y120.997 E36.36357 $55 
G1 F2400 E31.86357 $96 
G0 F3600 X80.017 Y120.569 $34 
G1 Z0.300 $33 
G1 F2400 E36.36357 $108 
G1 F1200 X91.491 Y120.569 E36.97608 $81 
G1 X91.491 Y125.046 E37.21507 $57 
G1 X52.776 Y125.046 E39.28178 $55 
G1 X52.776 Y120.569 E39.52077 $57 
G1 X64.212 Y120.569 E40.13125 $54 
G1 X63.488 Y119.005 E40.22325 $49 
G1 X63.061 Y117.715 E40.29579 $62 
G1 X62.957 Y117.260 E40.32071 $51 
G1 X62.823 Y116.358 E40.36939 $59 
G1 X62.788 Y115.892 E40.39433 $51 
G1 X62.776 Y115.427 E40.41916 $53 
G1 X62.788 Y114.972 E40.44346 $50 
G1 X62.875 Y114.073 E40.49168 $52 
G1 X63.055 Y113.159 E40.54141 $54 
G1 X63.319 Y112.290 E40.58989 $58 
G1 X63.486 Y111.854 E40.61481 $53 
G1 X63.876 Y111.026 E40.66367 $51 
G1 X64.107 Y110.619 E40.68865 $55 
G1 X64.613 Y109.859 E40.73739 $59 
G1 X65.192 Y109.152 E40.78618 $63 
G1 X65.513 Y108.815 E40.81102 $51 
G1 X66.191 Y108.199 E40.85992 $54 
G1 X66.553 Y107.916 E40.88445 $54 
G1 X67.313 Y107.408 E40.93325 $60 
G1 X67.721 Y107.176 E40.95830 $60 
G1 X68.546 Y106.785 E41.00704 $62 
G1 X68.970 Y106.621 E41.03131 $59 
G1 X69.846 Y106.354 E41.08020 $51 
G1 X70.301 Y106.250 E41.10511 $56 
G1 X71.203 Y106.116 E41.15379 $54 
G1 X71.669 Y106.081 E41.17874 $53 
G1 X72.134 Y106.069 E41.20357 $49 
G1 X72.588 Y106.081 E41.22781 $57 
G1 X73.487 Y106.168 E41.27603 $62 
G1 X74.401 Y106.348 E41.32576 $50 
G1 X75.263 Y106.610 E41.37385 $54 
G1 X75.705 Y106.778 E41.39909 $60 
G1 X76.534 Y107.169 E41.44802 $56 
G1 X76.941 Y107.400 E41.47300 $54 
G1 X77.701 Y107.906 E41.52175 $50 
G1 X78.408 Y108.485 E41.57053 $62 
G1 X78.745 Y108.806 E41.59537 $58 
G1 X79.361 Y109.484 E41.64427 $48 
G1 X79.640 Y109.841 E41.66846 $58 
G1 X80.152 Y110.606 E41.71760 $48 
G1 X80.384 Y111.014 E41.74266 $59 
G1 X80.775 Y111.839 E41.79139 $50 
G1 X80.939 Y112.263 E41.81566 $59 
G1 X81.206 Y113.138 E41.86450 $50 
G1 X81.310 Y113.594 E41.88946 $50 
G1 X81.444 Y114.496 E41.93814 $60 
G1 X81.479 Y114.962 E41.96309 $54 
G1 X81.491 Y115.427 E41.98792 $53 
G1 X81.479 Y115.882 E42.01222 $61 
G1 X81.392 Y116.781 E42.06043 $50 
G1 X81.212 Y117.695 E42.11016 $56 
G1 X80.950 Y118.557 E42.15826 $57 
G1 X80.780 Y119.005 E42.18384 $55 
G1 X80.582 Y119.450 E42.20984 $50 
G1 X80.017 Y120.569 E42.27675 $60 
G1 F2400 E37.77675 $109 
G0 F3600 X78.521 Y119.695 $47 
G1 Z0.300 $33 
G1 F2400 E42.27675 $106 
G1 F1200 X78.909 Y119.049 E42.31698 $81 
G1 X79.231 Y118.367 E42.35724 $57 
G1 X79.485 Y117.658 E42.39745 $61 
G1 X79.668 Y116.925 E42.43778 $59 
G1 X79.779 Y116.180 E42.47798 $55 
G1 X79.816 Y115.427 E42.51823 $50 
G1 X79.779 Y114.674 E42.55848 $56 
G1 X79.668 Y113.929 E42.59868 $55 
G1 X79.485 Y113.196 E42.63902 $62 
G1 X79.231 Y112.487 E42.67922 $53 
G1 X78.909 Y111.805 E42.71948 $58 
G1 X78.521 Y111.159 E42.75971 $50 
G1 X78.072 Y110.553 E42.79997 $58 
G1 X77.566 Y109.994 E42.84022 $63 
G1 X77.007 Y109.488 E42.88047 $50 
G1 X76.401 Y109.039 E42.92073 $51 
G1 X75.755 Y108.651 E42.96096 $52 
G1 X75.073 Y108.329 E43.00122 $61 
G1 X74.364 Y108.075 E43.04142 $49 
G1 X73.631 Y107.892 E43.08175 $53 
G1 X72.886 Y107.781 E43.12196 $61 
G1 X72.134 Y107.744 E43.16215 $56 
G1 X71.381 Y107.781 E43.20240 $59 
G1 X70.636 Y107.892 E43.24261 $57 
