;Generated with Cura_SteamEngine Realio_170823_USB_32
M190 S50.000000
M140 S60.000000
M109 T0 S210.000000
T0
;Sliced at: Mon 24-02-2025 21:56:21
;Basic settings: Layer height: 0.2 Walls: 3 Fill: 20
;Print time: 27 minutes
;Filament used: 1.32m 4g
;Filament cost:  Unknown
;M190 S60 ;Uncomment to add your own bed temperature line
;M109 S210 ;Uncomment to add your own temperature line
G21        ;metric values
G90        ;absolute positioning
M82        ;set extruder to absolute mode
M107       ;start with the fan off
G28 X0 Y0  ;move X/Y to min endstops
G28 Z0     ;move Z to min endstops
G1 Z1.5 F3600 ;move the platform down 1.5mm
G92 E0                  ;zero the extruded length
G1 F200 E8              ;extrude 8mm of feed stock
G92 E0                  ;zero the extruded length again
G1 F3600
;Put printing message on LCD screen
M117 Printing...

M305 S1 $57 	;check Command 
;Layer count: 3
;LAYER:0
M106 S255 $59 
G0 F3600 X41.745 Y42.247 Z0.300 E6.34103 $14 
G92 E0 $25 
G92 E0.5 $2 
G92 E0 $25 
;TYPE:SKIRT
G1 F1200 X42.498 Y41.501 E0.05658 $85 
G1 X43.270 Y40.772 E0.11327 $62 
G1 X44.059 Y40.062 E0.16993 $52 
G1 X44.865 Y39.373 E0.22653 $58 
G1 X45.687 Y38.704 E0.28311 $53 
G1 X46.526 Y38.055 E0.33973 $57 
G1 X47.380 Y37.427 E0.39632 $60 
G1 X48.250 Y36.819 E0.45298 $48 
G1 X49.133 Y36.234 E0.50952 $59 
G1 X50.032 Y35.669 E0.56620 $48 
G1 X50.946 Y35.128 E0.62290 $48 
G1 X51.870 Y34.610 E0.67945 $62 
G1 X52.806 Y34.114 E0.73600 $52 
G1 X53.756 Y33.641 E0.79265 $50 
G1 X54.715 Y33.192 E0.84918 $56 
G1 X55.688 Y32.764 E0.90592 $57 
G1 X56.671 Y32.363 E0.96259 $57 
G1 X57.659 Y31.986 E1.01905 $61 
G1 X58.660 Y31.632 E1.07572 $50 
G1 X59.669 Y31.304 E1.13236 $56 
G1 X60.684 Y31.000 E1.18892 $57 
G1 X61.707 Y30.722 E1.24551 $57 
G1 X62.737 Y30.468 E1.30215 $54 
G1 X63.773 Y30.240 E1.35877 $48 
G1 X64.814 Y30.037 E1.41539 $63 
G1 X65.860 Y29.860 E1.47202 $54 
G1 X66.910 Y29.708 E1.52866 $62 
G1 X67.964 Y29.583 E1.58532 $59 
G1 X69.020 Y29.483 E1.64194 $58 
G1 X70.078 Y29.410 E1.69856 $63 
G1 X71.137 Y29.362 E1.75515 $49 
G1 X72.166 Y29.342 E1.81009 $55 
G1 X72.545 Y29.336 E1.83032 $59 
G1 X73.271 Y29.345 E1.86908 $59 
G1 X74.318 Y29.376 E1.92500 $51 
G1 X75.375 Y29.432 E1.98150 $53 
G1 X76.432 Y29.514 E2.03809 $51 
G1 X77.487 Y29.622 E2.09471 $51 
G1 X78.539 Y29.756 E2.15132 $53 
G1 X79.589 Y29.916 E2.20802 $57 
G1 X80.632 Y30.101 E2.26457 $48 
G1 X81.671 Y30.312 E2.32116 $51 
G1 X82.705 Y30.549 E2.37779 $48 
G1 X83.733 Y30.810 E2.43441 $62 
G1 X84.754 Y31.098 E2.49104 $63 
G1 X85.769 Y31.410 E2.54773 $62 
G1 X86.775 Y31.747 E2.60436 $52 
G1 X87.769 Y32.108 E2.66081 $56 
G1 X88.758 Y32.493 E2.71747 $57 
G1 X89.737 Y32.904 E2.77415 $48 
G1 X90.704 Y33.337 E2.83071 $62 
G1 X91.663 Y33.796 E2.88746 $56 
G1 X92.606 Y34.276 E2.94395 $51 
G1 X93.538 Y34.779 E3.00049 $56 
G1 X94.460 Y35.305 E3.05715 $54 
G1 X95.369 Y35.855 E3.11387 $61 
G1 X96.261 Y36.426 E3.17040 $50 
G1 X97.140 Y37.018 E3.22698 $62 
G1 X98.005 Y37.633 E3.28363 $53 
G1 X98.855 Y38.268 E3.34027 $51 
G1 X99.688 Y38.924 E3.39687 $62 
G1 X100.504 Y39.600 E3.45344 $1 
G1 X101.305 Y40.296 E3.51009 $13 
G1 X102.088 Y41.012 E3.56673 $11 
G1 X102.853 Y41.745 E3.62328 $12 
G1 X103.599 Y42.498 E3.67987 $12 
G1 X104.328 Y43.270 E3.73655 $3 
G1 X105.038 Y44.059 E3.79321 $2 
G1 X105.727 Y44.865 E3.84982 $13 
G1 X106.396 Y45.687 E3.90639 $9 
G1 X107.045 Y46.526 E3.96302 $5 
G1 X107.673 Y47.380 E4.01960 $10 
G1 X108.281 Y48.250 E4.07626 $4 
G1 X108.866 Y49.133 E4.13281 $12 
G1 X109.431 Y50.032 E4.18949 $15 
G1 X109.972 Y50.946 E4.24619 $10 
G1 X110.490 Y51.870 E4.30274 $12 
G1 X110.986 Y52.806 E4.35928 $3 
G1 X111.459 Y53.756 E4.41593 $9 
G1 X111.908 Y54.715 E4.47246 $9 
G1 X112.336 Y55.688 E4.52921 $7 
G1 X112.737 Y56.671 E4.58588 $2 
G1 X113.114 Y57.659 E4.64233 $7 
G1 X113.468 Y58.660 E4.69901 $11 
G1 X113.796 Y59.669 E4.75565 $2 
G1 X114.100 Y60.684 E4.81221 $9 
G1 X114.378 Y61.707 E4.86880 $9 
G1 X114.632 Y62.737 E4.92543 $5 
G1 X114.860 Y63.773 E4.98206 $1 
G1 X115.063 Y64.814 E5.03868 $3 
G1 X115.240 Y65.860 E5.09531 $9 
G1 X115.392 Y66.910 E5.15194 $4 
G1 X115.517 Y67.964 E5.20860 $9 
G1 X115.617 Y69.020 E5.26523 $1 
G1 X115.690 Y70.078 E5.32184 $7 
G1 X115.738 Y71.137 E5.37843 $8 
G1 X115.758 Y72.166 E5.43337 $2 
G1 X115.764 Y72.545 E5.45361 $13 
G1 X115.755 Y73.271 E5.49236 $1 
G1 X115.724 Y74.318 E5.54828 $7 
G1 X115.668 Y75.375 E5.60479 $11 
G1 X115.586 Y76.432 E5.66138 $9 
G1 X115.478 Y77.487 E5.71799 $13 
G1 X115.344 Y78.539 E5.77460 $13 
G1 X115.184 Y79.589 E5.83130 $2 
G1 X114.999 Y80.632 E5.88785 $1 
G1 X114.788 Y81.671 E5.94445 $11 
G1 X114.551 Y82.705 E6.00108 $14 
G1 X114.290 Y83.733 E6.05769 $4 
G1 X114.002 Y84.754 E6.11432 $3 
G1 X113.690 Y85.769 E6.17101 $5 
G1 X113.353 Y86.775 E6.22765 $3 
G1 X112.992 Y87.769 E6.28410 $2 
G1 X112.607 Y88.758 E6.34075 $6 
G1 X112.196 Y89.737 E6.39743 $14 
G1 X111.763 Y90.704 E6.45399 $1 
G1 X111.304 Y91.663 E6.51075 $1 
G1 X110.824 Y92.606 E6.56724 $13 
G1 X110.321 Y93.538 E6.62377 $9 
G1 X109.795 Y94.460 E6.68044 $8 
G1 X109.245 Y95.369 E6.73715 $6 
G1 X108.674 Y96.261 E6.79369 $14 
G1 X108.082 Y97.140 E6.85026 $11 
G1 X107.467 Y98.005 E6.90692 $9 
G1 X106.832 Y98.855 E6.96356 $2 
G1 X106.176 Y99.688 E7.02016 $15 
G1 X105.500 Y100.504 E7.07673 $63 
G1 X104.804 Y101.305 E7.13337 $49 
G1 X104.088 Y102.088 E7.19001 $52 
G1 X103.355 Y102.853 E7.24657 $53 
G1 X102.602 Y103.599 E7.30315 $63 
G1 X101.830 Y104.328 E7.35984 $63 
G1 X101.041 Y105.038 E7.41650 $55 
G1 X100.235 Y105.727 E7.47310 $57 
G1 X99.413 Y106.396 E7.52968 $6 
G1 X98.574 Y107.045 E7.58630 $3 
G1 X97.720 Y107.673 E7.64289 $5 
G1 X96.850 Y108.281 E7.69955 $13 
G1 X95.967 Y108.866 E7.75609 $3 
G1 X95.068 Y109.431 E7.81277 $12 
G1 X94.154 Y109.972 E7.86947 $6 
G1 X93.230 Y110.490 E7.92602 $2 
G1 X92.294 Y110.986 E7.98257 $9 
G1 X91.344 Y111.459 E8.03922 $12 
G1 X90.385 Y111.908 E8.09575 $13 
G1 X89.412 Y112.336 E8.15249 $13 
G1 X88.429 Y112.737 E8.20916 $6 
G1 X87.441 Y113.114 E8.26562 $8 
G1 X86.440 Y113.468 E8.32229 $11 
G1 X85.431 Y113.796 E8.37893 $2 
G1 X84.416 Y114.100 E8.43549 $1 
G1 X83.393 Y114.378 E8.49208 $9 
G1 X82.363 Y114.632 E8.54872 $7 
G1 X81.327 Y114.860 E8.60534 $5 
G1 X80.286 Y115.063 E8.66196 $14 
G1 X79.240 Y115.240 E8.71859 $13 
G1 X78.190 Y115.392 E8.77523 $10 
G1 X77.136 Y115.517 E8.83189 $13 
G1 X76.080 Y115.617 E8.88851 $4 
G1 X75.022 Y115.690 E8.94513 $6 
G1 X73.963 Y115.738 E9.00172 $0 
G1 X72.934 Y115.758 E9.05666 $2 
G1 X72.555 Y115.764 E9.07689 $5 
G1 X71.829 Y115.755 E9.11565 $4 
G1 X70.782 Y115.724 E9.17157 $14 
G1 X69.725 Y115.668 E9.22807 $8 
G1 X68.668 Y115.586 E9.28466 $3 
G1 X67.613 Y115.478 E9.34128 $2 
G1 X66.561 Y115.344 E9.39789 $13 
G1 X65.511 Y115.184 E9.45459 $2 
G1 X64.468 Y114.999 E9.51114 $0 
G1 X63.429 Y114.788 E9.56773 $12 
G1 X62.395 Y114.551 E9.62436 $14 
G1 X61.367 Y114.290 E9.68098 $0 
G1 X60.346 Y114.002 E9.73761 $0 
G1 X59.331 Y113.690 E9.79430 $13 
G1 X58.325 Y113.353 E9.85093 $13 
G1 X57.331 Y112.992 E9.90738 $3 
G1 X56.342 Y112.607 E9.96404 $15 
G1 X55.363 Y112.196 E10.02072 $48 
G1 X54.396 Y111.763 E10.07728 $57 
G1 X53.437 Y111.304 E10.13403 $56 
G1 X52.494 Y110.824 E10.19052 $50 
G1 X51.562 Y110.321 E10.24706 $63 
G1 X50.640 Y109.795 E10.30372 $60 
G1 X49.731 Y109.245 E10.36044 $59 
G1 X48.839 Y108.674 E10.41697 $50 
G1 X47.960 Y108.082 E10.47355 $50 
G1 X47.095 Y107.467 E10.53020 $53 
G1 X46.245 Y106.832 E10.58684 $53 
G1 X45.412 Y106.176 E10.64344 $61 
G1 X44.596 Y105.500 E10.70001 $48 
G1 X43.795 Y104.804 E10.75666 $60 
G1 X43.012 Y104.088 E10.81330 $53 
G1 X42.247 Y103.355 E10.86985 $49 
G1 X41.501 Y102.602 E10.92644 $54 
G1 X40.772 Y101.830 E10.98312 $49 
G1 X40.062 Y101.041 E11.03978 $60 
G1 X39.373 Y100.235 E11.09639 $49 
G1 X38.704 Y99.413 E11.15296 $11 
G1 X38.055 Y98.574 E11.20959 $7 
G1 X37.427 Y97.720 E11.26617 $6 
G1 X36.819 Y96.850 E11.32283 $3 
G1 X36.234 Y95.967 E11.37938 $14 
G1 X35.669 Y95.068 E11.43606 $6 
G1 X35.128 Y94.154 E11.49276 $2 
G1 X34.610 Y93.230 E11.54930 $12 
G1 X34.114 Y92.294 E11.60585 $5 
G1 X33.641 Y91.344 E11.66250 $3 
G1 X33.192 Y90.385 E11.71903 $13 
G1 X32.764 Y89.412 E11.77578 $4 
G1 X32.363 Y88.429 E11.83245 $12 
G1 X31.986 Y87.441 E11.88890 $6 
G1 X31.632 Y86.440 E11.94558 $2 
G1 X31.304 Y85.431 E12.00222 $3 
G1 X31.000 Y84.416 E12.05878 $0 
G1 X30.722 Y83.393 E12.11537 $8 
G1 X30.468 Y82.363 E12.17200 $14 
G1 X30.240 Y81.327 E12.22863 $8 
G1 X30.037 Y80.286 E12.28525 $4 
G1 X29.860 Y79.240 E12.34188 $4 
G1 X29.708 Y78.190 E12.39851 $10 
G1 X29.583 Y77.136 E12.45517 $12 
G1 X29.483 Y76.080 E12.51180 $15 
G1 X29.410 Y75.022 E12.56841 $13 
G1 X29.362 Y73.963 E12.62500 $10 
G1 X29.342 Y72.934 E12.67994 $15 
G1 X29.336 Y72.555 E12.70018 $12 
G1 X29.345 Y71.829 E12.73893 $5 
G1 X29.376 Y70.782 E12.79485 $11 
G1 X29.432 Y69.725 E12.85135 $4 
G1 X29.514 Y68.668 E12.90795 $0 
G1 X29.622 Y67.613 E12.96456 $15 
G1 X29.756 Y66.561 E13.02117 $6 
G1 X29.916 Y65.511 E13.07787 $2 
G1 X30.101 Y64.468 E13.13442 $5 
G1 X30.312 Y63.429 E13.19102 $12 
G1 X30.549 Y62.395 E13.24765 $12 
G1 X30.810 Y61.367 E13.30426 $2 
G1 X31.098 Y60.346 E13.36089 $14 
G1 X31.410 Y59.331 E13.41758 $11 
G1 X31.747 Y58.325 E13.47422 $6 
G1 X32.108 Y57.331 E13.53067 $2 
G1 X32.493 Y56.342 E13.58732 $12 
G1 X32.904 Y55.363 E13.64400 $2 
G1 X33.337 Y54.396 E13.70056 $0 
G1 X33.796 Y53.437 E13.75732 $4 
G1 X34.276 Y52.494 E13.81381 $7 
G1 X34.779 Y51.562 E13.87034 $13 
G1 X35.305 Y50.640 E13.92701 $4 
G1 X35.855 Y49.731 E13.98372 $15 
G1 X36.426 Y48.839 E14.04026 $2 
G1 X37.018 Y47.960 E14.09683 $12 
G1 X37.633 Y47.095 E14.15349 $14 
G1 X38.268 Y46.245 E14.21013 $14 
G1 X38.924 Y45.412 E14.26673 $13 
G1 X39.600 Y44.596 E14.32330 $14 
G1 X40.296 Y43.795 E14.37994 $12 
G1 X41.012 Y43.012 E14.43658 $7 
G1 X41.745 Y42.247 E14.49314 $6 
G1 F2400 E9.99314 $82 
G0 F3600 X46.017 Y46.456 $20 
;TYPE:WALL-INNER
G1 Z0.300 $33 
G1 F2400 E14.49314 $99 
G1 F1200 X46.679 Y45.799 E14.54293 $105 
G1 X47.359 Y45.157 E14.59285 $4 
G1 X48.005 Y44.577 E14.63920 $11 
G1 X48.711 Y43.973 E14.68879 $0 
G1 X49.387 Y43.423 E14.73532 $10 
G1 X50.137 Y42.843 E14.78593 $0 
G1 X50.878 Y42.298 E14.83503 $3 
G1 X51.626 Y41.776 E14.88372 $10 
G1 X52.378 Y41.277 E14.93190 $7 
G1 X53.173 Y40.778 E14.98201 $4 
G1 X53.925 Y40.332 E15.02868 $2 
G1 X54.745 Y39.873 E15.07885 $11 
G1 X55.558 Y39.442 E15.12797 $2 
G1 X56.362 Y39.041 E15.17593 $10 
G1 X57.200 Y38.649 E15.22532 $12 
G1 X58.021 Y38.289 E15.27317 $14 
G1 X58.884 Y37.936 E15.32295 $6 
G1 X59.724 Y37.616 E15.37093 $14 
G1 X60.602 Y37.306 E15.42064 $15 
G1 X61.455 Y37.028 E15.46853 $9 
G1 X62.326 Y36.767 E15.51707 $12 
G1 X63.207 Y36.527 E15.56581 $2 
G1 X64.094 Y36.309 E15.61457 $9 
G1 X64.971 Y36.116 E15.66251 $0 
G1 X65.904 Y35.934 E15.71325 $12 
G1 X66.776 Y35.786 E15.76047 $3 
G1 X67.690 Y35.654 E15.80976 $7 
G1 X68.609 Y35.545 E15.85917 $9 
G1 X69.532 Y35.458 E15.90866 $13 
G1 X70.415 Y35.397 E15.95591 $5 
G1 X71.342 Y35.355 E16.00544 $8 
G1 X72.266 Y35.336 E16.05478 $2 
G1 X72.559 Y35.333 E16.07042 $3 
G1 X73.146 Y35.340 E16.10176 $12 
G1 X74.084 Y35.367 E16.15185 $8 
G1 X74.966 Y35.414 E16.19900 $7 
G1 X75.886 Y35.486 E16.24826 $9 
G1 X76.815 Y35.581 E16.29812 $12 
G1 X77.728 Y35.697 E16.34725 $15 
G1 X78.596 Y35.829 E16.39411 $5 
G1 X79.495 Y35.990 E16.44287 $6 
G1 X80.419 Y36.177 E16.49319 $13 
G1 X81.308 Y36.380 E16.54187 $8 
G1 X82.173 Y36.600 E16.58952 $4 
G1 X83.065 Y36.852 E16.63900 $5 
G1 X83.914 Y37.113 E16.68641 $6 
G1 X84.822 Y37.417 E16.73753 $12 
G1 X85.638 Y37.713 E16.78387 $9 
G1 X86.526 Y38.059 E16.83474 $15 
G1 X87.366 Y38.412 E16.88338 $3 
G1 X88.182 Y38.777 E16.93110 $6 
G1 X89.004 Y39.170 E16.97974 $6 
G1 X89.793 Y39.572 E17.02701 $8 
G1 X90.657 Y40.038 E17.07941 $3 
G1 X91.407 Y40.467 E17.12554 $7 
G1 X92.197 Y40.945 E17.17483 $11 
G1 X92.998 Y41.457 E17.22558 $2 
G1 X93.718 Y41.942 E17.27192 $11 
G1 X94.471 Y42.477 E17.32123 $6 
G1 X95.199 Y43.021 E17.36974 $12 
G1 X95.926 Y43.594 E17.41916 $15 
G1 X96.619 Y44.167 E17.46716 $9 
G1 X97.329 Y44.784 E17.51737 $0 
G1 X97.965 Y45.366 E17.56339 $6 
G1 X98.644 Y46.017 E17.61361 $10 
G1 X99.296 Y46.675 E17.66306 $4 
G1 X99.943 Y47.359 E17.71332 $12 
G1 X100.523 Y48.005 E17.75966 $61 
G1 X101.127 Y48.711 E17.80926 $48 
G1 X101.677 Y49.387 E17.85578 $58 
G1 X102.257 Y50.137 E17.90640 $50 
G1 X102.801 Y50.876 E17.95538 $62 
G1 X103.321 Y51.621 E18.00388 $53 
G1 X103.823 Y52.378 E18.05237 $54 
G1 X104.316 Y53.163 E18.10185 $59 
G1 X104.761 Y53.913 E18.14841 $53 
G1 X105.227 Y54.745 E18.19931 $50 
G1 X105.658 Y55.558 E18.24844 $60 
G1 X106.059 Y56.362 E18.29640 $51 
G1 X106.451 Y57.200 E18.34578 $63 
G1 X106.811 Y58.021 E18.39364 $63 
G1 X107.171 Y58.902 E18.44444 $54 
G1 X107.484 Y59.724 E18.49140 $62 
G1 X107.794 Y60.602 E18.54110 $58 
G1 X108.072 Y61.455 E18.58900 $62 
G1 X108.333 Y62.326 E18.63754 $63 
G1 X108.571 Y63.200 E18.68589 $50 
G1 X108.791 Y64.094 E18.73504 $57 
G1 X108.982 Y64.959 E18.78233 $53 
G1 X109.170 Y65.923 E18.83476 $62 
G1 X109.312 Y66.762 E18.88018 $55 
G1 X109.446 Y67.690 E18.93023 $62 
G1 X109.555 Y68.609 E18.97964 $60 
G1 X109.643 Y69.543 E19.02972 $62 
G1 X109.703 Y70.415 E19.07638 $53 
G1 X109.745 Y71.342 E19.12591 $55 
G1 X109.764 Y72.266 E19.17525 $58 
G1 X109.767 Y72.559 E19.19089 $63 
G1 X109.760 Y73.146 E19.22223 $57 
G1 X109.733 Y74.084 E19.27232 $50 
G1 X109.687 Y74.950 E19.31862 $52 
G1 X109.615 Y75.875 E19.36814 $62 
G1 X109.519 Y76.815 E19.41859 $61 
G1 X109.403 Y77.728 E19.46772 $54 
G1 X109.274 Y78.577 E19.51356 $51 
G1 X109.114 Y79.478 E19.56241 $57 
G1 X108.923 Y80.419 E19.61366 $53 
G1 X108.722 Y81.298 E19.66180 $57 
G1 X108.500 Y82.171 E19.70989 $58 
G1 X108.248 Y83.065 E19.75947 $51 
G1 X107.992 Y83.900 E19.80609 $53 
G1 X107.683 Y84.822 E19.85800 $62 
G1 X107.390 Y85.629 E19.90383 $57 
G1 X107.041 Y86.526 E19.95521 $50 
G1 X106.688 Y87.366 E20.00385 $61 
G1 X106.323 Y88.182 E20.05157 $54 
G1 X105.930 Y89.004 E20.10021 $55 
G1 X105.528 Y89.793 E20.14748 $55 
G1 X105.064 Y90.653 E20.19964 $50 
G1 X104.633 Y91.407 E20.24601 $55 
G1 X104.155 Y92.197 E20.29530 $51 
G1 X103.660 Y92.972 E20.34439 $50 
G1 X103.158 Y93.718 E20.39239 $54 
G1 X102.623 Y94.471 E20.44170 $51 
G1 X102.079 Y95.199 E20.49021 $48 
G1 X101.506 Y95.926 E20.53963 $54 
G1 X100.933 Y96.619 E20.58763 $56 
G1 X100.316 Y97.329 E20.63784 $51 
G1 X99.734 Y97.965 E20.68386 $9 
G1 X99.083 Y98.644 E20.73408 $10 
G1 X98.421 Y99.301 E20.78387 $9 
G1 X97.747 Y99.938 E20.83337 $10 
G1 X97.095 Y100.523 E20.88014 $60 
G1 X96.389 Y101.127 E20.92973 $49 
G1 X95.713 Y101.677 E20.97626 $61 
G1 X94.963 Y102.257 E21.02687 $54 
G1 X94.222 Y102.802 E21.07597 $53 
G1 X93.474 Y103.324 E21.12466 $50 
G1 X92.725 Y103.821 E21.17265 $58 
G1 X91.945 Y104.311 E21.22182 $50 
G1 X91.175 Y104.768 E21.26962 $49 
G1 X90.355 Y105.227 E21.31978 $50 
G1 X89.542 Y105.658 E21.36891 $55 
G1 X88.738 Y106.059 E21.41687 $52 
G1 X87.900 Y106.451 E21.46625 $61 
G1 X87.079 Y106.811 E21.51411 $49 
G1 X86.216 Y107.164 E21.56388 $49 
G1 X85.376 Y107.484 E21.61187 $55 
G1 X84.498 Y107.794 E21.66157 $57 
G1 X83.645 Y108.072 E21.70947 $50 
G1 X82.774 Y108.333 E21.75801 $48 
G1 X81.893 Y108.573 E21.80675 $48 
G1 X81.006 Y108.791 E21.85551 $58 
G1 X80.129 Y108.984 E21.90345 $58 
G1 X79.196 Y109.166 E21.95419 $54 
G1 X78.324 Y109.314 E22.00141 $60 
G1 X77.410 Y109.446 E22.05070 $53 
G1 X76.491 Y109.555 E22.10011 $61 
G1 X75.568 Y109.642 E22.14960 $55 
G1 X74.685 Y109.703 E22.19685 $59 
G1 X73.758 Y109.745 E22.24638 $55 
G1 X72.834 Y109.764 E22.29572 $48 
G1 X72.541 Y109.767 E22.31136 $49 
G1 X71.954 Y109.760 E22.34270 $57 
G1 X71.016 Y109.733 E22.39279 $52 
